; generated by Slic3r 1.1.7 on 2014-12-29 at 21:22:47

; perimeters extrusion width = 0.60mm
; infill extrusion width = 0.60mm
; solid infill extrusion width = 0.60mm
; top infill extrusion width = 0.60mm

G21 ; set units to millimeters
M190 S60 ; wait for bed temperature to be reached
M104 S200 ; set temperature
G28 ; home all axes
G92 E0.0 ; reset extruder
M109 S200 ; wait for temperature to be reached
G90 ; use absolute coordinates
M83 ; use relative distances for extrusion
M106 S255
G1 F1800.000 E-1.00000
G1 Z0.300 F7800.000
G1 X58.269 Y75.822 F7800.000
G1 E1.00000 F1800.000
G1 X101.731 Y75.822 E3.01978 F2160.000
G1 X104.178 Y78.269 E0.24049
G1 X104.178 Y91.731 E0.93531 F2160.000
G1 X101.731 Y94.178 E0.24049
G1 X58.269 Y94.178 E3.01978
G1 X55.822 Y91.731 E0.24049
G1 X55.822 Y78.269 E0.93531
G1 X58.227 Y75.864 E0.23633
G1 X58.500 Y76.379 F7800.000
G1 X101.500 Y76.379 E2.98771 F2160.000
G1 X103.621 Y78.500 E0.20843 F2160.000
G1 X103.621 Y91.500 E0.90325
G1 X101.500 Y93.621 E0.20843
G1 X58.500 Y93.621 E2.98771
G1 X56.379 Y91.500 E0.20843
G1 X56.379 Y78.500 E0.90325
G1 X58.458 Y76.421 E0.20426
G1 X58.731 Y76.936 F7800.000
G1 X101.269 Y76.936 E2.95564 F2160.000
G1 X103.064 Y78.731 E0.17636
G1 X103.064 Y91.269 E0.87118 F2160.000
G1 X101.269 Y93.064 E0.17636
G1 X58.731 Y93.064 E2.95564
G1 X56.936 Y91.269 E0.17636
G1 X56.936 Y78.731 E0.87118
G1 X58.688 Y76.978 E0.17219
G1 X58.962 Y77.493 F7800.000
G1 X101.038 Y77.493 E2.92358 F2160.000
G1 X102.507 Y78.962 E0.14430 F2160.000
G1 X102.507 Y91.038 E0.83912
G1 X101.038 Y92.507 E0.14430
G1 X58.962 Y92.507 E2.92358
G1 X57.493 Y91.038 E0.14430
G1 X57.493 Y78.962 E0.83912
G1 X58.919 Y77.536 E0.14013
G1 X59.192 Y78.050 F7800.000
G1 X100.808 Y78.050 E2.89151 F2160.000
G1 X101.950 Y79.192 E0.11223
G1 X101.950 Y90.808 E0.80705 F2160.000
G1 X100.808 Y91.950 E0.11223
G1 X59.192 Y91.950 E2.89151
G1 X58.050 Y90.808 E0.11223
G1 X58.050 Y79.192 E0.80705
G1 X59.150 Y78.093 E0.10806
G1 X59.423 Y78.607 F7800.000
G1 X100.577 Y78.607 E2.85945 F2160.000
G1 X101.393 Y79.423 E0.08016 F2160.000
G1 X101.393 Y90.577 E0.77499
G1 X100.577 Y91.393 E0.08016
G1 X59.423 Y91.393 E2.85945
G1 X58.607 Y90.577 E0.08016
G1 X58.607 Y79.423 E0.77499
G1 X59.381 Y78.650 E0.07600
G1 X59.654 Y79.164 F7800.000
G1 X100.346 Y79.164 E2.82738 F2160.000
G1 X100.836 Y79.654 E0.04810
G1 X100.836 Y90.346 E0.74292 F2160.000
G1 X100.346 Y90.836 E0.04810
G1 X59.654 Y90.836 E2.82738
G1 X59.164 Y90.346 E0.04810
G1 X59.164 Y79.654 E0.74292
G1 X59.611 Y79.207 E0.04393
G1 X59.885 Y79.721 F7800.000
G1 X100.115 Y79.721 E2.79531 F2160.000
G1 X100.279 Y79.885 E0.01603
G1 X100.279 Y90.115 E0.71085
G1 X100.115 Y90.279 E0.01603
G1 X59.885 Y90.279 E2.79531
G1 X59.721 Y90.115 E0.01603
G1 X59.721 Y79.885 E0.71085
G1 X59.842 Y79.764 E0.01186
G1 F1800.000 E-1.00000
G1 X99.700 Y89.700 F7800.000
G1 E1.00000 F1800.000
G1 X60.300 Y89.700 E2.73759 F1458.000
G1 X60.300 Y80.300 E0.65313
G1 X99.700 Y80.300 E2.73759
G1 X99.700 Y89.640 E0.64896
G1 X99.276 Y80.684 F7800.000
G1 X99.316 Y80.724 E0.00393 F1980.000
G1 X99.316 Y81.524 E0.05557
G1 X98.476 Y80.684 E0.08251
G1 X97.677 Y80.684 E0.05557
G1 X99.316 Y82.323 E0.16110
G1 X99.316 Y83.123 E0.05557
G1 X96.877 Y80.684 E0.23968
G1 X96.077 Y80.684 E0.05557
G1 X99.316 Y83.923 E0.31827
G1 X99.316 Y84.723 E0.05557
G1 X95.277 Y80.684 E0.39685
G1 X94.478 Y80.684 E0.05557
G1 X99.316 Y85.522 E0.47544
G1 X99.316 Y86.322 E0.05557
G1 X93.678 Y80.684 E0.55402
G1 X92.878 Y80.684 E0.05557
G1 X99.316 Y87.122 E0.63260
G1 X99.316 Y87.922 E0.05557
G1 X92.078 Y80.684 E0.71119
G1 X91.279 Y80.684 E0.05557
G1 X99.316 Y88.721 E0.78977
G1 X99.111 Y89.316 E0.04372
G1 X90.479 Y80.684 E0.84823
G1 X89.679 Y80.684 E0.05557
G1 X98.312 Y89.316 E0.84823
G1 X97.512 Y89.316 E0.05557
G1 X88.880 Y80.684 E0.84823
G1 X88.080 Y80.684 E0.05557
G1 X96.712 Y89.316 E0.84823
G1 X95.912 Y89.316 E0.05557
G1 X87.280 Y80.684 E0.84823
G1 X86.480 Y80.684 E0.05557
G1 X95.113 Y89.316 E0.84823
G1 X94.313 Y89.316 E0.05557
G1 X85.681 Y80.684 E0.84823
G1 X84.881 Y80.684 E0.05557
G1 X93.513 Y89.316 E0.84823
G1 X92.713 Y89.316 E0.05557
G1 X84.081 Y80.684 E0.84823
G1 X83.281 Y80.684 E0.05557
G1 X91.914 Y89.316 E0.84823
G1 X91.114 Y89.316 E0.05557
G1 X82.482 Y80.684 E0.84823
G1 X81.682 Y80.684 E0.05557
G1 X90.314 Y89.316 E0.84823
G1 X89.514 Y89.316 E0.05557
G1 X80.882 Y80.684 E0.84823
G1 X80.082 Y80.684 E0.05557
G1 X88.715 Y89.316 E0.84823
G1 X87.915 Y89.316 E0.05557
G1 X79.283 Y80.684 E0.84823
G1 X78.483 Y80.684 E0.05557
G1 X87.115 Y89.316 E0.84823
G1 X86.315 Y89.316 E0.05557
G1 X77.683 Y80.684 E0.84823
G1 X76.883 Y80.684 E0.05557
G1 X85.516 Y89.316 E0.84823
G1 X84.716 Y89.316 E0.05557
G1 X76.084 Y80.684 E0.84823
G1 X75.284 Y80.684 E0.05557
G1 X83.916 Y89.316 E0.84823
G1 X83.117 Y89.316 E0.05557
G1 X74.484 Y80.684 E0.84823
G1 X73.685 Y80.684 E0.05557
G1 X82.317 Y89.316 E0.84823
G1 X81.517 Y89.316 E0.05557
G1 X72.885 Y80.684 E0.84823
G1 X72.085 Y80.684 E0.05557
G1 X80.717 Y89.316 E0.84823
G1 X79.918 Y89.316 E0.05557
G1 X71.285 Y80.684 E0.84823
G1 X70.486 Y80.684 E0.05557
G1 X79.118 Y89.316 E0.84823
G1 X78.318 Y89.316 E0.05557
G1 X69.686 Y80.684 E0.84823
G1 X68.886 Y80.684 E0.05557
G1 X77.518 Y89.316 E0.84823
G1 X76.719 Y89.316 E0.05557
G1 X68.086 Y80.684 E0.84823
G1 X67.287 Y80.684 E0.05557
G1 X75.919 Y89.316 E0.84823
G1 X75.119 Y89.316 E0.05557
G1 X66.487 Y80.684 E0.84823
G1 X65.687 Y80.684 E0.05557
G1 X74.319 Y89.316 E0.84823
G1 X73.520 Y89.316 E0.05557
G1 X64.887 Y80.684 E0.84823
G1 X64.088 Y80.684 E0.05557
G1 X72.720 Y89.316 E0.84823
G1 X71.920 Y89.316 E0.05557
G1 X63.288 Y80.684 E0.84823
G1 X62.488 Y80.684 E0.05557
G1 X71.120 Y89.316 E0.84823
G1 X70.321 Y89.316 E0.05557
G1 X61.688 Y80.684 E0.84823
G1 X60.889 Y80.684 E0.05557
G1 X69.521 Y89.316 E0.84823
G1 X68.721 Y89.316 E0.05557
G1 X60.684 Y81.279 E0.78977
G1 X60.684 Y82.078 E0.05557
G1 X67.922 Y89.316 E0.71119
G1 X67.122 Y89.316 E0.05557
G1 X60.684 Y82.878 E0.63260
G1 X60.684 Y83.678 E0.05557
G1 X66.322 Y89.316 E0.55402
G1 X65.522 Y89.316 E0.05557
G1 X60.684 Y84.478 E0.47544
G1 X60.684 Y85.277 E0.05557
G1 X64.723 Y89.316 E0.39685
G1 X63.923 Y89.316 E0.05557
G1 X60.684 Y86.077 E0.31827
G1 X60.684 Y86.877 E0.05557
G1 X63.123 Y89.316 E0.23968
G1 X62.323 Y89.316 E0.05557
G1 X60.684 Y87.677 E0.16110
G1 X60.684 Y88.476 E0.05557
G1 X61.524 Y89.316 E0.08251
G1 X60.724 Y89.316 E0.05557
G1 X60.684 Y89.276 E0.00393
M104 S185 ; set temperature
M140 S1 ; set bed temperature
G1 F1800.000 E-1.00000
G1 Z0.600 F7800.000
G1 X99.700 Y89.700 F7800.000
G1 E1.00000 F1800.000
G1 X60.300 Y89.700 E2.73759 F1698.857
G1 X60.300 Y80.300 E0.65313
G1 X99.700 Y80.300 E2.73759
G1 X99.700 Y89.640 E0.64896
G1 X99.316 Y89.276 F7800.000
G1 X99.276 Y89.316 E0.00393 F2307.089
G1 X98.476 Y89.316 E0.05557
G1 X99.316 Y88.476 E0.08251
G1 X99.316 Y87.677 E0.05557
G1 X97.677 Y89.316 E0.16110
G1 X96.877 Y89.316 E0.05557
G1 X99.316 Y86.877 E0.23968
G1 X99.316 Y86.077 E0.05557
G1 X96.077 Y89.316 E0.31827
G1 X95.277 Y89.316 E0.05557
G1 X99.316 Y85.277 E0.39685
G1 X99.316 Y84.478 E0.05557
G1 X94.478 Y89.316 E0.47544
G1 X93.678 Y89.316 E0.05557
G1 X99.316 Y83.678 E0.55402
G1 X99.316 Y82.878 E0.05557
G1 X92.878 Y89.316 E0.63260
G1 X92.078 Y89.316 E0.05557
G1 X99.316 Y82.078 E0.71119
G1 X99.316 Y81.279 E0.05557
G1 X91.279 Y89.316 E0.78977
G1 X90.479 Y89.316 E0.05557
G1 X99.111 Y80.684 E0.84823
G1 X98.312 Y80.684 E0.05557
G1 X89.679 Y89.316 E0.84823
G1 X88.880 Y89.316 E0.05557
G1 X97.512 Y80.684 E0.84823
G1 X96.712 Y80.684 E0.05557
G1 X88.080 Y89.316 E0.84823
G1 X87.280 Y89.316 E0.05557
G1 X95.912 Y80.684 E0.84823
G1 X95.113 Y80.684 E0.05557
G1 X86.480 Y89.316 E0.84823
G1 X85.681 Y89.316 E0.05557
G1 X94.313 Y80.684 E0.84823
G1 X93.513 Y80.684 E0.05557
G1 X84.881 Y89.316 E0.84823
G1 X84.081 Y89.316 E0.05557
G1 X92.713 Y80.684 E0.84823
G1 X91.914 Y80.684 E0.05557
G1 X83.281 Y89.316 E0.84823
G1 X82.482 Y89.316 E0.05557
G1 X91.114 Y80.684 E0.84823
G1 X90.314 Y80.684 E0.05557
G1 X81.682 Y89.316 E0.84823
G1 X80.882 Y89.316 E0.05557
G1 X89.514 Y80.684 E0.84823
G1 X88.715 Y80.684 E0.05557
G1 X80.082 Y89.316 E0.84823
G1 X79.283 Y89.316 E0.05557
G1 X87.915 Y80.684 E0.84823
G1 X87.115 Y80.684 E0.05557
G1 X78.483 Y89.316 E0.84823
G1 X77.683 Y89.316 E0.05557
G1 X86.315 Y80.684 E0.84823
G1 X85.516 Y80.684 E0.05557
G1 X76.883 Y89.316 E0.84823
G1 X76.084 Y89.316 E0.05557
G1 X84.716 Y80.684 E0.84823
G1 X83.916 Y80.684 E0.05557
G1 X75.284 Y89.316 E0.84823
G1 X74.484 Y89.316 E0.05557
G1 X83.117 Y80.684 E0.84823
G1 X82.317 Y80.684 E0.05557
G1 X73.685 Y89.316 E0.84823
G1 X72.885 Y89.316 E0.05557
G1 X81.517 Y80.684 E0.84823
G1 X80.717 Y80.684 E0.05557
G1 X72.085 Y89.316 E0.84823
G1 X71.285 Y89.316 E0.05557
G1 X79.918 Y80.684 E0.84823
G1 X79.118 Y80.684 E0.05557
G1 X70.486 Y89.316 E0.84823
G1 X69.686 Y89.316 E0.05557
G1 X78.318 Y80.684 E0.84823
G1 X77.518 Y80.684 E0.05557
G1 X68.886 Y89.316 E0.84823
G1 X68.086 Y89.316 E0.05557
G1 X76.719 Y80.684 E0.84823
G1 X75.919 Y80.684 E0.05557
G1 X67.287 Y89.316 E0.84823
G1 X66.487 Y89.316 E0.05557
G1 X75.119 Y80.684 E0.84823
G1 X74.319 Y80.684 E0.05557
G1 X65.687 Y89.316 E0.84823
G1 X64.887 Y89.316 E0.05557
G1 X73.520 Y80.684 E0.84823
G1 X72.720 Y80.684 E0.05557
G1 X64.088 Y89.316 E0.84823
G1 X63.288 Y89.316 E0.05557
G1 X71.920 Y80.684 E0.84823
G1 X71.120 Y80.684 E0.05557
G1 X62.488 Y89.316 E0.84823
G1 X61.688 Y89.316 E0.05557
G1 X70.321 Y80.684 E0.84823
G1 X69.521 Y80.684 E0.05557
G1 X60.889 Y89.316 E0.84823
G1 X60.684 Y88.721 E0.04372
G1 X68.721 Y80.684 E0.78977
G1 X67.922 Y80.684 E0.05557
G1 X60.684 Y87.922 E0.71119
G1 X60.684 Y87.122 E0.05557
G1 X67.122 Y80.684 E0.63260
G1 X66.322 Y80.684 E0.05557
G1 X60.684 Y86.322 E0.55402
G1 X60.684 Y85.522 E0.05557
G1 X65.522 Y80.684 E0.47544
G1 X64.723 Y80.684 E0.05557
G1 X60.684 Y84.723 E0.39685
G1 X60.684 Y83.923 E0.05557
G1 X63.923 Y80.684 E0.31827
G1 X63.123 Y80.684 E0.05557
G1 X60.684 Y83.123 E0.23968
G1 X60.684 Y82.323 E0.05557
G1 X62.323 Y80.684 E0.16110
G1 X61.524 Y80.684 E0.05557
G1 X60.684 Y81.524 E0.08251
G1 X60.684 Y80.724 E0.05557
G1 X60.724 Y80.684 E0.00393
G1 F1800.000 E-1.00000
G1 Z0.900 F7800.000
G1 X99.700 Y89.700 F7800.000
G1 E1.00000 F1800.000
G1 X60.300 Y89.700 E2.73759 F1698.857
G1 X60.300 Y80.300 E0.65313
G1 X99.700 Y80.300 E2.73759
G1 X99.700 Y89.640 E0.64896
G1 X99.276 Y80.684 F7800.000
G1 X99.316 Y80.724 E0.00393 F2307.089
G1 X99.316 Y81.524 E0.05557
G1 X98.476 Y80.684 E0.08251
G1 X97.677 Y80.684 E0.05557
G1 X99.316 Y82.323 E0.16110
G1 X99.316 Y83.123 E0.05557
G1 X96.877 Y80.684 E0.23968
G1 X96.077 Y80.684 E0.05557
G1 X99.316 Y83.923 E0.31827
G1 X99.316 Y84.723 E0.05557
G1 X95.277 Y80.684 E0.39685
G1 X94.478 Y80.684 E0.05557
G1 X99.316 Y85.522 E0.47544
G1 X99.316 Y86.322 E0.05557
G1 X93.678 Y80.684 E0.55402
G1 X92.878 Y80.684 E0.05557
G1 X99.316 Y87.122 E0.63260
G1 X99.316 Y87.922 E0.05557
G1 X92.078 Y80.684 E0.71119
G1 X91.279 Y80.684 E0.05557
G1 X99.316 Y88.721 E0.78977
G1 X99.111 Y89.316 E0.04372
G1 X90.479 Y80.684 E0.84823
G1 X89.679 Y80.684 E0.05557
G1 X98.312 Y89.316 E0.84823
G1 X97.512 Y89.316 E0.05557
G1 X88.880 Y80.684 E0.84823
G1 X88.080 Y80.684 E0.05557
G1 X96.712 Y89.316 E0.84823
G1 X95.912 Y89.316 E0.05557
G1 X87.280 Y80.684 E0.84823
G1 X86.480 Y80.684 E0.05557
G1 X95.113 Y89.316 E0.84823
G1 X94.313 Y89.316 E0.05557
G1 X85.681 Y80.684 E0.84823
G1 X84.881 Y80.684 E0.05557
G1 X93.513 Y89.316 E0.84823
G1 X92.713 Y89.316 E0.05557
G1 X84.081 Y80.684 E0.84823
G1 X83.281 Y80.684 E0.05557
G1 X91.914 Y89.316 E0.84823
G1 X91.114 Y89.316 E0.05557
G1 X82.482 Y80.684 E0.84823
G1 X81.682 Y80.684 E0.05557
G1 X90.314 Y89.316 E0.84823
G1 X89.514 Y89.316 E0.05557
G1 X80.882 Y80.684 E0.84823
G1 X80.082 Y80.684 E0.05557
G1 X88.715 Y89.316 E0.84823
G1 X87.915 Y89.316 E0.05557
G1 X79.283 Y80.684 E0.84823
G1 X78.483 Y80.684 E0.05557
G1 X87.115 Y89.316 E0.84823
G1 X86.315 Y89.316 E0.05557
G1 X77.683 Y80.684 E0.84823
G1 X76.883 Y80.684 E0.05557
G1 X85.516 Y89.316 E0.84823
G1 X84.716 Y89.316 E0.05557
G1 X76.084 Y80.684 E0.84823
G1 X75.284 Y80.684 E0.05557
G1 X83.916 Y89.316 E0.84823
G1 X83.117 Y89.316 E0.05557
G1 X74.484 Y80.684 E0.84823
G1 X73.685 Y80.684 E0.05557
G1 X82.317 Y89.316 E0.84823
G1 X81.517 Y89.316 E0.05557
G1 X72.885 Y80.684 E0.84823
G1 X72.085 Y80.684 E0.05557
G1 X80.717 Y89.316 E0.84823
G1 X79.918 Y89.316 E0.05557
G1 X71.285 Y80.684 E0.84823
G1 X70.486 Y80.684 E0.05557
G1 X79.118 Y89.316 E0.84823
G1 X78.318 Y89.316 E0.05557
G1 X69.686 Y80.684 E0.84823
G1 X68.886 Y80.684 E0.05557
G1 X77.518 Y89.316 E0.84823
G1 X76.719 Y89.316 E0.05557
G1 X68.086 Y80.684 E0.84823
G1 X67.287 Y80.684 E0.05557
G1 X75.919 Y89.316 E0.84823
G1 X75.119 Y89.316 E0.05557
G1 X66.487 Y80.684 E0.84823
G1 X65.687 Y80.684 E0.05557
G1 X74.319 Y89.316 E0.84823
G1 X73.520 Y89.316 E0.05557
G1 X64.887 Y80.684 E0.84823
G1 X64.088 Y80.684 E0.05557
G1 X72.720 Y89.316 E0.84823
G1 X71.920 Y89.316 E0.05557
G1 X63.288 Y80.684 E0.84823
G1 X62.488 Y80.684 E0.05557
G1 X71.120 Y89.316 E0.84823
G1 X70.321 Y89.316 E0.05557
G1 X61.688 Y80.684 E0.84823
G1 X60.889 Y80.684 E0.05557
G1 X69.521 Y89.316 E0.84823
G1 X68.721 Y89.316 E0.05557
G1 X60.684 Y81.279 E0.78977
G1 X60.684 Y82.078 E0.05557
G1 X67.922 Y89.316 E0.71119
G1 X67.122 Y89.316 E0.05557
G1 X60.684 Y82.878 E0.63260
G1 X60.684 Y83.678 E0.05557
G1 X66.322 Y89.316 E0.55402
G1 X65.522 Y89.316 E0.05557
G1 X60.684 Y84.478 E0.47544
G1 X60.684 Y85.277 E0.05557
G1 X64.723 Y89.316 E0.39685
G1 X63.923 Y89.316 E0.05557
G1 X60.684 Y86.077 E0.31827
G1 X60.684 Y86.877 E0.05557
G1 X63.123 Y89.316 E0.23968
G1 X62.323 Y89.316 E0.05557
G1 X60.684 Y87.677 E0.16110
G1 X60.684 Y88.476 E0.05557
G1 X61.524 Y89.316 E0.08251
G1 X60.724 Y89.316 E0.05557
G1 X60.684 Y89.276 E0.00393
G1 F1800.000 E-1.00000
G1 Z1.200 F7800.000
G1 X99.700 Y89.700 F7800.000
G1 E1.00000 F1800.000
G1 X60.300 Y89.700 E2.73759 F900.000
G1 X60.300 Y80.300 E0.65313
G1 X99.700 Y80.300 E2.73759
G1 X99.700 Y89.640 E0.64896
G1 X97.372 Y89.316 F7800.000
G1 X99.316 Y86.957 E0.21242 F978.469
G1 X99.316 Y85.568 E0.09649
G1 X95.568 Y89.316 E0.36827
G1 X91.623 Y89.316 E0.27411
G1 X98.738 Y80.684 E0.77724
G1 X97.898 Y80.684 E0.05835
G1 X89.266 Y89.316 E0.84823
G1 X85.875 Y89.316 E0.23560
G1 X92.989 Y80.684 E0.77724
G1 X91.595 Y80.684 E0.09685
G1 X82.963 Y89.316 E0.84823
G1 X80.126 Y89.316 E0.19710
G1 X87.241 Y80.684 E0.77724
G1 X85.293 Y80.684 E0.13535
G1 X76.660 Y89.316 E0.84823
G1 X74.378 Y89.316 E0.15860
G1 X81.492 Y80.684 E0.77724
G1 X78.990 Y80.684 E0.17385
G1 X70.358 Y89.316 E0.84823
G1 X68.629 Y89.316 E0.12010
G1 X75.744 Y80.684 E0.77724
G1 X72.687 Y80.684 E0.21236
G1 X64.055 Y89.316 E0.84823
G1 X62.881 Y89.316 E0.08159
G1 X69.995 Y80.684 E0.77724
G1 X66.385 Y80.684 E0.25086
G1 X60.684 Y86.385 E0.56018
G1 X60.684 Y85.007 E0.09574
G1 X64.247 Y80.684 E0.38923
G1 F1800.000 E-1.00000
G1 Z1.500 F7800.000
G1 X99.700 Y89.700 F7800.000
G1 E1.00000 F1800.000
G1 X60.300 Y89.700 E2.73759 F2430.000
G1 X60.300 Y80.300 E0.65313
G1 X99.700 Y80.300 E2.73759
G1 X99.700 Y89.640 E0.64896
G1 X99.276 Y80.684 F7800.000
M106 S255
G1 X99.316 Y80.724 E0.00296 F600.000
G1 X99.316 Y81.362 E0.03331
G1 X98.638 Y80.684 E0.05007
G1 X98.001 Y80.684 E0.03331
G1 X99.316 Y81.999 E0.09718
G1 X99.316 Y82.637 E0.03331
G1 X97.363 Y80.684 E0.14429
G1 X96.726 Y80.684 E0.03331
G1 X99.316 Y83.274 E0.19140
G1 X99.316 Y83.912 E0.03331
G1 X96.088 Y80.684 E0.23851
G1 X95.450 Y80.684 E0.03331
G1 X99.316 Y84.550 E0.28562
G1 X99.316 Y85.187 E0.03331
G1 X94.813 Y80.684 E0.33274
G1 X94.175 Y80.684 E0.03331
G1 X99.316 Y85.825 E0.37985
G1 X99.316 Y86.463 E0.03331
G1 X93.537 Y80.684 E0.42696
G1 X92.900 Y80.684 E0.03331
G1 X99.316 Y87.100 E0.47407
G1 X99.316 Y87.738 E0.03331
G1 X92.262 Y80.684 E0.52118
G1 X91.625 Y80.684 E0.03331
G1 X99.316 Y88.375 E0.56829
G1 X99.316 Y89.013 E0.03331
G1 X90.987 Y80.684 E0.61540
G1 X90.349 Y80.684 E0.03331
G1 X98.982 Y89.316 E0.63780
G1 X98.344 Y89.316 E0.03331
G1 X89.712 Y80.684 E0.63780
G1 X89.074 Y80.684 E0.03331
G1 X97.706 Y89.316 E0.63780
G1 X97.069 Y89.316 E0.03331
G1 X88.436 Y80.684 E0.63780
G1 X87.799 Y80.684 E0.03331
G1 X96.431 Y89.316 E0.63780
G1 X95.793 Y89.316 E0.03331
G1 X87.161 Y80.684 E0.63780
