; generated by Slic3r 1.2.9 on 2015-07-14 at 22:21:46

; external perimeters extrusion width = 0.40mm
; perimeters extrusion width = 0.67mm
; infill extrusion width = 0.67mm
; solid infill extrusion width = 0.67mm
; top infill extrusion width = 0.67mm

M107
M190 S60 ; set bed temperature
M104 S212 ; set temperature
G28 ; home all axes
G92 E0.0 ; reset extruder
M109 S212 ; wait for temperature to be reached
G21 ; set units to millimeters
G90 ; use absolute coordinates
M83 ; use relative distances for extrusion
G1 E-1.30000 F3600.00000
G1 Z0.200 F7800.000
G1 X32.468 Y34.569 F7800.000
G1 E1.30000 F3600.00000
M204 S500
G1 F2160
G1 X33.773 Y33.477 E0.04487
G1 X34.225 Y33.159 E0.01457
G1 X35.718 Y32.297 E0.04545
G1 X36.199 Y32.070 E0.01403
G1 X37.837 Y31.470 E0.04599
G1 X38.333 Y31.334 E0.01357
G1 X40.067 Y31.021 E0.04645
G1 X40.552 Y30.975 E0.01285
G1 X41.512 Y30.932 E0.02532
G1 X138.488 Y30.932 E2.55681
G1 X139.445 Y30.975 E0.02525
G1 F2160
G1 X139.933 Y31.021 E0.01292
G1 X141.663 Y31.333 E0.04636
G1 X142.163 Y31.470 E0.01366
G1 X143.802 Y32.070 E0.04602
G1 X144.282 Y32.297 E0.01401
G1 X145.770 Y33.156 E0.04529
G1 X146.227 Y33.477 E0.01473
G1 X147.532 Y34.569 E0.04486
G1 X147.938 Y34.976 E0.01516
G1 X149.022 Y36.257 E0.04424
G1 X149.366 Y36.747 E0.01579
G1 X150.203 Y38.179 E0.04373
G1 X150.466 Y38.738 E0.01630
G1 X151.037 Y40.270 E0.04310
G1 X151.205 Y40.889 E0.01692
G1 X151.388 Y41.704 E0.02202
G1 X155.491 Y64.085 E0.59990
G1 X155.953 Y67.193 E0.08286
G1 X156.051 Y68.140 E0.02509
G1 X156.235 Y71.323 E0.08406
G1 X156.248 Y72.266 E0.02487
G1 X156.148 Y75.529 E0.08607
G1 X156.079 Y76.449 E0.02433
G1 X155.683 Y79.806 E0.08912
G1 X155.541 Y80.687 E0.02354
G1 X154.833 Y84.152 E0.09323
G1 X154.628 Y84.981 E0.02253
G1 X153.590 Y88.567 E0.09842
G1 X153.335 Y89.336 E0.02136
G1 X151.942 Y93.056 E0.10473
G1 X151.650 Y93.760 E0.02009
G1 X149.877 Y97.627 E0.11217
G1 X149.559 Y98.264 E0.01877
G1 X147.375 Y102.291 E0.12076
G1 X147.044 Y102.859 E0.01733
G1 X144.183 Y107.418 E0.14191
G1 X140.967 Y111.957 E0.14666
G1 X140.136 Y112.986 E0.03488
G1 X110.238 Y145.618 E1.16686
G1 X107.997 Y147.474 E0.07672
G1 X105.337 Y148.654 E0.07672
G1 X102.397 Y149.068 E0.07828
G1 X77.603 Y149.068 E0.65369
G1 X74.721 Y148.670 E0.07672
G1 X72.054 Y147.506 E0.07672
G1 X69.762 Y145.618 E0.07828
G1 X39.864 Y112.986 E1.16686
G1 X39.033 Y111.957 E0.03488
G1 X35.817 Y107.417 E0.14668
G1 X32.956 Y102.859 E0.14190
G1 X32.625 Y102.291 E0.01733
G1 X30.441 Y98.264 E0.12076
G1 X30.123 Y97.627 E0.01877
G1 X28.350 Y93.760 E0.11217
G1 X28.058 Y93.056 E0.02010
G1 X26.665 Y89.336 E0.10473
G1 X26.410 Y88.567 E0.02136
G1 X25.372 Y84.981 E0.09842
G1 X25.167 Y84.152 E0.02253
G1 X24.459 Y80.687 E0.09323
G1 X24.317 Y79.806 E0.02354
G1 X23.921 Y76.449 E0.08912
G1 X23.852 Y75.529 E0.02433
G1 X23.752 Y72.266 E0.08607
G1 X23.765 Y71.323 E0.02487
G1 X23.949 Y68.140 E0.08406
G1 X24.047 Y67.193 E0.02509
G1 X24.509 Y64.085 E0.08286
G1 X28.612 Y41.704 E0.59990
G1 X28.795 Y40.889 E0.02202
G1 X28.963 Y40.272 E0.01688
G1 X29.534 Y38.738 E0.04315
G1 X29.798 Y38.177 E0.01634
G1 X30.634 Y36.747 E0.04369
G1 X30.977 Y36.259 E0.01573
G1 X32.062 Y34.976 E0.04430
G1 X32.425 Y34.611 E0.01357
G1 X32.690 Y34.795 F7800.000
G1 F2160
G1 X33.957 Y33.736 E0.04353
G1 X34.406 Y33.420 E0.01448
G1 X35.854 Y32.583 E0.04409
G1 X36.332 Y32.358 E0.01395
G1 X37.921 Y31.775 E0.04462
G1 X38.415 Y31.640 E0.01350
G1 X40.097 Y31.337 E0.04506
G1 X40.581 Y31.291 E0.01281
G1 X41.512 Y31.249 E0.02457
G1 X138.488 Y31.249 E2.55681
G1 X139.416 Y31.291 E0.02450
G1 F2160
G1 X139.903 Y31.337 E0.01288
G1 X141.581 Y31.639 E0.04497
G1 X142.078 Y31.775 E0.01359
G1 X143.669 Y32.358 E0.04465
G1 X144.147 Y32.583 E0.01393
G1 X145.590 Y33.417 E0.04394
G1 X146.043 Y33.736 E0.01463
G1 X147.310 Y34.795 E0.04353
G1 X147.713 Y35.199 E0.01505
G1 X148.764 Y36.442 E0.04292
G1 X149.105 Y36.928 E0.01566
G1 X149.918 Y38.317 E0.04243
G1 X150.178 Y38.872 E0.01615
G1 X150.732 Y40.358 E0.04182
G1 X150.899 Y40.971 E0.01675
G1 X151.077 Y41.762 E0.02137
G1 X155.178 Y64.131 E0.59961
G1 X155.639 Y67.240 E0.08286
G1 X155.734 Y68.158 E0.02434
G1 X155.919 Y71.341 E0.08406
G1 X155.931 Y72.256 E0.02413
G1 X155.831 Y75.519 E0.08607
G1 X155.764 Y76.412 E0.02361
G1 X155.368 Y79.769 E0.08912
G1 X155.230 Y80.624 E0.02283
G1 X154.522 Y84.088 E0.09323
G1 X154.324 Y84.893 E0.02186
G1 X153.285 Y88.479 E0.09842
G1 X153.038 Y89.225 E0.02073
G1 X151.645 Y92.945 E0.10473
G1 X151.362 Y93.628 E0.01950
G1 X149.589 Y97.495 E0.11217
G1 X149.280 Y98.113 E0.01821
G1 X147.097 Y102.140 E0.12076
G1 X146.775 Y102.691 E0.01681
G1 X143.919 Y107.242 E0.14167
G1 X140.708 Y111.773 E0.14642
G1 X139.902 Y112.772 E0.03384
G1 X110.004 Y145.404 E1.16686
G1 X107.793 Y147.227 E0.07556
G1 X105.166 Y148.373 E0.07556
G1 X102.397 Y148.751 E0.07368
G1 X77.603 Y148.751 E0.65369
G1 X74.765 Y148.353 E0.07556
G1 X72.146 Y147.190 E0.07556
G1 X69.996 Y145.404 E0.07368
G1 X40.098 Y112.772 E1.16686
G1 X39.292 Y111.773 E0.03384
G1 X36.081 Y107.241 E0.14644
G1 X33.225 Y102.691 E0.14165
G1 X32.903 Y102.140 E0.01681
G1 X30.720 Y98.113 E0.12076
G1 X30.411 Y97.495 E0.01821
G1 X28.638 Y93.628 E0.11217
G1 X28.355 Y92.945 E0.01950
G1 X26.962 Y89.225 E0.10473
G1 X26.715 Y88.479 E0.02073
G1 X25.676 Y84.893 E0.09842
G1 X25.478 Y84.088 E0.02186
G1 X24.770 Y80.624 E0.09323
G1 X24.632 Y79.769 E0.02284
G1 X24.236 Y76.412 E0.08912
G1 X24.169 Y75.519 E0.02361
G1 X24.069 Y72.256 E0.08607
G1 X24.081 Y71.341 E0.02413
G1 X24.266 Y68.158 E0.08406
G1 X24.361 Y67.240 E0.02434
G1 X24.822 Y64.131 E0.08286
G1 X28.923 Y41.762 E0.59961
G1 X29.101 Y40.971 E0.02136
G1 X29.268 Y40.359 E0.01672
G1 X29.822 Y38.871 E0.04186
G1 X30.083 Y38.316 E0.01619
G1 X30.895 Y36.928 E0.04238
G1 X31.234 Y36.444 E0.01560
G1 X32.287 Y35.199 E0.04298
G1 X32.647 Y34.837 E0.01346
G1 F6240
G1 X32.690 Y34.795 E-0.03288
G1 F6240
G1 X33.957 Y33.736 E-0.90496
G1 F6240
G1 X34.239 Y33.535 E-0.19004
G1 F6240
G1 X34.335 Y33.469 E-0.06389
G1 F6240
G1 X34.400 Y33.424 E-0.04322
G1 E-0.06500 F3600.00000
G1 X137.060 Y44.579 F7800.000
G1 E1.30000 F3600.00000
G1 F1080
G1 X136.992 Y44.326 E0.00689
G1 X136.969 Y44.066 E0.00689
G1 X136.992 Y43.806 E0.00689
G1 X137.060 Y43.553 E0.00689
G1 X137.170 Y43.316 E0.00689
G1 X137.320 Y43.102 E0.00689
G1 X137.505 Y42.918 E0.00689
G1 X137.719 Y42.768 E0.00689
G1 X137.962 Y42.654 E0.00708
G1 X138.250 Y42.586 E0.00780
G1 F1080
G1 X138.468 Y42.567 E0.00578
G1 X138.729 Y42.590 E0.00689
G1 X138.981 Y42.657 E0.00689
G1 X139.218 Y42.768 E0.00689
G1 X139.432 Y42.918 E0.00689
G1 X139.617 Y43.102 E0.00689
G1 X139.767 Y43.316 E0.00689
G1 X139.877 Y43.553 E0.00689
G1 X139.945 Y43.806 E0.00689
G1 X139.967 Y44.066 E0.00689
G1 X139.945 Y44.326 E0.00689
G1 X139.877 Y44.579 E0.00689
G1 X139.767 Y44.815 E0.00689
G1 X139.617 Y45.029 E0.00689
G1 X139.432 Y45.214 E0.00689
G1 X139.218 Y45.364 E0.00689
G1 X138.981 Y45.475 E0.00689
G1 X138.729 Y45.542 E0.00689
G1 X138.468 Y45.565 E0.00689
G1 X138.208 Y45.542 E0.00689
G1 X137.956 Y45.475 E0.00689
G1 X137.719 Y45.364 E0.00689
G1 X137.505 Y45.214 E0.00689
G1 X137.320 Y45.029 E0.00689
G1 X137.170 Y44.815 E0.00689
G1 X137.085 Y44.633 E0.00531
G1 X137.359 Y44.470 F7800.000
G1 F1080
G1 X137.306 Y44.271 E0.00543
G1 X137.288 Y44.066 E0.00543
G1 X137.306 Y43.861 E0.00543
G1 X137.359 Y43.662 E0.00543
G1 X137.446 Y43.476 E0.00543
G1 X137.564 Y43.307 E0.00543
G1 X137.709 Y43.162 E0.00543
G1 X137.878 Y43.043 E0.00543
G1 X138.067 Y42.955 E0.00550
G1 X138.301 Y42.900 E0.00633
G1 F1080
G1 X138.468 Y42.885 E0.00444
G1 X138.673 Y42.903 E0.00543
G1 X138.872 Y42.956 E0.00543
G1 X139.059 Y43.043 E0.00543
G1 X139.227 Y43.162 E0.00543
G1 X139.373 Y43.307 E0.00543
G1 X139.491 Y43.476 E0.00543
G1 X139.578 Y43.662 E0.00543
G1 X139.631 Y43.861 E0.00543
G1 X139.649 Y44.066 E0.00543
G1 X139.631 Y44.271 E0.00543
G1 X139.578 Y44.470 E0.00543
G1 X139.491 Y44.656 E0.00543
G1 X139.373 Y44.825 E0.00543
G1 X139.227 Y44.970 E0.00543
G1 X139.059 Y45.088 E0.00543
G1 X138.872 Y45.175 E0.00543
G1 X138.673 Y45.229 E0.00543
G1 X138.468 Y45.247 E0.00543
G1 X138.263 Y45.229 E0.00543
G1 X138.065 Y45.175 E0.00543
G1 X137.878 Y45.088 E0.00543
G1 X137.709 Y44.970 E0.00543
G1 X137.564 Y44.825 E0.00543
G1 X137.446 Y44.656 E0.00543
G1 X137.384 Y44.524 E0.00384
G1 X137.359 Y44.470 F7800.000
G1 X138.933 Y46.067 F7800.000
G1 F1620
G1 X138.417 Y46.067 E0.01359
G1 X138.060 Y46.025 E0.00948
G1 X137.729 Y45.925 E0.00912
G1 X137.420 Y45.770 E0.00912
G1 X137.142 Y45.564 E0.00912
G1 X136.903 Y45.313 E0.00913
G1 X136.712 Y45.024 E0.00912
G1 X136.573 Y44.707 E0.00912
G1 X136.491 Y44.371 E0.00913
G1 X136.468 Y44.026 E0.00913
G1 X136.505 Y43.681 E0.00914
G1 X136.578 Y43.424 E0.00705
G1 X136.756 Y43.032 E0.01134
G1 X136.955 Y42.757 E0.00895
G1 X137.203 Y42.516 E0.00913
G1 X137.489 Y42.321 E0.00913
G1 X137.732 Y42.211 E0.00705
G1 X138.146 Y42.092 E0.01135
G1 X138.486 Y42.065 E0.00899
G1 X138.829 Y42.098 E0.00908
G1 X139.163 Y42.189 E0.00913
G1 X139.476 Y42.337 E0.00913
G1 X139.758 Y42.536 E0.00913
G1 X140.003 Y42.781 E0.00913
G1 X140.201 Y43.065 E0.00913
G1 X140.348 Y43.379 E0.00913
G1 X140.436 Y43.707 E0.00896
G1 X140.464 Y44.135 E0.01133
G1 X140.441 Y44.401 E0.00703
G1 X140.353 Y44.737 E0.00916
G1 X140.209 Y45.052 E0.00912
G1 X140.014 Y45.337 E0.00912
G1 X139.762 Y45.594 E0.00947
G1 X139.389 Y45.892 E0.01259
G1 X140.273 Y48.855 E0.08151
G1 X141.025 Y52.092 E0.08762
G1 X141.544 Y55.309 E0.08592
G1 X141.766 Y57.416 E0.05585
G1 X142.750 Y59.739 E0.06653
G1 X143.755 Y62.722 E0.08300
G1 X144.484 Y65.742 E0.08191
G1 X144.939 Y68.807 E0.08169
G1 X145.122 Y71.945 E0.08289
G1 X145.022 Y75.165 E0.08492
G1 X144.631 Y78.479 E0.08800
G1 X143.931 Y81.904 E0.09215
G1 X142.903 Y85.452 E0.09739
G1 X141.524 Y89.137 E0.10376
G1 X139.765 Y92.973 E0.11126
G1 X137.597 Y96.972 E0.11991
G1 X134.924 Y101.239 E0.13276
G1 X133.352 Y103.454 E0.07161
G1 X133.212 Y103.395 E0.00400
G1 X133.818 Y99.856 E0.09468
G1 X132.853 Y99.599 E0.02634
G1 X131.954 Y102.054 E0.06894
G1 X131.012 Y103.920 E0.05511
G1 X129.946 Y105.487 E0.04997
G1 X128.756 Y106.791 E0.04654
G1 X127.406 Y107.877 E0.04569
G1 X125.919 Y108.965 E0.04857
G1 X124.138 Y110.542 E0.06273
G1 X123.219 Y111.591 E0.03676
G1 X123.091 Y111.534 E0.00370
G1 X123.640 Y106.913 E0.12268
G1 X122.642 Y106.720 E0.02680
G1 X121.921 Y109.379 E0.07263
G1 X120.975 Y112.168 E0.07764
G1 X120.538 Y113.213 E0.02986
G1 X119.652 Y114.894 E0.05011
G1 X119.006 Y115.769 E0.02866
G1 X118.570 Y116.201 E0.01620
G1 X118.131 Y116.597 E0.01559
G1 X116.117 Y118.738 E0.07749
G1 X112.208 Y123.394 E0.16029
G1 X108.930 Y127.505 E0.13861
G1 X108.803 Y127.460 E0.00356
G1 X108.803 Y125.895 E0.04127
G1 X107.915 Y125.725 E0.02384
G1 X107.376 Y127.079 E0.03843
G1 X106.481 Y129.702 E0.07308
G1 X106.263 Y130.686 E0.02658
G1 X106.224 Y131.167 E0.01273
G1 X106.190 Y131.305 E0.00374
G1 X106.133 Y131.420 E0.00338
G1 X105.911 Y131.740 E0.01026
G1 X105.672 Y132.026 E0.00985
G1 X104.192 Y133.621 E0.05736
G1 X103.081 Y135.020 E0.04710
G1 X102.442 Y136.130 E0.03377
G1 X102.129 Y136.937 E0.02281
G1 X101.953 Y137.704 E0.02076
G1 X101.937 Y137.923 E0.00578
G1 X100.851 Y137.891 E0.02865
G1 X100.031 Y137.825 E0.02168
G1 X98.057 Y137.508 E0.05273
G1 X96.533 Y137.053 E0.04192
G1 X95.394 Y136.528 E0.03306
G1 X94.505 Y135.944 E0.02805
G1 X93.784 Y135.287 E0.02571
G1 X93.194 Y134.541 E0.02509
G1 X92.744 Y133.729 E0.02447
G1 X92.390 Y132.759 E0.02724
G1 X92.151 Y131.536 E0.03285
G1 X92.088 Y129.722 E0.04786
G1 X92.013 Y129.418 E0.00824
G1 X91.995 Y129.200 E0.00577
G1 X92.016 Y128.932 E0.00708
G1 X92.098 Y128.586 E0.00939
G1 X92.288 Y128.116 E0.01336
G1 X92.736 Y127.362 E0.02311
G1 X93.765 Y126.111 E0.04271
G1 X95.650 Y124.343 E0.06814
G1 X98.604 Y122.050 E0.09860
G1 X98.090 Y121.214 E0.02587
G1 X95.324 Y122.526 E0.08071
G1 X92.937 Y123.865 E0.07216
G1 X91.941 Y124.593 E0.03252
G1 X91.921 Y121.604 E0.07880
G1 X92.145 Y119.112 E0.06597
G1 X92.586 Y116.917 E0.05902
G1 X93.226 Y114.983 E0.05371
G1 X94.056 Y113.276 E0.05004
G1 X95.078 Y111.767 E0.04804
G1 X96.277 Y110.463 E0.04673
G1 X97.729 Y109.293 E0.04915
G1 X99.443 Y108.288 E0.05239
G1 X101.925 Y107.265 E0.07077
G1 X101.618 Y106.305 E0.02656
G1 X100.705 Y106.516 E0.02472
G1 X97.879 Y107.337 E0.07757
G1 X95.770 Y108.177 E0.05985
G1 X94.876 Y108.688 E0.02716
G1 X94.934 Y107.237 E0.03828
G1 X95.254 Y105.407 E0.04898
G1 X95.810 Y103.724 E0.04673
G1 X96.463 Y102.408 E0.03874
G1 X97.478 Y100.939 E0.04707
G1 X98.777 Y99.566 E0.04983
G1 X100.405 Y98.285 E0.05463
G1 X102.413 Y97.102 E0.06142
G1 X104.754 Y96.073 E0.06742
G1 X107.694 Y95.125 E0.08145
G1 X107.532 Y94.189 E0.02505
G1 X102.821 Y94.336 E0.12426
G1 X103.368 Y93.632 E0.02351
G1 X107.562 Y88.037 E0.18434
G1 X109.429 Y85.257 E0.08829
G1 X109.643 Y84.911 E0.01074
G1 X110.633 Y83.532 E0.04475
G1 X111.836 Y82.209 E0.04714
G1 X113.272 Y80.966 E0.05009
G1 X114.960 Y79.824 E0.05375
G1 X116.922 Y78.800 E0.05834
G1 X119.183 Y77.917 E0.06398
G1 X121.870 Y77.170 E0.07355
G1 X121.710 Y76.200 E0.02591
G1 X116.811 Y76.480 E0.12936
G1 X123.973 Y69.318 E0.26703
G1 X124.365 Y69.042 E0.01265
G1 X127.002 Y67.358 E0.08247
G1 X129.132 Y66.204 E0.06390
G1 X132.142 Y64.850 E0.08700
G1 X134.649 Y63.778 E0.07188
G1 X137.087 Y62.521 E0.07234
G1 X138.812 Y61.376 E0.05458
G1 X139.974 Y60.339 E0.04106
G1 X140.648 Y59.508 E0.02822
G1 X141.020 Y58.870 E0.01947
G1 X141.322 Y58.076 E0.02240
G1 X141.057 Y55.365 E0.07181
G1 X140.543 Y52.185 E0.08492
G1 X139.800 Y48.984 E0.08665
G1 X138.950 Y46.124 E0.07866
G1 F6240
G1 X138.417 Y46.067 E-0.29347
G1 F6240
G1 X138.060 Y46.025 E-0.19703
G1 F6240
G1 X137.729 Y45.925 E-0.18968
G1 F6240
G1 X137.420 Y45.770 E-0.18969
G1 F6240
G1 X137.142 Y45.564 E-0.18968
G1 F6240
G1 X136.921 Y45.332 E-0.17546
G1 E-0.06500 F3600.00000
G1 X121.444 Y76.533 F7800.000
G1 E1.30000 F3600.00000
G1 F1458
G1 X115.999 Y76.844 E0.14378
G1 X123.768 Y69.075 E0.28968
G1 X124.188 Y68.778 E0.01356
G1 X126.841 Y67.085 E0.08296
G1 X128.992 Y65.919 E0.06450
G1 X132.014 Y64.560 E0.08739
G1 X134.513 Y63.491 E0.07166
G1 X136.926 Y62.247 E0.07158
G1 X138.617 Y61.124 E0.05352
G1 X139.744 Y60.120 E0.03979
G1 X140.386 Y59.327 E0.02690
G1 X140.732 Y58.732 E0.01814
G1 X140.999 Y58.032 E0.01975
G1 X140.743 Y55.406 E0.06959
G1 X140.232 Y52.247 E0.08437
G1 X139.493 Y49.065 E0.08611
G1 X138.696 Y46.384 E0.07375
G1 X138.399 Y46.384 E0.00784
G1 X137.995 Y46.336 E0.01070
G1 X137.611 Y46.221 E0.01058
G1 X137.253 Y46.041 E0.01058
G1 X136.931 Y45.802 E0.01058
G1 X136.654 Y45.511 E0.01058
G1 X136.433 Y45.177 E0.01058
G1 X136.272 Y44.809 E0.01058
G1 X136.176 Y44.420 E0.01058
G1 X136.150 Y44.019 E0.01058
G1 X136.192 Y43.620 E0.01058
G1 X136.279 Y43.315 E0.00838
G1 X136.480 Y42.872 E0.01280
G1 X136.714 Y42.549 E0.01051
G1 X137.001 Y42.270 E0.01058
G1 X137.333 Y42.044 E0.01058
G1 X137.623 Y41.912 E0.00839
G1 X138.089 Y41.778 E0.01280
G1 X138.489 Y41.747 E0.01056
G1 X138.886 Y41.785 E0.01052
G1 X139.273 Y41.891 E0.01058
G1 X139.636 Y42.062 E0.01058
G1 X139.964 Y42.293 E0.01058
G1 X140.247 Y42.577 E0.01058
G1 X140.477 Y42.906 E0.01058
G1 X140.647 Y43.269 E0.01058
G1 X140.751 Y43.654 E0.01052
G1 X140.782 Y44.139 E0.01280
G1 X140.755 Y44.455 E0.00838
G1 X140.653 Y44.844 E0.01059
G1 X140.486 Y45.209 E0.01058
G1 X140.259 Y45.539 E0.01058
G1 X139.975 Y45.829 E0.01070
G1 X139.754 Y46.006 E0.00746
G1 X140.580 Y48.773 E0.07613
G1 X141.336 Y52.031 E0.08816
G1 X141.859 Y55.267 E0.08644
G1 X142.076 Y57.335 E0.05483
G1 X143.047 Y59.626 E0.06560
G1 X144.060 Y62.634 E0.08369
G1 X144.796 Y65.682 E0.08265
G1 X145.255 Y68.774 E0.08243
G1 X145.439 Y71.941 E0.08363
G1 X145.339 Y75.188 E0.08565
G1 X144.944 Y78.530 E0.08871
G1 X144.239 Y81.979 E0.09284
G1 X143.205 Y85.552 E0.09805
G1 X141.817 Y89.259 E0.10438
G1 X140.049 Y93.115 E0.11184
G1 X137.871 Y97.132 E0.12045
G1 X135.188 Y101.415 E0.13326
G1 X132.804 Y104.774 E0.10860
G1 X132.664 Y104.715 E0.00400
G1 X133.457 Y100.088 E0.12379
G1 X133.051 Y99.980 E0.01107
G1 X132.246 Y102.181 E0.06179
G1 X131.286 Y104.081 E0.05614
G1 X130.195 Y105.684 E0.05110
G1 X128.974 Y107.023 E0.04778
G1 X127.599 Y108.129 E0.04652
G1 X126.118 Y109.213 E0.04838
G1 X124.363 Y110.766 E0.06181
G1 X123.098 Y112.211 E0.05062
