; generated by Slic3r 1.2.8-dev on 2015-06-04 at 14:58:21

; external perimeters extrusion width = 0.40mm
; perimeters extrusion width = 0.67mm
; infill extrusion width = 0.67mm
; solid infill extrusion width = 0.67mm
; top infill extrusion width = 0.67mm

M107
M190 S60 ; set bed temperature
M104 S212 ; set temperature
G28 ; home all axes
G92 E0.0 ; reset extruder
M109 S212 ; wait for temperature to be reached
G21 ; set units to millimeters
G90 ; use absolute coordinates
M83 ; use relative distances for extrusion
G1 E-1.30000 F3600.00000
G1 Z0.300 F7800.000
G1 X68.328 Y68.842 F7800.000
G1 E1.30000 F3600.00000
M204 S500
G1 X70.707 Y67.204 E0.17132 F2160.000
G1 X73.443 Y66.279 E0.17132
G1 X75.400 Y66.094 E0.11663
G1 X104.600 Y66.094 E1.73220
G1 X107.460 Y66.492 E0.17132
G1 X110.103 Y67.656 E0.17132 F2160.000
G1 X112.328 Y69.498 E0.17132
G1 X113.966 Y71.877 E0.17132
G1 X114.891 Y74.613 E0.17132
G1 X115.076 Y76.570 E0.11663
G1 X115.076 Y103.430 E1.59339
G1 X114.678 Y106.290 E0.17132
G1 X113.514 Y108.933 E0.17132
G1 X111.672 Y111.158 E0.17132
G1 X109.293 Y112.796 E0.17132
G1 X106.557 Y113.721 E0.17132
G1 X104.600 Y113.906 E0.11663
G1 X75.400 Y113.906 E1.73220
G1 X72.540 Y113.508 E0.17132
G1 X69.897 Y112.344 E0.17132
G1 X67.672 Y110.502 E0.17132
G1 X66.034 Y108.123 E0.17132
G1 X65.109 Y105.387 E0.17132
G1 X64.924 Y103.430 E0.11663
G1 X64.924 Y76.570 E1.59339
G1 X65.322 Y73.710 E0.17132
G1 X66.486 Y71.067 E0.17132
G1 X68.290 Y68.888 E0.16776
G1 F6240
G1 X70.139 Y67.600 E-1.23500
G1 E-0.06500 F3600.00000
G1 X84.316 Y83.564 F7800.000
G1 E1.30000 F3600.00000
G1 X84.848 Y83.825 E0.03517 F2160.000
G1 X85.484 Y83.352 E0.04702
G1 X86.020 Y83.018 E0.03745
G1 X86.421 Y82.804 E0.02696
G1 X86.915 Y82.579 E0.03219
G1 X87.423 Y82.388 E0.03222
G1 X88.028 Y82.209 E0.03744
G1 X88.559 Y82.094 E0.03220
G1 X89.008 Y82.025 E0.02695
G1 X89.637 Y81.971 E0.03745
G1 X90.180 Y81.965 E0.03222
G1 X90.722 Y81.996 E0.03221
G1 X91.261 Y82.063 E0.03218
G1 X91.707 Y82.147 E0.02697
G1 X92.318 Y82.305 E0.03744
G1 X92.833 Y82.479 E0.03221
G1 X93.334 Y82.687 E0.03221
G1 X93.742 Y82.888 E0.02696
G1 X94.213 Y83.156 E0.03219
G1 X94.666 Y83.456 E0.03220
G1 X95.152 Y83.829 E0.03631
G1 X95.684 Y83.568 E0.03517
G1 X95.684 Y75.486 E0.47939
G1 X97.216 Y73.954 E0.12856
G1 X105.684 Y73.954 E0.50228
G1 X107.216 Y75.486 E0.12856
G1 X107.216 Y104.514 E1.72194
G1 X105.684 Y106.046 E0.12856
G1 X97.216 Y106.046 E0.50228
G1 X95.684 Y104.514 E0.12856
G1 X95.684 Y96.432 E0.47939
G1 X95.152 Y96.171 E0.03517
G1 X94.666 Y96.544 E0.03634
G1 X94.214 Y96.844 E0.03217
G1 X93.820 Y97.071 E0.02698
G1 X93.334 Y97.313 E0.03219
G1 X92.750 Y97.552 E0.03745
G1 X92.234 Y97.720 E0.03219
G1 X91.794 Y97.834 E0.02698
G1 X91.173 Y97.951 E0.03743
G1 X90.633 Y98.012 E0.03225
G1 X90.092 Y98.036 E0.03216
G1 X89.637 Y98.029 E0.02698
G1 X89.096 Y97.986 E0.03218
G1 X88.472 Y97.890 E0.03745
G1 X88.028 Y97.791 E0.02697
G1 X87.555 Y97.654 E0.02924
G1 X86.997 Y97.455 E0.03516
G1 X86.500 Y97.235 E0.03221
G1 X85.944 Y96.938 E0.03743
G1 X85.484 Y96.648 E0.03220
G1 X84.848 Y96.175 E0.04703
G1 X84.316 Y96.436 E0.03517
G1 X84.316 Y104.514 E0.47916
G1 X82.784 Y106.046 E0.12856
G1 X74.316 Y106.046 E0.50228
G1 X72.784 Y104.514 E0.12856
G1 X72.784 Y75.486 E1.72194
G1 X74.316 Y73.954 E0.12856
G1 X82.784 Y73.954 E0.50228
G1 X84.316 Y75.486 E0.12856
G1 X84.316 Y83.504 E0.47560
G1 X83.840 Y84.633 F7800.000
G1 X84.416 Y84.880 E0.03719 F2160.000
G1 X85.006 Y84.323 E0.04811
G1 X85.400 Y83.999 E0.03029
G1 X85.816 Y83.702 E0.03029
G1 X86.188 Y83.470 E0.02603
G1 X86.638 Y83.228 E0.03030
G1 X87.102 Y83.016 E0.03028
G1 X87.581 Y82.836 E0.03031
G1 X88.070 Y82.689 E0.03030
G1 X88.639 Y82.562 E0.03458
G1 X89.186 Y82.484 E0.03279
G1 X89.653 Y82.447 E0.02780
G1 X90.092 Y82.439 E0.02603
G1 X90.674 Y82.469 E0.03459
G1 X91.181 Y82.532 E0.03028
G1 X91.612 Y82.613 E0.02602
G1 X92.176 Y82.759 E0.03458
G1 X92.592 Y82.897 E0.02601
G1 X93.066 Y83.088 E0.03030
G1 X93.589 Y83.345 E0.03458
G1 X93.969 Y83.564 E0.02601
G1 X94.394 Y83.847 E0.03030
G1 X94.855 Y84.204 E0.03458
G1 X95.235 Y84.545 E0.03030
G1 X95.569 Y84.884 E0.02820
G1 X96.160 Y84.642 E0.03788
G1 X96.160 Y75.683 E0.53143
G1 X97.413 Y74.430 E0.10518
G1 X105.487 Y74.430 E0.47891
G1 X106.740 Y75.683 E0.10518
G1 X106.740 Y104.317 E1.69857
G1 X105.487 Y105.570 E0.10518
G1 X97.413 Y105.570 E0.47891
G1 X96.160 Y104.317 E0.10518
G1 X96.160 Y95.358 E0.53143
G1 X95.569 Y95.116 E0.03788
G1 X95.235 Y95.455 E0.02820
G1 X94.855 Y95.796 E0.03031
G1 X94.453 Y96.111 E0.03029
G1 X94.030 Y96.397 E0.03029
G1 X93.589 Y96.655 E0.03031
G1 X93.132 Y96.882 E0.03028
G1 X92.592 Y97.103 E0.03459
G1 X92.107 Y97.262 E0.03028
G1 X91.682 Y97.372 E0.02603
G1 X91.109 Y97.479 E0.03457
G1 X90.601 Y97.537 E0.03034
G1 X90.092 Y97.561 E0.03026
G1 X89.653 Y97.553 E0.02603
G1 X89.072 Y97.504 E0.03459
G1 X88.568 Y97.424 E0.03028
G1 X88.140 Y97.329 E0.02601
G1 X87.581 Y97.164 E0.03458
G1 X87.169 Y97.011 E0.02602
G1 X86.703 Y96.804 E0.03030
G1 X86.188 Y96.530 E0.03458
G1 X85.756 Y96.258 E0.03030
G1 X85.400 Y96.001 E0.02602
G1 X84.952 Y95.629 E0.03457
G1 X84.416 Y95.120 E0.04383
G1 X83.840 Y95.367 E0.03719
G1 X83.840 Y104.317 E0.53088
G1 X82.587 Y105.570 E0.10518
G1 X74.513 Y105.570 E0.47891
G1 X73.260 Y104.317 E0.10518
G1 X73.260 Y75.683 E1.69857
G1 X74.513 Y74.430 E0.10518
G1 X82.587 Y74.430 E0.47891
G1 X83.840 Y75.683 E0.10518
G1 X83.840 Y84.573 E0.52732
G1 X83.365 Y85.969 F7800.000
G1 X84.031 Y86.178 E0.04144 F2160.000
G1 X84.341 Y85.736 E0.03206
G1 X84.642 Y85.364 E0.02838
G1 X84.967 Y85.012 E0.02840
G1 X85.316 Y84.684 E0.02840
G1 X85.685 Y84.380 E0.02839
G1 X86.074 Y84.101 E0.02838
G1 X86.482 Y83.850 E0.02841
G1 X86.905 Y83.626 E0.02839
G1 X87.342 Y83.432 E0.02838
G1 X87.738 Y83.285 E0.02506
G1 X88.197 Y83.148 E0.02839
G1 X88.663 Y83.042 E0.02838
G1 X89.192 Y82.961 E0.03173
G1 X89.669 Y82.922 E0.02839
G1 X90.092 Y82.915 E0.02507
G1 X90.626 Y82.942 E0.03173
G1 X91.101 Y83.001 E0.02838
G1 X91.571 Y83.091 E0.02839
G1 X91.980 Y83.197 E0.02506
G1 X92.434 Y83.346 E0.02840
G1 X92.929 Y83.548 E0.03173
G1 X93.358 Y83.761 E0.02838
G1 X93.772 Y84.002 E0.02840
G1 X94.168 Y84.270 E0.02838
G1 X94.545 Y84.565 E0.02839
G1 X94.902 Y84.884 E0.02840
G1 X95.236 Y85.227 E0.02839
G1 X95.546 Y85.591 E0.02839
G1 X95.984 Y86.176 E0.04337
G1 X96.635 Y85.960 E0.04071
G1 X96.635 Y75.880 E0.59793
G1 X97.610 Y74.905 E0.08181
G1 X105.290 Y74.905 E0.45554
G1 X106.265 Y75.880 E0.08181
G1 X106.265 Y104.120 E1.67519
G1 X105.290 Y105.095 E0.08181
G1 X97.610 Y105.095 E0.45554
G1 X96.635 Y104.120 E0.08181
G1 X96.635 Y94.040 E0.59793
G1 X95.984 Y93.824 E0.04071
G1 X95.546 Y94.409 E0.04337
G1 X95.236 Y94.773 E0.02838
G1 X94.902 Y95.116 E0.02840
G1 X94.545 Y95.435 E0.02840
G1 X94.168 Y95.730 E0.02839
G1 X93.724 Y96.028 E0.03172
G1 X93.309 Y96.266 E0.02840
G1 X92.878 Y96.475 E0.02839
G1 X92.434 Y96.654 E0.02839
G1 X91.980 Y96.803 E0.02838
G1 X91.571 Y96.909 E0.02507
G1 X91.101 Y96.999 E0.02837
G1 X90.569 Y97.063 E0.03177
G1 X90.092 Y97.085 E0.02837
G1 X89.669 Y97.078 E0.02507
G1 X89.192 Y97.039 E0.02838
G1 X88.719 Y96.969 E0.02840
G1 X88.251 Y96.866 E0.02839
G1 X87.824 Y96.742 E0.02640
G1 X87.290 Y96.547 E0.03372
G1 X86.854 Y96.349 E0.02838
G1 X86.433 Y96.122 E0.02839
G1 X86.028 Y95.867 E0.02839
G1 X85.685 Y95.620 E0.02506
G1 X85.316 Y95.316 E0.02838
G1 X84.967 Y94.988 E0.02840
G1 X84.606 Y94.594 E0.03173
G1 X84.308 Y94.219 E0.02839
G1 X84.031 Y93.822 E0.02873
G1 X83.365 Y94.031 E0.04144
G1 X83.365 Y104.120 E0.59847
G1 X82.390 Y105.095 E0.08181
G1 X74.710 Y105.095 E0.45554
G1 X73.735 Y104.120 E0.08181
G1 X73.735 Y75.880 E1.67519
G1 X74.710 Y74.905 E0.08181
G1 X82.390 Y74.905 E0.45554
G1 X83.365 Y75.880 E0.08181
G1 X83.365 Y85.909 E0.59491
G1 F6240
G1 X84.031 Y86.178 E-0.39393
G1 F6240
G1 X84.341 Y85.736 E-0.29617
G1 F6240
G1 X84.642 Y85.364 E-0.26222
G1 F6240
G1 X84.967 Y85.012 E-0.26242
G1 F6240
G1 X84.994 Y84.987 E-0.02026
G1 E-0.06500 F3600.00000
G1 X82.889 Y87.921 F7800.000
G1 E1.30000 F3600.00000
G1 X83.680 Y88.056 E0.04762 F2160.000
G1 X83.849 Y87.581 E0.02987
G1 X84.026 Y87.172 E0.02649
G1 X84.230 Y86.775 E0.02649
G1 X84.461 Y86.393 E0.02648
G1 X84.694 Y86.059 E0.02410
G1 X84.998 Y85.679 E0.02886
G1 X85.301 Y85.351 E0.02649
G1 X85.595 Y85.072 E0.02411
G1 X85.938 Y84.785 E0.02648
G1 X86.333 Y84.501 E0.02886
G1 X86.713 Y84.266 E0.02650
G1 X87.107 Y84.057 E0.02649
G1 X87.515 Y83.875 E0.02648
G1 X87.934 Y83.721 E0.02649
G1 X88.324 Y83.606 E0.02410
G1 X88.759 Y83.508 E0.02648
G1 X89.200 Y83.439 E0.02648
G1 X89.645 Y83.400 E0.02650
G1 X90.092 Y83.391 E0.02649
G1 X90.537 Y83.412 E0.02648
G1 X91.021 Y83.469 E0.02887
G1 X91.459 Y83.553 E0.02649
G1 X91.891 Y83.666 E0.02649
G1 X92.314 Y83.809 E0.02649
G1 X92.727 Y83.979 E0.02649
G1 X93.127 Y84.177 E0.02648
G1 X93.513 Y84.401 E0.02649
G1 X93.904 Y84.667 E0.02802
G1 X94.235 Y84.926 E0.02495
G1 X94.539 Y85.195 E0.02411
G1 X94.853 Y85.513 E0.02649
G1 X95.170 Y85.882 E0.02886
G1 X95.437 Y86.241 E0.02650
G1 X95.657 Y86.582 E0.02410
G1 X95.875 Y86.971 E0.02648
G1 X96.082 Y87.412 E0.02886
G1 X96.335 Y88.062 E0.04141
G1 X97.111 Y87.916 E0.04681
G1 X97.111 Y76.077 E0.70229
G1 X97.807 Y75.381 E0.05843
G1 X105.093 Y75.381 E0.43216
G1 X105.789 Y76.077 E0.05843
G1 X105.789 Y103.923 E1.65182
G1 X105.093 Y104.619 E0.05843
G1 X97.807 Y104.619 E0.43216
G1 X97.111 Y103.923 E0.05843
G1 X97.111 Y92.084 E0.70229
G1 X96.335 Y91.938 E0.04681
G1 X96.082 Y92.588 E0.04140
G1 X95.875 Y93.029 E0.02887
G1 X95.657 Y93.418 E0.02648
G1 X95.437 Y93.759 E0.02410
G1 X95.170 Y94.118 E0.02650
G1 X94.853 Y94.487 E0.02886
G1 X94.539 Y94.805 E0.02649
G1 X94.235 Y95.074 E0.02411
G1 X93.883 Y95.349 E0.02648
G1 X93.513 Y95.599 E0.02648
G1 X93.127 Y95.823 E0.02650
G1 X92.690 Y96.037 E0.02886
G1 X92.277 Y96.205 E0.02649
G1 X91.853 Y96.345 E0.02648
G1 X91.420 Y96.455 E0.02650
G1 X90.981 Y96.537 E0.02648
G1 X90.537 Y96.588 E0.02651
G1 X90.092 Y96.609 E0.02647
G1 X89.685 Y96.602 E0.02411
G1 X89.240 Y96.566 E0.02648
G1 X88.799 Y96.500 E0.02649
G1 X88.363 Y96.404 E0.02649
G1 X87.934 Y96.279 E0.02650
G1 X87.515 Y96.125 E0.02647
G1 X87.071 Y95.925 E0.02886
G1 X86.713 Y95.734 E0.02410
G1 X86.355 Y95.513 E0.02495
G1 X85.970 Y95.239 E0.02802
G1 X85.596 Y94.929 E0.02886
G1 X85.273 Y94.620 E0.02650
G1 X84.972 Y94.290 E0.02649
G1 X84.718 Y93.973 E0.02410
G1 X84.461 Y93.607 E0.02648
G1 X84.230 Y93.225 E0.02649
G1 X84.009 Y92.792 E0.02887
G1 X83.834 Y92.381 E0.02649
G1 X83.680 Y91.944 E0.02749
G1 X82.889 Y92.079 E0.04762
G1 X82.889 Y103.923 E0.70259
G1 X82.193 Y104.619 E0.05843
G1 X74.907 Y104.619 E0.43216
G1 X74.211 Y103.923 E0.05843
G1 X74.211 Y76.077 E1.65182
G1 X74.907 Y75.381 E0.05843
G1 X82.193 Y75.381 E0.43216
G1 X82.889 Y76.077 E0.05843
G1 X82.889 Y87.861 E0.69903
G1 X82.413 Y87.921 F7800.000
G1 X82.413 Y103.726 E0.93754 F2160.000
G1 X81.996 Y104.143 E0.03506
G1 X75.104 Y104.143 E0.40879
G1 X74.687 Y103.726 E0.03506
G1 X74.687 Y76.274 E1.62845
G1 X75.104 Y75.857 E0.03506
G1 X81.996 Y75.857 E0.40879
G1 X82.413 Y76.274 E0.03506
G1 X82.413 Y87.861 E0.68734 F2160.000
G1 F6240
G1 X82.413 Y90.114 E-1.23500
G1 E-0.06500 F3600.00000
G1 X81.799 Y76.332 F7800.000
G1 E1.30000 F3600.00000
G1 X81.938 Y76.471 E0.01169 F2160.000
G1 X81.938 Y103.529 E1.60507
G1 X81.799 Y103.668 E0.01169
G1 X75.301 Y103.668 E0.38541
G1 X75.162 Y103.529 E0.01169
G1 X75.162 Y76.471 E1.60507
G1 X75.301 Y76.332 E0.01169
G1 X81.739 Y76.332 E0.38186
G1 F6240
G1 X81.938 Y76.471 E-0.13327
G1 F6240
G1 X81.938 Y78.482 E-1.10173
G1 E-0.06500 F3600.00000
G1 X86.922 Y84.694 F7800.000
G1 E1.30000 F3600.00000
G1 X87.288 Y84.498 E0.02458 F2160.000
G1 X87.665 Y84.327 E0.02457
G1 X88.054 Y84.183 E0.02458
G1 X88.474 Y84.059 E0.02601
G1 X88.879 Y83.969 E0.02458
G1 X89.288 Y83.907 E0.02458
G1 X89.701 Y83.873 E0.02458
G1 X90.116 Y83.867 E0.02459
G1 X90.505 Y83.887 E0.02315 F2160.000
G1 X90.917 Y83.935 E0.02458
G1 X91.324 Y84.010 E0.02458
G1 X91.726 Y84.114 E0.02458
G1 X92.142 Y84.252 E0.02601
G1 X92.525 Y84.410 E0.02458
G1 X92.875 Y84.581 E0.02315
G1 X93.235 Y84.788 E0.02458
G1 X93.599 Y85.032 E0.02601
G1 X93.926 Y85.286 E0.02458
G1 X94.217 Y85.546 E0.02315
G1 X94.525 Y85.858 E0.02601
G1 X94.779 Y86.154 E0.02315
G1 X95.017 Y86.471 E0.02352
G1 X95.254 Y86.833 E0.02565
G1 X95.466 Y87.217 E0.02601
G1 X95.642 Y87.592 E0.02457
G1 X95.784 Y87.956 E0.02316
G1 X95.908 Y88.351 E0.02458
G1 X96.006 Y88.754 E0.02459
G1 X96.080 Y89.186 E0.02600
G1 X96.122 Y89.616 E0.02563
G1 X96.134 Y90.012 E0.02353
G1 X96.121 Y90.402 E0.02316
G1 X96.077 Y90.838 E0.02600
G1 X96.011 Y91.223 E0.02315
G1 X95.915 Y91.626 E0.02458
G1 X95.792 Y92.022 E0.02458
G1 X95.632 Y92.430 E0.02601
G1 X95.455 Y92.805 E0.02458
G1 X95.254 Y93.167 E0.02458
G1 X95.042 Y93.494 E0.02315
G1 X94.794 Y93.827 E0.02459
G1 X94.509 Y94.159 E0.02600
G1 X94.217 Y94.454 E0.02458
G1 X93.926 Y94.714 E0.02315
G1 X93.599 Y94.968 E0.02458
G1 X93.235 Y95.212 E0.02601
G1 X92.896 Y95.407 E0.02316
G1 X92.525 Y95.590 E0.02457
G1 X92.119 Y95.757 E0.02601
G1 X91.726 Y95.886 E0.02458
G1 X91.348 Y95.984 E0.02316
G1 X90.941 Y96.062 E0.02457
G1 X90.530 Y96.111 E0.02458
G1 X90.092 Y96.134 E0.02601
G1 X89.701 Y96.127 E0.02316
G1 X89.288 Y96.093 E0.02458
G1 X88.855 Y96.026 E0.02601
G1 X88.451 Y95.935 E0.02458
G1 X88.076 Y95.825 E0.02316
G1 X87.688 Y95.682 E0.02457
G1 X87.309 Y95.513 E0.02458
G1 X86.923 Y95.306 E0.02601
G1 X86.571 Y95.086 E0.02458
G1 X86.255 Y94.858 E0.02315
G1 X85.949 Y94.606 E0.02352
G1 X85.634 Y94.309 E0.02564
G1 X85.338 Y93.986 E0.02601
G1 X85.094 Y93.682 E0.02315
G1 X84.856 Y93.342 E0.02458
G1 X84.642 Y92.987 E0.02458
G1 X84.443 Y92.597 E0.02601
G1 X84.289 Y92.238 E0.02315
G1 X84.151 Y91.848 E0.02458
G1 X84.039 Y91.449 E0.02458
G1 X83.955 Y91.043 E0.02458
G1 X83.896 Y90.609 E0.02601
G1 X83.869 Y90.195 E0.02458
G1 X83.870 Y89.781 E0.02458
G1 X83.896 Y89.391 E0.02315
G1 X83.955 Y88.957 E0.02601
G1 X84.034 Y88.575 E0.02315
G1 X84.144 Y88.175 E0.02458
G1 X84.289 Y87.762 E0.02600
G1 X84.443 Y87.403 E0.02316
G1 X84.623 Y87.050 E0.02352
G1 X84.843 Y86.678 E0.02564
G1 X85.094 Y86.318 E0.02601
G1 X85.366 Y85.982 E0.02564
G1 X85.634 Y85.691 E0.02352
G1 X85.917 Y85.422 E0.02315
G1 X86.255 Y85.142 E0.02601
G1 X86.872 Y84.725 E0.04415
G1 X87.167 Y85.102 F7800.000
G1 X87.504 Y84.921 E0.02268 F2160.000
G1 X87.853 Y84.765 E0.02267
G1 X88.211 Y84.632 E0.02268
G1 X88.578 Y84.523 E0.02268
G1 X88.951 Y84.440 E0.02267
G1 X89.328 Y84.381 E0.02267
G1 X89.709 Y84.349 E0.02268
G1 X90.092 Y84.342 E0.02268
G1 X90.473 Y84.361 E0.02267 F2160.000
G1 X90.861 Y84.407 E0.02315
G1 X91.589 Y84.569 E0.04426
G1 X91.961 Y84.692 E0.02326
G1 X92.323 Y84.840 E0.02315
G1 X92.659 Y85.005 E0.02220
G1 X92.990 Y85.196 E0.02268
G1 X93.314 Y85.413 E0.02315
G1 X93.616 Y85.647 E0.02267
G1 X93.908 Y85.909 E0.02326
G1 X94.413 Y86.458 E0.04426
G1 X94.647 Y86.771 E0.02315
G1 X94.850 Y87.085 E0.02220
G1 X95.036 Y87.419 E0.02267
G1 X95.198 Y87.765 E0.02267
G1 X95.340 Y88.128 E0.02315
G1 X95.540 Y88.847 E0.04426
G1 X95.606 Y89.234 E0.02326
G1 X95.646 Y89.622 E0.02315
G1 X95.646 Y90.368 E0.04427
G1 X95.608 Y90.758 E0.02326
G1 X95.542 Y91.143 E0.02315
G1 X95.454 Y91.507 E0.02220
G1 X95.340 Y91.872 E0.02267
G1 X95.202 Y92.228 E0.02268
G1 X95.036 Y92.581 E0.02315
G1 X94.850 Y92.915 E0.02267
G1 X94.647 Y93.229 E0.02220
G1 X94.418 Y93.536 E0.02268
G1 X94.164 Y93.832 E0.02315
G1 X93.896 Y94.104 E0.02268
G1 X93.616 Y94.353 E0.02220
G1 X93.314 Y94.587 E0.02267
G1 X92.990 Y94.804 E0.02315
G1 X92.666 Y94.991 E0.02220
G1 X92.323 Y95.160 E0.02267
G1 X91.969 Y95.305 E0.02267
G1 X91.599 Y95.428 E0.02315
G1 X91.236 Y95.522 E0.02220
G1 X90.861 Y95.593 E0.02267
G1 X90.481 Y95.638 E0.02267
G1 X90.092 Y95.658 E0.02315
G1 X89.717 Y95.651 E0.02220
G1 X89.337 Y95.620 E0.02267
G1 X88.959 Y95.562 E0.02268
G1 X88.578 Y95.477 E0.02315
G1 X88.219 Y95.371 E0.02220
G1 X87.860 Y95.238 E0.02267
G1 X87.512 Y95.082 E0.02267
G1 X87.174 Y94.902 E0.02267
G1 X86.843 Y94.696 E0.02315
G1 X86.253 Y94.240 E0.04426
G1 X85.968 Y93.970 E0.02326
G1 X85.704 Y93.683 E0.02315
G1 X85.465 Y93.384 E0.02267
G1 X85.251 Y93.077 E0.02220
G1 X85.054 Y92.750 E0.02267
G1 X84.877 Y92.402 E0.02315
G1 X84.729 Y92.058 E0.02220
G1 X84.602 Y91.698 E0.02267
