; generated by Slic3r 1.1.7 on 2014-12-31 at 21:49:25

; perimeters extrusion width = 0.60mm
; infill extrusion width = 0.60mm
; solid infill extrusion width = 0.60mm
; top infill extrusion width = 0.60mm

G21 ; set units to millimeters
M107
M190 S60 ; wait for bed temperature to be reached
M104 S200 ; set temperature
G28 ; home all axes
G92 E0.0 ; reset extruder
M109 S200 ; wait for temperature to be reached
G90 ; use absolute coordinates
M83 ; use relative distances for extrusion
M204 S500
G1 F1800.000 E-1.00000
G1 Z0.300 F7800.000
G1 X30.808 Y11.193 F7800.000
G1 E1.00000 F1800.000
G1 X36.193 Y5.808 E0.52909 F2160.000
G1 X133.807 Y5.808 E6.78247
G1 X139.192 Y11.193 E0.52909
G1 X139.192 Y158.807 E10.25657 F2160.000
G1 X133.807 Y164.192 E0.52909
G1 X36.193 Y164.192 E6.78247
G1 X30.808 Y158.807 E0.52909
G1 X30.808 Y45.327 E7.88483
G1 X30.723 Y45.123 E0.01540
G1 X30.408 Y44.807 E0.03097
G1 X30.408 Y17.193 E1.91873
G1 X30.723 Y16.877 E0.03097
G1 X30.808 Y16.673 E0.01540
G1 X30.808 Y11.253 E0.37660
G1 X31.365 Y11.423 F7800.000
G1 X36.423 Y6.365 E0.49702 F2160.000
G1 X133.577 Y6.365 E6.75041
G1 X138.635 Y11.423 E0.49702 F2160.000
G1 X138.635 Y158.577 E10.22451
G1 X133.577 Y163.635 E0.49702
G1 X36.423 Y163.635 E6.75041
G1 X31.365 Y158.577 E0.49702
G1 X31.365 Y45.097 E7.88483
G1 X31.280 Y44.892 E0.01540
G1 X30.965 Y44.577 E0.03097
G1 X30.965 Y17.423 E1.88666
G1 X31.280 Y17.108 E0.03097
G1 X31.365 Y16.903 E0.01540
G1 X31.365 Y11.483 E0.37660
G1 X31.922 Y11.654 F7800.000
G1 X36.654 Y6.922 E0.46496 F2160.000
G1 X133.346 Y6.922 E6.71834
G1 X138.078 Y11.654 E0.46496
G1 X138.078 Y158.346 E10.19244 F2160.000
G1 X133.346 Y163.078 E0.46496
G1 X36.654 Y163.078 E6.71834
G1 X31.922 Y158.346 E0.46496
G1 X31.922 Y44.866 E7.88483
G1 X31.838 Y44.661 E0.01540
G1 X31.522 Y44.346 E0.03097
G1 X31.522 Y17.654 E1.85460
G1 X31.838 Y17.339 E0.03097
G1 X31.922 Y17.134 E0.01540
G1 X31.922 Y11.714 E0.37660
G1 X32.479 Y11.885 F7800.000
G1 X36.885 Y7.479 E0.43289 F2160.000
G1 X133.115 Y7.479 E6.68627
G1 X137.521 Y11.885 E0.43289 F2160.000
G1 X137.521 Y158.115 E10.16038
G1 X133.115 Y162.521 E0.43289
G1 X36.885 Y162.521 E6.68627
G1 X32.479 Y158.115 E0.43289
G1 X32.479 Y44.635 E7.88483
G1 X32.395 Y44.430 E0.01540
G1 X32.079 Y44.115 E0.03097
G1 X32.079 Y17.885 E1.82253
G1 X32.395 Y17.570 E0.03097
G1 X32.479 Y17.365 E0.01540
G1 X32.479 Y11.945 E0.37660
G1 X33.037 Y12.116 F7800.000
G1 X37.116 Y8.037 E0.40082 F2160.000
G1 X132.884 Y8.037 E6.65421
G1 X136.963 Y12.116 E0.40082
G1 X136.963 Y157.884 E10.12831 F2160.000
G1 X132.884 Y161.963 E0.40082
G1 X37.116 Y161.963 E6.65421
G1 X33.037 Y157.884 E0.40082
G1 X33.037 Y44.404 E7.88483
G1 X32.952 Y44.200 E0.01540
G1 X32.637 Y43.884 E0.03097
G1 X32.637 Y18.116 E1.79047
G1 X32.952 Y17.800 E0.03097
G1 X33.037 Y17.596 E0.01540
G1 X33.037 Y12.176 E0.37660
G1 X33.594 Y12.346 F7800.000
G1 X37.346 Y8.594 E0.36876 F2160.000
G1 X132.654 Y8.594 E6.62214
G1 X136.406 Y12.346 E0.36876 F2160.000
G1 X136.406 Y157.654 E10.09624
G1 X132.654 Y161.406 E0.36876
G1 X37.346 Y161.406 E6.62214
G1 X33.594 Y157.654 E0.36876
G1 X33.594 Y44.174 E7.88483
G1 X33.509 Y43.969 E0.01540
G1 X33.194 Y43.654 E0.03097
G1 X33.194 Y18.346 E1.75840
G1 X33.509 Y18.031 E0.03097
G1 X33.594 Y17.826 E0.01540
G1 X33.594 Y12.406 E0.37660
G1 X34.151 Y12.577 F7800.000
G1 X37.577 Y9.151 E0.33669 F2160.000
G1 X132.423 Y9.151 E6.59008
G1 X135.849 Y12.577 E0.33669
G1 X135.849 Y157.423 E10.06418 F2160.000
G1 X132.423 Y160.849 E0.33669
G1 X37.577 Y160.849 E6.59008
G1 X34.151 Y157.423 E0.33669
G1 X34.151 Y43.943 E7.88483
G1 X34.066 Y43.738 E0.01540
G1 X33.751 Y43.423 E0.03097
G1 X33.751 Y18.577 E1.72633
G1 X34.066 Y18.262 E0.03097
G1 X34.151 Y18.057 E0.01540
G1 X34.151 Y12.637 E0.37660
G1 X34.708 Y12.808 F7800.000
G1 X37.808 Y9.708 E0.30463 F2160.000
G1 X132.192 Y9.708 E6.55801
G1 X135.292 Y12.808 E0.30463 F2160.000
G1 X135.292 Y18.542 E0.39839
G1 X135.176 Y18.658 E0.01146
G1 X135.176 Y19.120 E0.03207
G1 X135.292 Y19.236 E0.01146
G1 X135.292 Y25.846 E0.45922
G1 X135.176 Y25.962 E0.01141
G1 X135.176 Y26.423 E0.03207
G1 X135.292 Y26.539 E0.01141
G1 X135.292 Y33.149 E0.45923
G1 X135.176 Y33.265 E0.01141
G1 X135.176 Y33.726 E0.03207
G1 X135.292 Y33.842 E0.01141
G1 X135.292 Y40.452 E0.45922
G1 X135.176 Y40.568 E0.01141
G1 X135.176 Y41.029 E0.03207
G1 X135.292 Y41.145 E0.01141
G1 X135.292 Y47.755 E0.45922
G1 X135.176 Y47.871 E0.01146
G1 X135.176 Y48.333 E0.03207
G1 X135.292 Y48.449 E0.01146
G1 X135.292 Y55.059 E0.45922
G1 X135.176 Y55.175 E0.01142
G1 X135.176 Y55.636 E0.03207
G1 X135.292 Y55.752 E0.01142
G1 X135.292 Y62.362 E0.45922
G1 X135.176 Y62.478 E0.01143
G1 X135.176 Y62.939 E0.03207
G1 X135.292 Y63.056 E0.01143
G1 X135.292 Y69.665 E0.45922
G1 X135.176 Y69.781 E0.01143
G1 X135.176 Y70.243 E0.03207
G1 X135.292 Y70.359 E0.01143
G1 X135.292 Y76.968 E0.45922
G1 X135.176 Y77.085 E0.01143
G1 X135.176 Y77.546 E0.03207
G1 X135.292 Y77.662 E0.01143
G1 X135.292 Y84.272 E0.45922
G1 X135.176 Y84.388 E0.01143
G1 X135.176 Y84.849 E0.03207
G1 X135.292 Y84.966 E0.01143
G1 X135.292 Y91.575 E0.45922
G1 X135.176 Y91.691 E0.01143
G1 X135.176 Y92.153 E0.03207
G1 X135.292 Y92.269 E0.01143
G1 X135.292 Y98.878 E0.45922
G1 X135.176 Y98.995 E0.01143
G1 X135.176 Y99.456 E0.03207
G1 X135.292 Y99.572 E0.01143
G1 X135.292 Y106.182 E0.45922
G1 X135.176 Y106.298 E0.01143
G1 X135.176 Y106.759 E0.03207
G1 X135.292 Y106.876 E0.01143
G1 X135.292 Y113.485 E0.45922
G1 X135.176 Y113.601 E0.01143
G1 X135.176 Y114.063 E0.03207
G1 X135.292 Y114.179 E0.01143
G1 X135.292 Y120.788 E0.45922
G1 X135.176 Y120.904 E0.01143
G1 X135.176 Y121.366 E0.03207
G1 X135.292 Y121.482 E0.01143
G1 X135.292 Y128.091 E0.45922
G1 X135.176 Y128.208 E0.01143
G1 X135.176 Y128.669 E0.03207
G1 X135.292 Y128.785 E0.01143
G1 X135.292 Y135.395 E0.45922
G1 X135.176 Y135.511 E0.01143
G1 X135.176 Y135.972 E0.03207
G1 X135.292 Y136.089 E0.01143
G1 X135.292 Y142.698 E0.45922
G1 X135.176 Y142.814 E0.01143
G1 X135.176 Y143.276 E0.03207
G1 X135.292 Y143.392 E0.01143
G1 X135.292 Y150.001 E0.45922
G1 X135.176 Y150.118 E0.01143
G1 X135.176 Y150.579 E0.03207
G1 X135.292 Y150.695 E0.01143
G1 X135.292 Y157.192 E0.45141
G1 X132.192 Y160.292 E0.30463
G1 X37.808 Y160.292 E6.55801
G1 X34.708 Y157.192 E0.30463
G1 X34.708 Y150.695 E0.45141
G1 X34.824 Y150.579 E0.01143
G1 X34.824 Y150.118 E0.03207
G1 X34.708 Y150.001 E0.01143
G1 X34.708 Y143.392 E0.45922
G1 X34.824 Y143.276 E0.01143
G1 X34.824 Y142.814 E0.03207
G1 X34.708 Y142.698 E0.01143
G1 X34.708 Y136.089 E0.45922
G1 X34.824 Y135.972 E0.01143
G1 X34.824 Y135.511 E0.03207
G1 X34.708 Y135.395 E0.01143
G1 X34.708 Y128.785 E0.45922
G1 X34.824 Y128.669 E0.01143
G1 X34.824 Y128.208 E0.03207
G1 X34.708 Y128.091 E0.01143
G1 X34.708 Y121.482 E0.45922
G1 X34.824 Y121.366 E0.01143
G1 X34.824 Y120.904 E0.03207
G1 X34.708 Y120.788 E0.01143
G1 X34.708 Y114.179 E0.45922
G1 X34.824 Y114.063 E0.01143
G1 X34.824 Y113.601 E0.03207
G1 X34.708 Y113.485 E0.01143
G1 X34.708 Y106.876 E0.45922
G1 X34.824 Y106.759 E0.01143
G1 X34.824 Y106.298 E0.03207
G1 X34.708 Y106.182 E0.01143
G1 X34.708 Y99.572 E0.45922
G1 X34.824 Y99.456 E0.01143
G1 X34.824 Y98.995 E0.03207
G1 X34.708 Y98.878 E0.01143
G1 X34.708 Y92.269 E0.45922
G1 X34.824 Y92.153 E0.01143
G1 X34.824 Y91.691 E0.03207
G1 X34.708 Y91.575 E0.01143
G1 X34.708 Y84.966 E0.45922
G1 X34.824 Y84.849 E0.01143
G1 X34.824 Y84.388 E0.03207
G1 X34.708 Y84.272 E0.01143
G1 X34.708 Y77.662 E0.45922
G1 X34.824 Y77.546 E0.01143
G1 X34.824 Y77.085 E0.03207
G1 X34.708 Y76.968 E0.01143
G1 X34.708 Y70.359 E0.45922
G1 X34.824 Y70.243 E0.01143
G1 X34.824 Y69.781 E0.03207
G1 X34.708 Y69.665 E0.01143
G1 X34.708 Y63.056 E0.45922
G1 X34.824 Y62.939 E0.01143
G1 X34.824 Y62.478 E0.03207
G1 X34.708 Y62.362 E0.01143
G1 X34.708 Y55.752 E0.45922
G1 X34.824 Y55.636 E0.01142
G1 X34.824 Y55.175 E0.03207
G1 X34.708 Y55.059 E0.01142
G1 X34.708 Y48.449 E0.45922
G1 X34.824 Y48.333 E0.01146
G1 X34.824 Y47.871 E0.03207
G1 X34.708 Y47.755 E0.01146
G1 X34.708 Y43.712 E0.28089
G1 X34.623 Y43.507 E0.01540
G1 X34.308 Y43.192 E0.03097
G1 X34.308 Y18.808 E1.69427
G1 X34.623 Y18.493 E0.03097
G1 X34.708 Y18.288 E0.01540
G1 X34.708 Y12.868 E0.37660
G1 F1800.000 E-1.00000
G1 X35.612 Y47.871 F7800.000
G1 E1.00000 F1800.000
G1 X35.265 Y47.524 E0.03413 F2160.000
G1 X35.265 Y43.481 E0.28089
G1 X35.180 Y43.277 E0.01540
G1 X34.865 Y42.961 E0.03097
G1 X34.865 Y19.039 E1.66220
G1 X35.180 Y18.723 E0.03097
G1 X35.265 Y18.519 E0.01540
G1 X35.265 Y13.039 E0.38077
G1 X38.039 Y10.265 E0.27256
G1 X131.961 Y10.265 E6.52594
G1 X134.735 Y13.039 E0.27256
G1 X134.735 Y18.311 E0.36633
G1 X134.388 Y18.658 E0.03413
G1 X134.388 Y19.120 E0.03207
G1 X134.735 Y19.467 E0.03413
G1 X134.735 Y25.615 E0.42716
G1 X134.388 Y25.962 E0.03409
G1 X134.388 Y26.423 E0.03207
G1 X134.735 Y26.770 E0.03409
G1 X134.735 Y32.918 E0.42716
G1 X134.388 Y33.265 E0.03409
G1 X134.388 Y33.726 E0.03207
G1 X134.735 Y34.073 E0.03409
G1 X134.735 Y40.221 E0.42716
G1 X134.388 Y40.568 E0.03409
G1 X134.388 Y41.029 E0.03207
G1 X134.735 Y41.376 E0.03409
G1 X134.735 Y47.524 E0.42716
G1 X134.388 Y47.871 E0.03413
G1 X134.388 Y48.333 E0.03207
G1 X134.735 Y48.680 E0.03413
G1 X134.735 Y54.828 E0.42716
G1 X134.388 Y55.175 E0.03409
G1 X134.388 Y55.636 E0.03207
G1 X134.735 Y55.983 E0.03409
G1 X134.735 Y62.131 E0.42716
G1 X134.388 Y62.478 E0.03410
G1 X134.388 Y62.939 E0.03207
G1 X134.735 Y63.287 E0.03410
G1 X134.735 Y69.434 E0.42716
G1 X134.388 Y69.781 E0.03410
G1 X134.388 Y70.243 E0.03207
G1 X134.735 Y70.590 E0.03410
G1 X134.735 Y76.738 E0.42716
G1 X134.388 Y77.085 E0.03410
G1 X134.388 Y77.546 E0.03207
G1 X134.735 Y77.893 E0.03410
G1 X134.735 Y84.041 E0.42716
G1 X134.388 Y84.388 E0.03410
G1 X134.388 Y84.849 E0.03207
G1 X134.735 Y85.196 E0.03410
G1 X134.735 Y91.344 E0.42716
G1 X134.388 Y91.691 E0.03410
G1 X134.388 Y92.153 E0.03207
G1 X134.735 Y92.500 E0.03410
G1 X134.735 Y98.647 E0.42716
G1 X134.388 Y98.995 E0.03410
G1 X134.388 Y99.456 E0.03207
G1 X134.735 Y99.803 E0.03410
G1 X134.735 Y105.951 E0.42716
G1 X134.388 Y106.298 E0.03410
G1 X134.388 Y106.759 E0.03207
G1 X134.735 Y107.106 E0.03410
G1 X134.735 Y113.254 E0.42716
G1 X134.388 Y113.601 E0.03410
G1 X134.388 Y114.063 E0.03207
G1 X134.735 Y114.410 E0.03410
G1 X134.735 Y120.557 E0.42716
G1 X134.388 Y120.904 E0.03410
G1 X134.388 Y121.366 E0.03207
G1 X134.735 Y121.713 E0.03410
G1 X134.735 Y127.861 E0.42716
G1 X134.388 Y128.208 E0.03410
G1 X134.388 Y128.669 E0.03207
G1 X134.735 Y129.016 E0.03410
G1 X134.735 Y135.164 E0.42716
G1 X134.388 Y135.511 E0.03410
G1 X134.388 Y135.972 E0.03207
G1 X134.735 Y136.320 E0.03410
G1 X134.735 Y142.467 E0.42716
G1 X134.388 Y142.814 E0.03410
G1 X134.388 Y143.276 E0.03207
G1 X134.735 Y143.623 E0.03410
G1 X134.735 Y149.771 E0.42716
G1 X134.388 Y150.118 E0.03410
G1 X134.388 Y150.579 E0.03207
G1 X134.735 Y150.926 E0.03410
G1 X134.735 Y156.961 E0.41934
G1 X131.961 Y159.735 E0.27256
G1 X38.039 Y159.735 E6.52594
G1 X35.265 Y156.961 E0.27256
G1 X35.265 Y150.926 E0.41934
G1 X35.612 Y150.579 E0.03410
G1 X35.612 Y150.118 E0.03207
G1 X35.265 Y149.771 E0.03410
G1 X35.265 Y143.623 E0.42716
G1 X35.612 Y143.276 E0.03410
G1 X35.612 Y142.814 E0.03207
G1 X35.265 Y142.467 E0.03410
G1 X35.265 Y136.320 E0.42716
G1 X35.612 Y135.972 E0.03410
G1 X35.612 Y135.511 E0.03207
G1 X35.265 Y135.164 E0.03410
G1 X35.265 Y129.016 E0.42716
G1 X35.612 Y128.669 E0.03410
G1 X35.612 Y128.208 E0.03207
G1 X35.265 Y127.861 E0.03410
G1 X35.265 Y121.713 E0.42716
G1 X35.612 Y121.366 E0.03410
G1 X35.612 Y120.904 E0.03207
G1 X35.265 Y120.557 E0.03410
G1 X35.265 Y114.410 E0.42716
G1 X35.612 Y114.063 E0.03410
G1 X35.612 Y113.601 E0.03207
G1 X35.265 Y113.254 E0.03410
G1 X35.265 Y107.106 E0.42716
G1 X35.612 Y106.759 E0.03410
G1 X35.612 Y106.298 E0.03207
G1 X35.265 Y105.951 E0.03410
G1 X35.265 Y99.803 E0.42716
G1 X35.612 Y99.456 E0.03410
G1 X35.612 Y98.995 E0.03207
G1 X35.265 Y98.647 E0.03410
G1 X35.265 Y92.500 E0.42716
G1 X35.612 Y92.153 E0.03410
G1 X35.612 Y91.691 E0.03207
G1 X35.265 Y91.344 E0.03410
G1 X35.265 Y85.196 E0.42716
G1 X35.612 Y84.849 E0.03410
G1 X35.612 Y84.388 E0.03207
G1 X35.265 Y84.041 E0.03410
G1 X35.265 Y77.893 E0.42716
G1 X35.612 Y77.546 E0.03410
G1 X35.612 Y77.085 E0.03207
G1 X35.265 Y76.738 E0.03410
G1 X35.265 Y70.590 E0.42716
G1 X35.612 Y70.243 E0.03410
G1 X35.612 Y69.781 E0.03207
G1 X35.265 Y69.434 E0.03410
G1 X35.265 Y63.287 E0.42716
G1 X35.612 Y62.939 E0.03410
G1 X35.612 Y62.478 E0.03207
G1 X35.265 Y62.131 E0.03410
G1 X35.265 Y55.983 E0.42716
G1 X35.612 Y55.636 E0.03409
G1 X35.612 Y55.175 E0.03207
G1 X35.265 Y54.828 E0.03409
G1 X35.265 Y48.680 E0.42716
G1 X35.612 Y48.333 E0.03413
G1 X35.612 Y47.931 E0.02790
G1 X36.006 Y47.477 F7800.000
G1 X35.822 Y47.293 E0.01810 F2160.000
G1 X35.822 Y43.251 E0.28089
G1 X35.737 Y43.046 E0.01540
G1 X35.422 Y42.731 E0.03097
G1 X35.422 Y19.269 E1.63014
G1 X35.986 Y18.706 E0.05541
G1 X35.986 Y18.244 E0.03207
G1 X35.822 Y18.080 E0.01610
G1 X35.822 Y13.269 E0.33426
G1 X38.269 Y10.822 E0.24049
G1 X131.731 Y10.822 E6.49388
G1 X134.178 Y13.269 E0.24049 F2160.000
G1 X134.178 Y18.080 E0.33426
G1 X133.600 Y18.658 E0.05681
G1 X133.600 Y19.120 E0.03207
G1 X134.178 Y19.698 E0.05681
G1 X134.178 Y25.384 E0.39509
G1 X133.600 Y25.962 E0.05676
G1 X133.600 Y26.423 E0.03207
G1 X134.178 Y27.001 E0.05676
G1 X134.178 Y32.687 E0.39509
G1 X133.600 Y33.265 E0.05676
G1 X133.600 Y33.726 E0.03207
G1 X134.178 Y34.304 E0.05676
G1 X134.178 Y39.990 E0.39509
G1 X133.600 Y40.568 E0.05676
G1 X133.600 Y41.029 E0.03207
G1 X134.178 Y41.607 E0.05676
G1 X134.178 Y47.293 E0.39509
G1 X133.600 Y47.871 E0.05681
G1 X133.600 Y48.333 E0.03207
G1 X134.178 Y48.911 E0.05681
G1 X134.178 Y54.597 E0.39509
G1 X133.600 Y55.175 E0.05676
G1 X133.600 Y55.636 E0.03207
G1 X134.178 Y56.214 E0.05676
G1 X134.178 Y61.900 E0.39509
G1 X133.600 Y62.478 E0.05677
G1 X133.600 Y62.939 E0.03207
G1 X134.178 Y63.517 E0.05677
G1 X134.178 Y69.204 E0.39509
G1 X133.600 Y69.781 E0.05677
G1 X133.600 Y70.243 E0.03207
G1 X134.178 Y70.821 E0.05677
G1 X134.178 Y76.507 E0.39509
G1 X133.600 Y77.085 E0.05677
G1 X133.600 Y77.546 E0.03207
G1 X134.178 Y78.124 E0.05677
G1 X134.178 Y83.810 E0.39509
G1 X133.600 Y84.388 E0.05677
G1 X133.600 Y84.849 E0.03207
G1 X134.178 Y85.427 E0.05677
G1 X134.178 Y91.113 E0.39509
G1 X133.600 Y91.691 E0.05677
G1 X133.600 Y92.153 E0.03207
G1 X134.178 Y92.730 E0.05677
G1 X134.178 Y98.417 E0.39509
G1 X133.600 Y98.995 E0.05677
G1 X133.600 Y99.456 E0.03207
G1 X134.178 Y100.034 E0.05677
G1 X134.178 Y105.720 E0.39509
G1 X133.600 Y106.298 E0.05677
G1 X133.600 Y106.759 E0.03207
G1 X134.178 Y107.337 E0.05677
G1 X134.178 Y113.023 E0.39509
G1 X133.600 Y113.601 E0.05677
G1 X133.600 Y114.063 E0.03207
G1 X134.178 Y114.640 E0.05677
G1 X134.178 Y120.327 E0.39509
G1 X133.600 Y120.904 E0.05677
G1 X133.600 Y121.366 E0.03207
G1 X134.178 Y121.944 E0.05677
G1 X134.178 Y127.630 E0.39509
G1 X133.600 Y128.208 E0.05677
G1 X133.600 Y128.669 E0.03207
G1 X134.178 Y129.247 E0.05677
G1 X134.178 Y134.933 E0.39509
G1 X133.600 Y135.511 E0.05677
G1 X133.600 Y135.972 E0.03207
G1 X134.178 Y136.550 E0.05677
G1 X134.178 Y142.237 E0.39509
G1 X133.600 Y142.814 E0.05677
G1 X133.600 Y143.276 E0.03207
G1 X134.178 Y143.854 E0.05677
G1 X134.178 Y149.540 E0.39509
G1 X133.600 Y150.118 E0.05677
G1 X133.600 Y150.579 E0.03207
G1 X134.178 Y151.157 E0.05677
G1 X134.178 Y156.731 E0.38728
G1 X131.731 Y159.178 E0.24049
G1 X38.269 Y159.178 E6.49388
G1 X35.822 Y156.731 E0.24049
G1 X35.822 Y151.157 E0.38728
G1 X36.400 Y150.579 E0.05677
G1 X36.400 Y150.118 E0.03207
G1 X35.822 Y149.540 E0.05677
G1 X35.822 Y143.854 E0.39509
G1 X36.400 Y143.276 E0.05677
G1 X36.400 Y142.814 E0.03207
G1 X35.822 Y142.237 E0.05677
G1 X35.822 Y136.550 E0.39509
G1 X36.400 Y135.972 E0.05677
G1 X36.400 Y135.511 E0.03207
G1 X35.822 Y134.933 E0.05677
G1 X35.822 Y129.247 E0.39509
G1 X36.400 Y128.669 E0.05677
G1 X36.400 Y128.208 E0.03207
G1 X35.822 Y127.630 E0.05677
G1 X35.822 Y121.944 E0.39509
G1 X36.400 Y121.366 E0.05677
G1 X36.400 Y120.904 E0.03207
G1 X35.822 Y120.327 E0.05677
G1 X35.822 Y114.640 E0.39509
G1 X36.400 Y114.063 E0.05677
G1 X36.400 Y113.601 E0.03207
G1 X35.822 Y113.023 E0.05677
G1 X35.822 Y107.337 E0.39509
