; generated by Slic3r 1.2.2-dev on 2014-12-19 at 12:16:07

; external perimeters extrusion width = 0.40mm
; perimeters extrusion width = 0.67mm
; infill extrusion width = 0.67mm
; solid infill extrusion width = 0.67mm
; top infill extrusion width = 0.67mm

M190 S90 ; set bed temperature
M104 S225 ; set temperature
G28 ; home all axes
G92 E0.0 ; reset extruder
M109 S225 ; wait for temperature to be reached
G21 ; set units to millimeters
G90 ; use absolute coordinates
M83 ; use relative distances for extrusion
G1 E-1.00000 F1800.00000
G1 Z0.300 F7800.000
G1 X69.777 Y68.115 F7800.000
G1 E1.00000 F1800.00000
G1 X71.838 Y66.280 E0.18438 F1080.000
G1 X72.155 Y66.019 E0.02743
G1 X74.012 Y64.578 E0.15699
G1 X76.287 Y63.017 E0.18435
G1 X78.640 Y61.610 E0.18321
G1 X79.015 Y61.403 E0.02860
G1 X81.109 Y60.336 E0.15697
G1 X83.636 Y59.228 E0.18436
G1 X84.018 Y59.077 E0.02744
G1 X86.619 Y58.154 E0.18437
G1 X88.876 Y57.499 E0.15700
G1 X91.567 Y56.884 E0.18442
G1 X94.290 Y56.440 E0.18431
G1 X97.037 Y56.167 E0.18437
G1 X99.777 Y56.068 E0.18322
G1 X100.205 Y56.068 E0.02859
G1 X102.554 Y56.141 E0.15696
G1 X105.303 Y56.388 E0.18438
G1 X108.025 Y56.806 E0.18399
G1 X108.434 Y56.884 E0.02782
G1 X110.727 Y57.397 E0.15697
G1 X113.381 Y58.155 E0.18442
G1 X115.982 Y59.077 E0.18433
G1 X116.364 Y59.228 E0.02744
G1 X118.891 Y60.336 E0.18436
G1 X120.985 Y61.403 E0.15700
G1 X123.363 Y62.795 E0.18407
G1 X123.722 Y63.023 E0.02843
G1 X125.989 Y64.579 E0.18365
G1 X127.847 Y66.020 E0.15708
G1 X129.925 Y67.835 E0.18431
G1 X131.885 Y69.777 E0.18434
G1 X132.166 Y70.076 E0.02743
G1 X133.981 Y72.154 E0.18432
G1 X135.421 Y74.011 E0.15702
G1 X136.983 Y76.287 E0.18438
G1 X138.396 Y78.651 E0.18399
G1 X138.597 Y79.015 E0.02782
G1 X139.838 Y81.480 E0.18433
G1 X140.772 Y83.636 E0.15700
G1 X140.923 Y84.018 E0.02744
G1 X141.846 Y86.619 E0.18437
G1 X142.603 Y89.272 E0.18431
G1 X143.192 Y91.966 E0.18418
G1 X143.560 Y94.291 E0.15727
G1 X143.833 Y97.037 E0.18435
G1 X143.859 Y97.446 E0.02741
G1 X143.932 Y100.205 E0.18436
G1 X143.859 Y102.554 E0.15699
G1 X143.612 Y105.303 E0.18438
G1 X143.195 Y108.013 E0.18321
G1 X143.116 Y108.434 E0.02859
G1 X142.603 Y110.727 E0.15696
G1 X141.846 Y113.381 E0.18439
G1 X140.923 Y115.982 E0.18436
G1 X140.772 Y116.364 E0.02744
G1 X139.664 Y118.891 E0.18436
G1 X138.596 Y120.986 E0.15707
G1 X137.212 Y123.352 E0.18316
G1 X136.983 Y123.714 E0.02856
G1 X135.661 Y125.659 E0.15712
G1 X133.980 Y127.848 E0.18440
G1 X132.165 Y129.925 E0.18423
G1 X130.223 Y131.885 E0.18434
G1 X128.166 Y133.716 E0.18400
G1 X127.845 Y133.981 E0.02781
G1 X125.989 Y135.422 E0.15698
G1 X123.713 Y136.984 E0.18439
G1 X121.349 Y138.396 E0.18396
G1 X120.985 Y138.597 E0.02782
G1 X118.891 Y139.664 E0.15700
G1 X116.363 Y140.772 E0.18440
G1 X113.771 Y141.719 E0.18432
G1 X113.381 Y141.846 E0.02741
G1 X111.124 Y142.501 E0.15699
G1 X108.432 Y143.116 E0.18450
G1 X105.710 Y143.560 E0.18424
G1 X102.981 Y143.831 E0.18322
G1 X102.554 Y143.859 E0.02858
G1 X99.795 Y143.932 E0.18436
G1 X97.037 Y143.833 E0.18436
G1 X94.697 Y143.612 E0.15700
G1 X94.290 Y143.560 E0.02742
G1 X91.570 Y143.117 E0.18411
G1 X88.877 Y142.502 E0.18457
G1 X86.619 Y141.846 E0.15706
G1 X84.018 Y140.923 E0.18437
G1 X83.621 Y140.765 E0.02859
G1 X81.109 Y139.664 E0.18321
G1 X78.657 Y138.400 E0.18430
G1 X76.288 Y136.984 E0.18436
G1 X74.343 Y135.663 E0.15707
G1 X72.155 Y133.981 E0.18437
G1 X71.838 Y133.720 E0.02742
G1 X70.076 Y132.166 E0.15697
G1 X68.115 Y130.223 E0.18438
G1 X67.823 Y129.911 E0.02856
G1 X66.019 Y127.846 E0.18323
G1 X64.579 Y125.989 E0.15698
G1 X63.017 Y123.714 E0.18436
G1 X62.797 Y123.367 E0.02744
G1 X61.403 Y120.985 E0.18436
G1 X60.336 Y118.891 E0.15699
G1 X59.228 Y116.364 E0.18436
G1 X58.281 Y113.771 E0.18439
G1 X57.499 Y111.125 E0.18436
G1 X57.394 Y110.716 E0.02817
G1 X56.807 Y108.031 E0.18359
G1 X56.388 Y105.303 E0.18438
G1 X56.167 Y102.963 E0.15702
G1 X56.068 Y100.205 E0.18438
G1 X56.068 Y99.795 E0.02743
G1 X56.167 Y97.037 E0.18438
G1 X56.388 Y94.697 E0.15699
G1 X56.807 Y91.970 E0.18435
G1 X56.884 Y91.566 E0.02743
G1 X57.397 Y89.273 E0.15697
G1 X58.154 Y86.619 E0.18438
G1 X59.077 Y84.018 E0.18437
G1 X59.228 Y83.636 E0.02744
G1 X60.336 Y81.109 E0.18436
G1 X61.403 Y79.015 E0.15700
G1 X62.797 Y76.633 E0.18435
G1 X63.017 Y76.286 E0.02744
G1 X64.338 Y74.343 E0.15699
G1 X66.019 Y72.155 E0.18434
G1 X67.834 Y70.076 E0.18439
G1 X69.734 Y68.158 E0.18036
G1 E-1.00000 F1800.00000
G1 X117.011 Y100.700 F7800.000
G1 E1.00000 F1800.00000
G1 X135.620 Y100.700 E1.24315 F378.000
G1 X135.571 Y102.238 E0.10278
G1 X135.361 Y104.467 E0.14958
G1 X135.010 Y106.679 E0.14960
G1 X134.522 Y108.864 E0.14957
G1 X133.897 Y111.014 E0.14959
G1 X133.139 Y113.120 E0.14957
G1 X132.250 Y115.176 E0.14959
G1 X131.233 Y117.171 E0.14959
G1 X130.093 Y119.098 E0.14958
G1 X128.835 Y120.950 E0.14958
G1 X127.462 Y122.719 E0.14959
G1 X125.982 Y124.399 E0.14958
G1 X124.399 Y125.982 E0.14958
G1 X122.730 Y127.453 E0.14858
G1 X120.950 Y128.835 E0.15057
G1 X119.098 Y130.093 E0.14958
G1 X117.171 Y131.233 E0.14958
G1 X115.176 Y132.250 E0.14959
G1 X113.121 Y133.139 E0.14958
G1 X111.014 Y133.897 E0.14957
G1 X108.864 Y134.522 E0.14958
G1 X106.678 Y135.011 E0.14960
G1 X104.467 Y135.361 E0.14957
G1 X102.238 Y135.571 E0.14958
G1 X100.000 Y135.642 E0.14958
G1 X97.762 Y135.571 E0.14960
G1 X95.533 Y135.361 E0.14958
G1 X93.321 Y135.011 E0.14958
G1 X91.136 Y134.522 E0.14958
G1 X88.986 Y133.897 E0.14959
G1 X86.879 Y133.139 E0.14958
G1 X84.824 Y132.250 E0.14958
G1 X82.788 Y131.212 E0.15269
G1 X92.101 Y115.082 E1.24427
G1 X90.888 Y114.382 E0.09353
G1 X81.584 Y130.497 E1.24309
G1 X80.902 Y130.093 E0.05295
G1 X79.050 Y128.835 E0.14958
G1 X77.281 Y127.463 E0.14958
G1 X75.601 Y125.982 E0.14958
G1 X74.018 Y124.399 E0.14958
G1 X72.537 Y122.719 E0.14958
G1 X71.165 Y120.950 E0.14958
G1 X69.907 Y119.098 E0.14958
G1 X68.767 Y117.171 E0.14958
G1 X67.750 Y115.176 E0.14959
G1 X66.861 Y113.121 E0.14958
G1 X66.103 Y111.014 E0.14958
G1 X65.478 Y108.864 E0.14958
G1 X64.990 Y106.679 E0.14958
G1 X64.639 Y104.467 E0.14958
G1 X64.429 Y102.238 E0.14958
G1 X64.358 Y100.000 E0.14958
G1 X64.429 Y97.762 E0.14958
G1 X64.638 Y95.548 E0.14859
G1 X64.990 Y93.321 E0.15058
G1 X65.478 Y91.136 E0.14958
G1 X66.103 Y88.986 E0.14958
G1 X66.861 Y86.879 E0.14958
G1 X67.744 Y84.838 E0.14859
G1 X68.767 Y82.829 E0.15058
G1 X69.907 Y80.902 E0.14958
G1 X71.165 Y79.050 E0.14958
G1 X72.537 Y77.281 E0.14958
G1 X74.018 Y75.601 E0.14958
G1 X75.601 Y74.018 E0.14958
G1 X77.281 Y72.537 E0.14958
G1 X79.050 Y71.165 E0.14958
G1 X80.902 Y69.907 E0.14958
G1 X81.584 Y69.503 E0.05295
G1 X90.888 Y85.618 E1.24309
G1 X92.101 Y84.918 E0.09353
G1 X82.788 Y68.788 E1.24427
G1 X84.824 Y67.750 E0.15269
G1 X86.879 Y66.861 E0.14958
G1 X88.986 Y66.103 E0.14958
G1 X91.136 Y65.478 E0.14958
G1 X93.321 Y64.989 E0.14959
G1 X95.533 Y64.639 E0.14958
G1 X97.762 Y64.429 E0.14958
G1 X100.000 Y64.358 E0.14959
G1 X102.238 Y64.429 E0.14958
G1 X104.467 Y64.639 E0.14959
G1 X106.679 Y64.990 E0.14958
G1 X108.864 Y65.478 E0.14958
G1 X111.014 Y66.103 E0.14959
G1 X113.121 Y66.861 E0.14958
G1 X115.176 Y67.750 E0.14958
G1 X117.171 Y68.767 E0.14959
G1 X119.098 Y69.907 E0.14958
G1 X120.950 Y71.165 E0.14958
G1 X122.719 Y72.537 E0.14958
G1 X124.399 Y74.018 E0.14958
G1 X125.982 Y75.601 E0.14958
G1 X127.453 Y77.270 E0.14858
G1 X128.835 Y79.050 E0.15058
G1 X130.093 Y80.902 E0.14958
G1 X131.233 Y82.829 E0.14959
G1 X132.250 Y84.824 E0.14959
G1 X133.139 Y86.879 E0.14958
G1 X133.888 Y88.959 E0.14767
G1 X134.522 Y91.136 E0.15148
G1 X135.011 Y93.322 E0.14960
G1 X135.361 Y95.533 E0.14957
G1 X135.571 Y97.762 E0.14959
G1 X135.620 Y99.300 E0.10279
G1 X117.011 Y99.300 E1.24315
G1 X117.011 Y100.640 E0.08952
G1 X117.358 Y100.500 F7800.000
G1 E-1.00000 F1800.00000
G1 X97.670 Y62.973 F7800.000
G1 E1.00000 F1800.00000
G1 X100.000 Y62.900 E0.15570 F378.000
G1 X102.330 Y62.973 E0.15570
G1 X104.650 Y63.193 E0.15570
G1 X106.952 Y63.557 E0.15570
G1 X109.226 Y64.066 E0.15570
G1 X111.464 Y64.716 E0.15570
G1 X113.657 Y65.505 E0.15570
G1 X115.796 Y66.431 E0.15570
G1 X117.873 Y67.489 E0.15570
G1 X119.879 Y68.676 E0.15570
G1 X121.807 Y69.986 E0.15570
G1 X123.648 Y71.414 E0.15570
G1 X125.391 Y72.950 E0.15517
G1 X127.045 Y74.603 E0.15623
G1 X128.586 Y76.352 E0.15570
G1 X130.014 Y78.193 E0.15570
G1 X131.324 Y80.121 E0.15570
G1 X132.511 Y82.127 E0.15569
G1 X133.569 Y84.204 E0.15571
G1 X134.495 Y86.343 E0.15570
G1 X135.284 Y88.536 E0.15570
G1 X135.934 Y90.774 E0.15570
G1 X136.443 Y93.048 E0.15570
G1 X136.807 Y95.350 E0.15570
G1 X137.027 Y97.670 E0.15570
G1 X137.100 Y100.008 E0.15624
G1 X137.027 Y102.330 E0.15517
G1 X136.807 Y104.650 E0.15571
G1 X136.443 Y106.952 E0.15570
G1 X135.936 Y109.219 E0.15517
G1 X135.284 Y111.464 E0.15623
G1 X134.495 Y113.657 E0.15571
G1 X133.569 Y115.796 E0.15570
G1 X132.511 Y117.873 E0.15570
G1 X131.324 Y119.879 E0.15570
G1 X130.014 Y121.807 E0.15570
G1 X128.586 Y123.648 E0.15570
G1 X127.045 Y125.397 E0.15570
G1 X125.397 Y127.045 E0.15570
G1 X123.648 Y128.586 E0.15570
G1 X121.807 Y130.014 E0.15571
G1 X119.886 Y131.320 E0.15517
G1 X117.873 Y132.511 E0.15623
G1 X115.796 Y133.569 E0.15571
G1 X113.665 Y134.491 E0.15516
G1 X111.464 Y135.284 E0.15624
G1 X109.226 Y135.934 E0.15570
G1 X106.952 Y136.443 E0.15570
G1 X104.650 Y136.807 E0.15571
G1 X102.337 Y137.026 E0.15517
G1 X99.992 Y137.100 E0.15677
G1 X97.671 Y137.027 E0.15516
G1 X95.350 Y136.807 E0.15570
G1 X93.048 Y136.443 E0.15572
G1 X90.774 Y135.934 E0.15569
G1 X88.536 Y135.284 E0.15570
G1 X86.335 Y134.491 E0.15624
G1 X84.204 Y133.569 E0.15516
G1 X82.127 Y132.511 E0.15571
G1 X80.121 Y131.324 E0.15570
G1 X78.193 Y130.014 E0.15570
G1 X76.352 Y128.586 E0.15570
G1 X74.603 Y127.045 E0.15570
G1 X72.955 Y125.397 E0.15570
G1 X71.414 Y123.648 E0.15570
G1 X69.986 Y121.807 E0.15570
G1 X68.676 Y119.879 E0.15570
G1 X67.486 Y117.866 E0.15623
G1 X66.431 Y115.796 E0.15517
G1 X65.505 Y113.657 E0.15570
G1 X64.716 Y111.464 E0.15571
G1 X64.066 Y109.226 E0.15570
G1 X63.556 Y106.944 E0.15623
G1 X63.193 Y104.650 E0.15517
G1 X62.973 Y102.330 E0.15570
G1 X62.900 Y100.000 E0.15570
G1 X62.973 Y97.670 E0.15570
G1 X63.193 Y95.350 E0.15570
G1 X63.557 Y93.048 E0.15570
G1 X64.066 Y90.774 E0.15570
G1 X64.716 Y88.536 E0.15570
G1 X65.505 Y86.343 E0.15571
G1 X66.431 Y84.204 E0.15570
G1 X67.489 Y82.127 E0.15570
G1 X68.676 Y80.121 E0.15570
G1 X69.986 Y78.193 E0.15570
G1 X71.414 Y76.352 E0.15571
G1 X72.955 Y74.603 E0.15570
G1 X74.603 Y72.955 E0.15570
G1 X76.352 Y71.414 E0.15570
G1 X78.193 Y69.986 E0.15570
G1 X80.114 Y68.680 E0.15517
G1 X82.127 Y67.489 E0.15623
G1 X84.204 Y66.431 E0.15570
G1 X86.343 Y65.505 E0.15570
G1 X88.536 Y64.716 E0.15570
G1 X90.774 Y64.066 E0.15570
G1 X93.048 Y63.557 E0.15570
G1 X95.350 Y63.193 E0.15570
G1 X97.611 Y62.979 E0.15169
G1 X97.888 Y63.309 F7800.000
G1 E-1.00000 F1800.00000
G1 X91.360 Y114.964 F7800.000
G1 E1.00000 F1800.00000
G1 X81.861 Y131.394 E1.97796 F360.000
G1 X82.210 Y131.725 E0.05013
G1 X84.514 Y132.909 E0.27002
G1 X86.611 Y133.817 E0.23812
G1 X88.761 Y134.591 E0.23815
G1 X90.955 Y135.228 E0.23813
G1 X93.135 Y135.715 E0.23279
G1 X95.442 Y136.084 E0.24348
G1 X97.716 Y136.299 E0.23813
G1 X100.000 Y136.371 E0.23814
G1 X102.284 Y136.299 E0.23814
G1 X104.544 Y136.085 E0.23664
G1 X106.815 Y135.726 E0.23963
G1 X109.031 Y135.231 E0.23665
G1 X111.253 Y134.586 E0.24118
G1 X113.389 Y133.817 E0.23658
G1 X115.473 Y132.915 E0.23661
G1 X117.509 Y131.879 E0.23814
G1 X119.488 Y130.709 E0.23964
G1 X121.378 Y129.425 E0.23813
G1 X123.194 Y128.015 E0.23962
G1 X124.897 Y126.513 E0.23665
G1 X126.503 Y124.908 E0.23662
G1 X128.024 Y123.184 E0.23965
G1 X129.425 Y121.378 E0.23814
G1 X130.716 Y119.476 E0.23965
G1 X131.872 Y117.522 E0.23662
G1 X132.903 Y115.499 E0.23663
G1 X133.817 Y113.389 E0.23963
G1 X134.595 Y111.225 E0.23971
G1 X135.228 Y109.045 E0.23658
G1 X135.723 Y106.829 E0.23662
G1 X136.084 Y104.558 E0.23965
G1 X136.299 Y102.284 E0.23814
G1 X136.357 Y100.447 E0.19156
G1 X136.264 Y100.000 E0.04753
G1 X135.885 Y99.216 E0.09074
G1 X135.896 Y100.000 F7800.000
G1 X117.279 Y100.000 E1.94033 F360.000
G1 X136.264 Y100.000 E1.97868 F360.000
G1 X136.357 Y99.553 E0.04754
G1 X136.299 Y97.716 E0.19157
G1 X136.085 Y95.456 E0.23661
G1 X135.729 Y93.199 E0.23811
G1 X135.228 Y90.955 E0.23966
G1 X134.595 Y88.775 E0.23663
G1 X133.817 Y86.611 E0.23964
G1 X132.909 Y84.514 E0.23813
G1 X131.872 Y82.478 E0.23815
G1 X130.716 Y80.524 E0.23664
G1 X129.425 Y78.622 E0.23962
G1 X128.024 Y76.816 E0.23814
G1 X126.513 Y75.103 E0.23814
G1 X124.897 Y73.487 E0.23814
G1 X123.184 Y71.976 E0.23813
G1 X121.378 Y70.575 E0.23814
G1 X119.488 Y69.291 E0.23813
G1 X117.522 Y68.128 E0.23813
G1 X115.486 Y67.091 E0.23814
G1 X113.389 Y66.183 E0.23813
G1 X111.239 Y65.409 E0.23814
G1 X109.045 Y64.772 E0.23813
G1 X106.815 Y64.273 E0.23814
G1 X104.558 Y63.916 E0.23813
G1 X102.284 Y63.701 E0.23814
G1 X100.000 Y63.629 E0.23813
G1 X97.716 Y63.701 E0.23813
G1 X95.442 Y63.916 E0.23814
G1 X93.185 Y64.273 E0.23814
G1 X90.955 Y64.772 E0.23813
G1 X88.761 Y65.409 E0.23813
G1 X86.611 Y66.183 E0.23814
G1 X84.514 Y67.091 E0.23813
G1 X82.210 Y68.275 E0.27001
G1 X81.861 Y68.606 E0.05013
G1 X91.360 Y85.036 E1.97796
G1 E-1.00000 F1800.00000
G1 X82.882 Y68.282 F7800.000
G1 E1.00000 F1800.00000
G1 X81.446 Y68.738 E0.15700 F360.000
G1 X80.500 Y69.299 E0.11471
G1 X78.622 Y70.575 E0.23662
G1 X76.828 Y71.967 E0.23663
G1 X75.103 Y73.487 E0.23964
G1 X73.487 Y75.103 E0.23814
G1 X71.976 Y76.816 E0.23813
G1 X70.575 Y78.622 E0.23814
G1 X69.291 Y80.512 E0.23813
G1 X68.128 Y82.478 E0.23813
G1 X67.085 Y84.527 E0.23964
G1 X66.178 Y86.625 E0.23815
G1 X65.409 Y88.761 E0.23662
G1 X64.776 Y90.941 E0.23662
G1 X64.273 Y93.185 E0.23964
G1 X63.916 Y95.442 E0.23814
G1 X63.701 Y97.716 E0.23814
G1 X63.629 Y100.000 E0.23813
G1 X63.701 Y102.284 E0.23813
G1 X63.916 Y104.558 E0.23814
G1 X64.273 Y106.815 E0.23813
G1 X64.776 Y109.059 E0.23965
G1 X65.409 Y111.239 E0.23663
G1 X66.166 Y113.341 E0.23277
G1 X67.085 Y115.473 E0.24197
G1 X68.128 Y117.522 E0.23966
G1 X69.291 Y119.488 E0.23813
G1 X70.575 Y121.378 E0.23813
G1 X71.976 Y123.184 E0.23814
G1 X73.487 Y124.897 E0.23813
G1 X75.103 Y126.513 E0.23814
G1 X76.828 Y128.033 E0.23965
G1 X78.622 Y129.425 E0.23662
G1 X80.499 Y130.701 E0.23662
G1 X81.446 Y131.262 E0.11472
G1 X82.882 Y131.718 E0.15700
G1 E-1.00000 F1800.00000
G1 Z0.500 F7800.000
G1 X117.214 Y100.307 F7800.000
G1 E1.00000 F1800.00000
G1 X135.858 Y100.307 E0.97406 F1800.000
G1 X135.776 Y102.929 E0.13704
G1 X135.733 Y102.929 E0.00223
G1 X135.585 Y104.496 E0.08221
G1 X135.233 Y106.721 E0.11772
G1 X134.741 Y108.920 E0.11772
G1 X134.112 Y111.084 E0.11773
G1 X133.349 Y113.204 E0.11771
G1 X132.454 Y115.272 E0.11772
G1 X131.431 Y117.280 E0.11773
G1 X130.284 Y119.219 E0.11772
G1 X129.018 Y121.083 E0.11772
G1 X127.637 Y122.863 E0.11772
G1 X126.147 Y124.553 E0.11772
G1 X124.553 Y126.147 E0.11773
G1 X122.863 Y127.637 E0.11772
G1 X121.083 Y129.018 E0.11773
G1 X119.219 Y130.284 E0.11772
G1 X117.280 Y131.431 E0.11772
G1 X115.272 Y132.454 E0.11772
G1 X113.204 Y133.349 E0.11772
G1 X111.084 Y134.113 E0.11772
G1 X108.955 Y134.731 E0.11582
G1 X106.721 Y135.233 E0.11963
G1 X104.495 Y135.585 E0.11773
G1 X102.252 Y135.797 E0.11770
G1 X100.000 Y135.868 E0.11774
G1 X97.748 Y135.797 E0.11772
G1 X95.505 Y135.585 E0.11772
G1 X93.279 Y135.233 E0.11772
G1 X91.080 Y134.741 E0.11772
G1 X88.916 Y134.112 E0.11773
G1 X86.796 Y133.349 E0.11772
G1 X84.728 Y132.454 E0.11772
G1 X82.324 Y131.230 E0.14095
G1 X91.659 Y115.062 E0.97537
G1 X91.127 Y114.754 E0.03211
G1 X81.809 Y130.893 E0.97357
G1 X80.781 Y130.284 E0.06242
G1 X78.917 Y129.018 E0.11772
G1 X77.137 Y127.637 E0.11772
G1 X75.447 Y126.147 E0.11772
G1 X73.853 Y124.553 E0.11772
G1 X72.363 Y122.863 E0.11772
G1 X70.982 Y121.083 E0.11772
G1 X69.716 Y119.219 E0.11772
G1 X68.569 Y117.280 E0.11772
G1 X67.546 Y115.272 E0.11773
G1 X66.651 Y113.204 E0.11772
G1 X65.887 Y111.084 E0.11772
G1 X65.259 Y108.920 E0.11772
G1 X64.767 Y106.721 E0.11772
G1 X64.408 Y104.423 E0.12152
G1 X64.203 Y102.252 E0.11392
G1 X64.132 Y100.000 E0.11772
G1 X64.203 Y97.748 E0.11772
G1 X64.408 Y95.577 E0.11392
G1 X64.767 Y93.279 E0.12152
G1 X65.259 Y91.080 E0.11772
G1 X65.887 Y88.916 E0.11773
G1 X66.651 Y86.796 E0.11772
