; generated by Slic3r 1.1.7 on 2014-12-29 at 21:58:59

; perimeters extrusion width = 0.60mm
; infill extrusion width = 0.60mm
; solid infill extrusion width = 0.60mm
; top infill extrusion width = 0.60mm

G21 ; set units to millimeters
M190 S60 ; wait for bed temperature to be reached
M104 S200 ; set temperature
G28 ; home all axes
G92 E0.0 ; reset extruder
M109 S200 ; wait for temperature to be reached
G90 ; use absolute coordinates
M83 ; use relative distances for extrusion
M106 S255
G1 F1800.000 E-1.00000
G1 Z0.300 F7800.000
G1 X62.787 Y53.786 F7800.000
G1 E1.00000 F1800.000
G1 X64.824 Y52.749 E0.15882 F1458.000
G1 X66.879 Y51.859 E0.15558
G1 X68.986 Y51.101 E0.15559
G1 X71.136 Y50.476 E0.15559
G1 X73.321 Y49.988 E0.15558
G1 X75.532 Y49.637 E0.15552
G1 X77.761 Y49.427 E0.15562
G1 X80.000 Y49.356 E0.15561
G1 X82.238 Y49.427 E0.15560
G1 X84.466 Y49.637 E0.15550
G1 X86.678 Y49.987 E0.15559
G1 X88.864 Y50.476 E0.15564
G1 X91.013 Y51.100 E0.15550
G1 X93.121 Y51.859 E0.15565
G1 X95.177 Y52.749 E0.15564
G1 X97.171 Y53.765 E0.15554
G1 X99.080 Y54.894 E0.15411
G1 X100.951 Y56.164 E0.15706
G1 X102.720 Y57.536 E0.15561
G1 X104.399 Y59.016 E0.15550
G1 X105.983 Y60.600 E0.15564
G1 X107.464 Y62.280 E0.15557
G1 X108.836 Y64.049 E0.15557
G1 X110.095 Y65.901 E0.15558
G1 X111.235 Y67.828 E0.15559
G1 X112.251 Y69.823 E0.15559
G1 X113.338 Y72.336 E0.19021
G1 X113.305 Y72.336 E0.00231
G1 X113.899 Y73.984 E0.12175
G1 X114.524 Y76.135 E0.15564
G1 X115.012 Y78.320 E0.15551
G1 X115.363 Y80.532 E0.15562
G1 X115.573 Y82.761 E0.15561
G1 X115.622 Y84.300 E0.10696
G1 X96.678 Y84.300 E1.31626
G1 X96.667 Y83.951 E0.02423
G1 X96.568 Y82.907 E0.07289
G1 X96.404 Y81.871 E0.07289
G1 X96.175 Y80.847 E0.07289
G1 X95.883 Y79.839 E0.07289
G1 X95.527 Y78.852 E0.07290
G1 X95.111 Y77.890 E0.07289
G1 X94.634 Y76.955 E0.07290
G1 X94.100 Y76.052 E0.07289
G1 X93.510 Y75.184 E0.07289
G1 X92.867 Y74.355 E0.07290
G1 X92.174 Y73.568 E0.07289
G1 X91.432 Y72.826 E0.07290
G1 X90.645 Y72.133 E0.07289
G1 X89.816 Y71.490 E0.07290
G1 X88.948 Y70.900 E0.07289
G1 X88.045 Y70.366 E0.07289
G1 X87.110 Y69.889 E0.07290
G1 X86.148 Y69.473 E0.07289
G1 X85.161 Y69.117 E0.07290
G1 X84.153 Y68.825 E0.07289
G1 X83.129 Y68.596 E0.07290
G1 X82.093 Y68.432 E0.07289
G1 X81.049 Y68.333 E0.07290
G1 X80.000 Y68.300 E0.07289
G1 X78.951 Y68.333 E0.07289
G1 X77.907 Y68.432 E0.07289
G1 X76.871 Y68.596 E0.07289
G1 X75.847 Y68.825 E0.07289
G1 X74.839 Y69.117 E0.07289
G1 X73.852 Y69.473 E0.07290
G1 X72.890 Y69.889 E0.07289
G1 X72.267 Y70.207 E0.04853
G1 X62.817 Y53.838 E1.31324
G1 X61.583 Y54.502 F7800.000
G1 X71.051 Y70.900 E1.31567 F1458.000
G1 X70.184 Y71.490 E0.07285
G1 X69.355 Y72.133 E0.07290
G1 X68.568 Y72.826 E0.07289
G1 X67.826 Y73.568 E0.07290
G1 X67.133 Y74.355 E0.07289
G1 X66.490 Y75.184 E0.07290
G1 X65.900 Y76.052 E0.07289
G1 X65.366 Y76.955 E0.07289
G1 X64.889 Y77.890 E0.07290
G1 X64.473 Y78.852 E0.07289
G1 X64.117 Y79.839 E0.07290
G1 X63.825 Y80.847 E0.07289
G1 X63.596 Y81.871 E0.07290
G1 X63.432 Y82.907 E0.07289
G1 X63.333 Y83.951 E0.07290
G1 X63.300 Y85.000 E0.07289
G1 X63.333 Y86.049 E0.07289
G1 X63.432 Y87.093 E0.07290
G1 X63.596 Y88.129 E0.07289
G1 X63.825 Y89.153 E0.07290
G1 X64.117 Y90.161 E0.07289
G1 X64.473 Y91.148 E0.07290
G1 X64.889 Y92.110 E0.07289
G1 X65.366 Y93.045 E0.07290
G1 X65.900 Y93.948 E0.07289
G1 X66.490 Y94.816 E0.07289
G1 X67.133 Y95.645 E0.07290
G1 X67.826 Y96.432 E0.07289
G1 X68.568 Y97.174 E0.07290
G1 X69.355 Y97.867 E0.07289
G1 X70.184 Y98.510 E0.07290
G1 X71.051 Y99.100 E0.07285
G1 X61.583 Y115.498 E1.31567
G1 X60.901 Y115.095 E0.05504
G1 X59.051 Y113.837 E0.15548
G1 X57.279 Y112.464 E0.15575
G1 X55.601 Y110.984 E0.15548
G1 X54.017 Y109.400 E0.15565
G1 X52.536 Y107.720 E0.15557
G1 X51.164 Y105.951 E0.15556
G1 X49.905 Y104.099 E0.15558
G1 X48.765 Y102.172 E0.15560
G1 X47.749 Y100.177 E0.15558
G1 X46.859 Y98.122 E0.15558
G1 X46.101 Y96.016 E0.15552
G1 X45.476 Y93.865 E0.15565
G1 X44.988 Y91.680 E0.15550
G1 X44.637 Y89.468 E0.15563
G1 X44.427 Y87.238 E0.15562
G1 X44.356 Y85.000 E0.15561
G1 X44.427 Y82.762 E0.15559
G1 X44.637 Y80.533 E0.15558
G1 X44.988 Y78.321 E0.15558
G1 X45.476 Y76.136 E0.15559
G1 X46.101 Y73.986 E0.15558
G1 X46.859 Y71.879 E0.15558
G1 X47.749 Y69.824 E0.15559
G1 X48.765 Y67.829 E0.15558
G1 X49.905 Y65.901 E0.15558
G1 X51.164 Y64.049 E0.15558
G1 X52.536 Y62.280 E0.15558
G1 X54.017 Y60.600 E0.15558
G1 X55.600 Y59.017 E0.15558
G1 X57.280 Y57.536 E0.15558
G1 X59.049 Y56.164 E0.15559
G1 X60.901 Y54.905 E0.15559
G1 X61.532 Y54.532 E0.05090
G1 X71.934 Y72.003 F7800.000
G1 X72.629 Y71.592 E0.05609 F1458.000
G1 X73.486 Y71.156 E0.06678
G1 X74.368 Y70.774 E0.06678
G1 X75.272 Y70.449 E0.06678
G1 X76.195 Y70.181 E0.06678
G1 X77.133 Y69.971 E0.06679
G1 X78.082 Y69.821 E0.06678
G1 X79.039 Y69.730 E0.06678
G1 X80.000 Y69.700 E0.06678
G1 X80.916 Y69.729 E0.06368
G1 X81.918 Y69.821 E0.06989 F1458.000
G1 X83.118 Y70.011 E0.08444
G1 X83.118 Y70.027 E0.00114
G1 X83.805 Y70.181 E0.04892
G1 X84.728 Y70.449 E0.06679
G1 X85.632 Y70.774 E0.06678
G1 X86.514 Y71.156 E0.06678
G1 X87.371 Y71.592 E0.06679
G1 X88.198 Y72.082 E0.06678
G1 X88.993 Y72.622 E0.06678
G1 X89.753 Y73.211 E0.06679
G1 X90.474 Y73.847 E0.06679
G1 X91.153 Y74.526 E0.06678
G1 X91.759 Y75.214 E0.06367
G1 X92.378 Y76.007 E0.06989
G1 X92.918 Y76.802 E0.06678
G1 X93.408 Y77.629 E0.06678
G1 X93.844 Y78.486 E0.06678
G1 X94.226 Y79.368 E0.06678
G1 X94.551 Y80.272 E0.06678
G1 X94.819 Y81.195 E0.06678
G1 X95.115 Y82.516 E0.09402
G1 X95.090 Y82.516 E0.00173
G1 X95.179 Y83.082 E0.03987
G1 X95.302 Y84.378 E0.09039
G1 X95.281 Y84.378 E0.00148
G1 X95.300 Y85.000 E0.04327
G1 X95.281 Y85.622 E0.04327
G1 X95.302 Y85.622 E0.00148
G1 X95.179 Y86.918 E0.09039
G1 X95.090 Y87.484 E0.03987
G1 X95.115 Y87.484 E0.00173
G1 X94.819 Y88.805 E0.09402
G1 X94.551 Y89.728 E0.06678
G1 X94.226 Y90.632 E0.06678
G1 X93.844 Y91.514 E0.06678
G1 X93.408 Y92.371 E0.06678
G1 X92.918 Y93.198 E0.06678
G1 X92.378 Y93.993 E0.06678
G1 X91.789 Y94.753 E0.06679
G1 X91.122 Y95.505 E0.06989
G1 X90.474 Y96.153 E0.06367
G1 X89.753 Y96.789 E0.06679
G1 X88.993 Y97.378 E0.06679
G1 X88.198 Y97.918 E0.06678
G1 X87.371 Y98.408 E0.06678
G1 X86.514 Y98.844 E0.06679
G1 X85.632 Y99.226 E0.06678
G1 X84.728 Y99.551 E0.06678
G1 X83.805 Y99.819 E0.06678
G1 X83.118 Y99.973 E0.04892
G1 X83.118 Y99.989 E0.00114
G1 X81.918 Y100.179 E0.08444
G1 X80.961 Y100.270 E0.06678
G1 X80.316 Y100.290 E0.04481
G1 X80.316 Y100.310 E0.00138
G1 X79.378 Y100.281 E0.06525
G1 X79.378 Y100.302 E0.00148
G1 X78.082 Y100.179 E0.09039
G1 X77.516 Y100.090 E0.03987
G1 X77.516 Y100.115 E0.00173
G1 X76.195 Y99.819 E0.09402
G1 X75.272 Y99.551 E0.06678
G1 X74.368 Y99.226 E0.06678
G1 X73.486 Y98.844 E0.06678
G1 X72.629 Y98.408 E0.06678
G1 X71.802 Y97.918 E0.06678
G1 X71.007 Y97.378 E0.06678
G1 X70.247 Y96.789 E0.06679
G1 X69.526 Y96.153 E0.06679
G1 X68.847 Y95.474 E0.06678
G1 X68.211 Y94.753 E0.06678
G1 X67.622 Y93.993 E0.06679
G1 X67.082 Y93.198 E0.06678
G1 X66.592 Y92.371 E0.06678
G1 X66.156 Y91.514 E0.06679
G1 X65.774 Y90.632 E0.06678
G1 X65.449 Y89.728 E0.06678
G1 X65.181 Y88.805 E0.06679
G1 X65.027 Y88.118 E0.04892
G1 X65.011 Y88.118 E0.00114
G1 X64.821 Y86.918 E0.08444
G1 X64.730 Y85.961 E0.06678
G1 X64.700 Y85.000 E0.06679
G1 X64.730 Y84.039 E0.06679
G1 X64.821 Y83.082 E0.06678
G1 X65.011 Y81.882 E0.08444
G1 X65.027 Y81.882 E0.00114
G1 X65.181 Y81.195 E0.04892
G1 X65.449 Y80.272 E0.06679
G1 X65.774 Y79.368 E0.06678
G1 X66.156 Y78.486 E0.06678
G1 X66.592 Y77.629 E0.06679
G1 X67.082 Y76.802 E0.06678
G1 X67.622 Y76.007 E0.06678
G1 X68.211 Y75.247 E0.06679
G1 X68.847 Y74.526 E0.06678
G1 X69.526 Y73.847 E0.06678
G1 X70.247 Y73.211 E0.06679
G1 X71.007 Y72.622 E0.06679
G1 X71.883 Y72.034 E0.07330
G1 F1800.000 E-1.00000
G1 X72.267 Y99.793 F7800.000
G1 E1.00000 F1800.000
G1 X72.890 Y100.111 E0.04853 F1458.000
G1 X73.852 Y100.527 E0.07289
G1 X74.839 Y100.883 E0.07290
G1 X75.847 Y101.175 E0.07289
G1 X76.871 Y101.404 E0.07289
G1 X77.907 Y101.568 E0.07289
G1 X78.951 Y101.667 E0.07290
G1 X80.000 Y101.700 E0.07289
G1 X81.049 Y101.667 E0.07289
G1 X82.093 Y101.568 E0.07290
G1 X83.129 Y101.404 E0.07289
G1 X84.153 Y101.175 E0.07289
G1 X85.161 Y100.883 E0.07289
G1 X86.148 Y100.527 E0.07290
G1 X87.110 Y100.111 E0.07289
G1 X88.045 Y99.634 E0.07290
G1 X88.948 Y99.100 E0.07289
G1 X89.816 Y98.510 E0.07289
G1 X90.645 Y97.867 E0.07290
G1 X91.432 Y97.174 E0.07289
G1 X92.174 Y96.432 E0.07290
G1 X92.867 Y95.645 E0.07289
G1 X93.510 Y94.816 E0.07290
G1 X94.100 Y93.948 E0.07289
G1 X94.634 Y93.045 E0.07289
G1 X95.111 Y92.110 E0.07290
G1 X95.527 Y91.148 E0.07289
G1 X95.883 Y90.161 E0.07290
G1 X96.175 Y89.153 E0.07289
G1 X96.404 Y88.129 E0.07289
G1 X96.568 Y87.093 E0.07289
G1 X96.667 Y86.049 E0.07289
G1 X96.678 Y85.700 E0.02423
G1 X115.622 Y85.700 E1.31626
G1 X115.573 Y87.238 E0.10692
G1 X115.363 Y89.467 E0.15558
G1 X115.012 Y91.679 E0.15558
G1 X114.524 Y93.864 E0.15558
G1 X113.899 Y96.015 E0.15558
G1 X113.141 Y98.121 E0.15558
G1 X112.251 Y100.176 E0.15558
G1 X111.235 Y102.171 E0.15559
G1 X110.095 Y104.099 E0.15558
G1 X108.836 Y105.951 E0.15558
G1 X107.464 Y107.720 E0.15558
G1 X106.000 Y109.380 E0.15376
G1 X104.400 Y110.983 E0.15740
G1 X102.720 Y112.464 E0.15558
G1 X100.951 Y113.836 E0.15558
G1 X99.099 Y115.095 E0.15558
G1 X97.171 Y116.235 E0.15558
G1 X95.176 Y117.251 E0.15559
G1 X93.121 Y118.141 E0.15558
G1 X91.015 Y118.899 E0.15558
G1 X88.889 Y119.517 E0.15380
G1 X86.679 Y120.012 E0.15736
G1 X84.467 Y120.363 E0.15558
G1 X82.238 Y120.573 E0.15558
G1 X80.000 Y120.644 E0.15558
G1 X77.762 Y120.573 E0.15560
G1 X75.534 Y120.363 E0.15549
G1 X73.322 Y120.012 E0.15561
G1 X71.136 Y119.524 E0.15562
G1 X68.987 Y118.900 E0.15551
G1 X66.879 Y118.141 E0.15564
G1 X64.840 Y117.259 E0.15435
G1 X62.787 Y116.214 E0.16009
G1 X72.237 Y99.845 E1.31324
G1 F1800.000 E-1.00000
G1 X63.011 Y117.961 F7800.000
G1 E1.00000 F1800.000
G1 X62.127 Y117.511 E0.06892 F1458.000
G1 X60.121 Y116.324 E0.16193
G1 X58.193 Y115.014 E0.16194
G1 X56.352 Y113.586 E0.16194
G1 X54.603 Y112.045 E0.16194
G1 X52.955 Y110.397 E0.16194
G1 X51.414 Y108.648 E0.16194
G1 X49.986 Y106.807 E0.16194
G1 X48.676 Y104.879 E0.16194
G1 X47.489 Y102.873 E0.16194
G1 X46.431 Y100.796 E0.16195
G1 X45.505 Y98.657 E0.16193
G1 X44.716 Y96.464 E0.16195
G1 X44.066 Y94.226 E0.16194
G1 X43.557 Y91.952 E0.16194
G1 X43.193 Y89.650 E0.16194
G1 X42.973 Y87.330 E0.16194
G1 X42.900 Y85.000 E0.16194
G1 X42.973 Y82.670 E0.16194
G1 X43.193 Y80.350 E0.16195
G1 X43.556 Y78.056 E0.16139
G1 X44.066 Y75.774 E0.16249
G1 X44.716 Y73.536 E0.16194
G1 X45.505 Y71.343 E0.16194
G1 X46.431 Y69.204 E0.16194
G1 X47.486 Y67.134 E0.16139
G1 X48.676 Y65.121 E0.16249
G1 X49.986 Y63.193 E0.16194
G1 X51.414 Y61.352 E0.16194
G1 X52.955 Y59.603 E0.16194
G1 X54.603 Y57.955 E0.16194
G1 X56.352 Y56.414 E0.16194
G1 X58.193 Y54.986 E0.16194
G1 X60.121 Y53.676 E0.16194
G1 X62.127 Y52.489 E0.16194
G1 X64.204 Y51.431 E0.16194
G1 X66.343 Y50.505 E0.16194
G1 X68.536 Y49.716 E0.16195
G1 X70.774 Y49.066 E0.16194
G1 X73.048 Y48.557 E0.16194
G1 X75.350 Y48.193 E0.16194
G1 X77.670 Y47.973 E0.16194
G1 X80.000 Y47.900 E0.16194
G1 X82.322 Y47.973 E0.16139
G1 X84.650 Y48.193 E0.16249 F1458.000
G1 X86.952 Y48.557 E0.16194
G1 X89.226 Y49.066 E0.16194
G1 X91.464 Y49.716 E0.16194
G1 X93.657 Y50.505 E0.16194
G1 X95.796 Y51.431 E0.16194
G1 X97.873 Y52.489 E0.16194
G1 X99.879 Y53.676 E0.16194
G1 X101.807 Y54.986 E0.16193
G1 X103.648 Y56.414 E0.16195
G1 X105.391 Y57.950 E0.16139
G1 X107.045 Y59.603 E0.16248
G1 X108.586 Y61.352 E0.16194
G1 X110.014 Y63.193 E0.16194
G1 X111.324 Y65.121 E0.16194
G1 X112.511 Y67.127 E0.16194
G1 X113.569 Y69.204 E0.16194
G1 X114.495 Y71.343 E0.16194
G1 X115.284 Y73.536 E0.16194
G1 X115.934 Y75.774 E0.16194
G1 X116.443 Y78.048 E0.16194
G1 X116.807 Y80.350 E0.16194
G1 X117.027 Y82.670 E0.16194
G1 X117.100 Y85.000 E0.16194
G1 X117.027 Y87.330 E0.16194
G1 X116.807 Y89.650 E0.16194
G1 X116.443 Y91.952 E0.16194
G1 X115.934 Y94.226 E0.16194
G1 X115.284 Y96.464 E0.16194
G1 X114.495 Y98.657 E0.16194
G1 X113.569 Y100.796 E0.16194
G1 X112.511 Y102.873 E0.16194
G1 X111.324 Y104.879 E0.16194
G1 X110.014 Y106.807 E0.16194
G1 X108.586 Y108.648 E0.16194
G1 X107.045 Y110.397 E0.16194
G1 X105.397 Y112.045 E0.16194
G1 X103.648 Y113.586 E0.16194
G1 X101.807 Y115.014 E0.16194
G1 X99.879 Y116.324 E0.16194
G1 X97.873 Y117.511 E0.16194
G1 X95.796 Y118.569 E0.16194
G1 X93.657 Y119.495 E0.16194
G1 X91.464 Y120.284 E0.16194
G1 X89.226 Y120.934 E0.16194
G1 X86.952 Y121.443 E0.16194
G1 X84.650 Y121.807 E0.16194
G1 X82.330 Y122.027 E0.16194
G1 X80.000 Y122.100 E0.16194
G1 X77.670 Y122.027 E0.16194
G1 X75.350 Y121.807 E0.16194
G1 X73.048 Y121.443 E0.16194
G1 X70.774 Y120.934 E0.16194
G1 X68.536 Y120.284 E0.16194
G1 X66.343 Y119.495 E0.16194
G1 X64.204 Y118.569 E0.16194
G1 X63.064 Y117.988 E0.08885
G1 F1800.000 E-1.00000
G1 X72.203 Y98.479 F7800.000
G1 E1.00000 F1800.000
G1 X71.787 Y99.226 E0.08907 F720.000
G1 X61.859 Y116.397 E2.06720
G1 X62.200 Y116.720 E0.04894
G1 X64.514 Y117.910 E0.27120
G1 X66.611 Y118.818 E0.23814
G1 X68.761 Y119.592 E0.23815
G1 X70.955 Y120.229 E0.23814
G1 X73.185 Y120.727 E0.23814
G1 X75.441 Y121.085 E0.23814
G1 X77.716 Y121.300 E0.23815
G1 X80.000 Y121.372 E0.23814
G1 X82.284 Y121.300 E0.23814
G1 X84.559 Y121.085 E0.23814
G1 X86.815 Y120.727 E0.23814
G1 X89.045 Y120.229 E0.23814
G1 X91.239 Y119.591 E0.23814
G1 X93.389 Y118.818 E0.23815
G1 X95.486 Y117.910 E0.23814
G1 X97.522 Y116.873 E0.23814
G1 X99.489 Y115.710 E0.23814
G1 X101.379 Y114.425 E0.23814
G1 X103.184 Y113.025 E0.23815
G1 X104.898 Y111.514 E0.23814
G1 X106.514 Y109.898 E0.23814
G1 X108.025 Y108.184 E0.23814
G1 X109.425 Y106.379 E0.23814
G1 X110.717 Y104.477 E0.23960
G1 X111.873 Y102.522 E0.23668
G1 X112.910 Y100.486 E0.23815
G1 X113.817 Y98.389 E0.23813
G1 X114.596 Y96.226 E0.23962
G1 X115.229 Y94.045 E0.23667
G1 X115.730 Y91.801 E0.23961
G1 X116.086 Y89.545 E0.23814
G1 X116.300 Y87.284 E0.23667
G1 X116.358 Y85.436 E0.19272
G1 X116.268 Y85.000 E0.04636
G1 X95.579 Y85.000 E2.15625
G1 X115.899 Y85.737 F7800.000
G1 X116.268 Y85.000 E0.08586 F720.000
G1 X116.358 Y84.564 E0.04636
G1 X116.300 Y82.716 E0.19272
G1 X116.085 Y80.441 E0.23814
G1 X115.723 Y78.164 E0.24032
G1 X115.229 Y75.955 E0.23596
G1 X114.595 Y73.772 E0.23689
G1 X114.206 Y72.688 E0.12002
G1 X114.149 Y72.447 E0.02582
G1 X113.818 Y71.611 E0.09378
G1 X112.903 Y69.500 E0.23976
G1 X111.873 Y67.478 E0.23653
G1 X110.716 Y65.522 E0.23676
G1 X109.425 Y63.621 E0.23951
G1 X108.015 Y61.804 E0.23972
G1 X106.514 Y60.102 E0.23657
G1 X104.932 Y58.520 E0.23311
G1 X103.184 Y56.975 E0.24316
G1 X101.379 Y55.575 E0.23815
G1 X99.489 Y54.290 E0.23814
G1 X97.509 Y53.120 E0.23975
G1 X95.486 Y52.090 E0.23653
G1 X93.402 Y51.188 E0.23675
G1 X91.239 Y50.408 E0.23954
G1 X89.045 Y49.771 E0.23815
G1 X86.827 Y49.275 E0.23685
G1 X84.539 Y48.913 E0.24145
G1 X82.284 Y48.700 E0.23612
G1 X80.000 Y48.628 E0.23814
G1 X77.716 Y48.700 E0.23815
G1 X75.441 Y48.915 E0.23814
G1 X73.185 Y49.273 E0.23815
G1 X70.969 Y49.768 E0.23666
G1 X68.761 Y50.408 E0.23961
G1 X66.611 Y51.183 E0.23816
G1 X64.514 Y52.090 E0.23813
G1 X62.200 Y53.280 E0.27121
G1 X61.859 Y53.603 E0.04894
G1 X71.787 Y70.774 E2.06719
G1 X72.203 Y71.521 E0.08907
G1 F1800.000 E-1.00000
G1 X71.945 Y98.941 F7800.000
G1 E1.00000 F1800.000
G1 X71.663 Y98.659 E0.04155 F720.000
G1 X70.596 Y97.944 E0.13396
G1 X69.801 Y97.328 E0.10476
G1 X69.047 Y96.663 E0.10476
G1 X68.337 Y95.953 E0.10476
G1 X67.672 Y95.199 E0.10475
G1 X67.056 Y94.404 E0.10476
G1 X66.491 Y93.573 E0.10475
G1 X65.979 Y92.708 E0.10476
G1 X65.523 Y91.812 E0.10476
G1 X65.124 Y90.890 E0.10476
G1 X64.783 Y89.944 E0.10476
G1 X64.503 Y88.979 E0.10475
G1 X64.372 Y88.460 E0.05580
G1 X64.283 Y87.998 E0.04901
G1 X64.126 Y87.005 E0.10476
G1 X64.032 Y86.005 E0.10476
G1 X64.000 Y84.987 E0.10613
G1 X64.032 Y83.995 E0.10338 F720.000
G1 X64.125 Y83.008 E0.10339
G1 X64.283 Y82.002 E0.10613
G1 X64.372 Y81.540 E0.04901
G1 X64.503 Y81.021 E0.05580
G1 X64.788 Y80.043 E0.10613
G1 X65.124 Y79.110 E0.10337
G1 X65.517 Y78.200 E0.10337
G1 X65.979 Y77.292 E0.10614
G1 X66.498 Y76.416 E0.10613
G1 X67.056 Y75.596 E0.10338
