; generated by Slic3r 1.2.2-dev on 2014-12-23 at 13:04:17

; external perimeters extrusion width = 0.60mm
; perimeters extrusion width = 0.60mm
; infill extrusion width = 0.60mm
; solid infill extrusion width = 0.60mm
; top infill extrusion width = 0.60mm

M104 S200 ; set temperature
G28 ; home all axes
G92 E0.0 ; reset extruder
M109 S200 ; wait for temperature to be reached
G21 ; set units to millimeters
G90 ; use absolute coordinates
M83 ; use relative distances for extrusion
M106 S102
G1 E-1.00000 F1800.00000
G1 Z0.300 F7800.000
G1 X71.399 Y69.334 F7800.000
G1 E1.00000 F1800.00000
G1 X73.380 Y67.599 E0.17599 F2160.000
G1 X75.237 Y66.159 E0.15696
G1 X77.651 Y64.518 E0.19501
G1 X79.674 Y63.322 E0.15697
G1 X82.017 Y62.118 E0.17602
G1 X84.696 Y60.959 E0.19498
G1 X87.177 Y60.075 E0.17598
G1 X89.434 Y59.419 E0.15698
G1 X92.282 Y58.783 E0.19500
G1 X94.886 Y58.379 E0.17598
G1 X97.509 Y58.140 E0.17599
G1 X100.142 Y58.067 E0.17599
G1 X102.491 Y58.140 E0.15698
G1 X105.397 Y58.415 E0.19499
G1 X107.718 Y58.783 E0.15697
G1 X110.290 Y59.349 E0.17599
G1 X112.823 Y60.075 E0.17599
G1 X115.304 Y60.959 E0.17598
G1 X117.983 Y62.118 E0.19501
G1 X120.077 Y63.185 E0.15698
G1 X122.349 Y64.518 E0.17601
G1 X124.763 Y66.159 E0.19498
G1 X126.620 Y67.599 E0.15700
G1 X128.602 Y69.335 E0.17599
G1 X130.666 Y71.399 E0.19498
G1 X132.401 Y73.380 E0.17599
G1 X133.842 Y75.238 E0.15703
G1 X135.482 Y77.651 E0.19495
G1 X136.678 Y79.674 E0.15699
G1 X137.882 Y82.017 E0.17596
G1 X139.041 Y84.696 E0.19501
G1 X139.925 Y87.177 E0.17598
G1 X140.581 Y89.433 E0.15696
G1 X141.217 Y92.282 E0.19502
G1 X141.621 Y94.886 E0.17598
G1 X141.842 Y97.225 E0.15698
G1 X141.933 Y99.858 E0.17597
G1 X141.860 Y102.491 E0.17601
G1 X141.585 Y105.397 E0.19499
G1 X141.217 Y107.718 E0.15701
G1 X140.651 Y110.290 E0.17594
G1 X139.925 Y112.823 E0.17599
G1 X139.041 Y115.304 E0.17598
G1 X137.882 Y117.983 E0.19501
G1 X136.815 Y120.078 E0.15706
G1 X135.482 Y122.349 E0.17589
G1 X133.841 Y124.763 E0.19501
G1 X132.400 Y126.621 E0.15705
G1 X130.665 Y128.602 E0.17593
G1 X128.601 Y130.666 E0.19499
G1 X126.839 Y132.220 E0.15698
G1 X124.762 Y133.842 E0.17604
G1 X122.349 Y135.482 E0.19494
G1 X120.326 Y136.678 E0.15703
G1 X117.983 Y137.882 E0.17593
G1 X115.304 Y139.041 E0.19501
G1 X113.094 Y139.837 E0.15697
G1 X110.567 Y140.581 E0.17598
G1 X107.718 Y141.217 E0.19502
G1 X105.114 Y141.621 E0.17598
G1 X102.775 Y141.842 E0.15699
G1 X100.142 Y141.933 E0.17596
G1 X97.509 Y141.860 E0.17599
G1 X94.603 Y141.585 E0.19500
G1 X92.282 Y141.217 E0.15699
G1 X89.710 Y140.651 E0.17596
G1 X87.177 Y139.925 E0.17599
G1 X84.696 Y139.041 E0.17598
G1 X82.017 Y137.882 E0.19501
G1 X79.878 Y136.792 E0.16039
G1 X77.646 Y135.479 E0.17299
G1 X75.237 Y133.841 E0.19459
G1 X73.380 Y132.401 E0.15701
G1 X71.398 Y130.666 E0.17594
G1 X69.334 Y128.601 E0.19501
G1 X67.781 Y126.839 E0.15697
G1 X66.159 Y124.763 E0.17599
G1 X64.518 Y122.349 E0.19500
G1 X63.322 Y120.326 E0.15697
G1 X62.118 Y117.983 E0.17598
G1 X60.959 Y115.304 E0.19501
G1 X60.075 Y112.823 E0.17598
G1 X59.419 Y110.566 E0.15698
G1 X58.783 Y107.718 E0.19500
G1 X58.379 Y105.114 E0.17598
G1 X58.140 Y102.491 E0.17599
G1 X58.067 Y100.140 E0.15715
G1 X58.140 Y97.509 E0.17582
G1 X58.415 Y94.603 E0.19499
G1 X58.836 Y92.003 E0.17599
G1 X59.349 Y89.710 E0.15696
G1 X60.163 Y86.906 E0.19501
G1 X60.959 Y84.696 E0.15697
G1 X61.997 Y82.274 E0.17602
G1 X63.322 Y79.674 E0.19499
G1 X64.518 Y77.651 E0.15697
G1 X65.992 Y75.467 E0.17598
G1 X67.781 Y73.161 E0.19501
G1 X69.529 Y71.191 E0.17599
G1 X71.355 Y69.375 E0.17198
G1 E-1.00000 F1800.00000
G1 X82.787 Y68.786 F7800.000
G1 E1.00000 F1800.00000
G1 X84.824 Y67.749 E0.15270 F972.000
G1 X86.879 Y66.859 E0.14959
G1 X88.985 Y66.101 E0.14959
G1 X91.136 Y65.476 E0.14959
G1 X93.321 Y64.988 E0.14959
G1 X95.532 Y64.637 E0.14953
G1 X97.761 Y64.427 E0.14961
G1 X100.000 Y64.356 E0.14961
G1 X102.238 Y64.427 E0.14961
G1 X104.466 Y64.637 E0.14950
G1 X106.678 Y64.988 E0.14961
G1 X108.864 Y65.476 E0.14962
G1 X111.013 Y66.100 E0.14952
G1 X113.121 Y66.859 E0.14964
G1 X115.177 Y67.749 E0.14964
G1 X117.171 Y68.765 E0.14954
G1 X119.099 Y69.905 E0.14961
G1 X120.951 Y71.164 E0.14959
G1 X122.721 Y72.536 E0.14963
G1 X124.399 Y74.016 E0.14950
G1 X125.983 Y75.600 E0.14965
G1 X127.464 Y77.280 E0.14958
G1 X128.836 Y79.049 E0.14957
G1 X130.095 Y80.901 E0.14958
G1 X131.235 Y82.828 E0.14961
G1 X132.251 Y84.823 E0.14958
G1 X133.141 Y86.878 E0.14959
G1 X133.899 Y88.984 E0.14953
G1 X134.524 Y91.135 E0.14965
G1 X135.012 Y93.320 E0.14951
G1 X135.363 Y95.532 E0.14963
G1 X135.573 Y97.761 E0.14961
G1 X135.622 Y99.300 E0.10284
G1 X116.678 Y99.300 E1.26555
G1 X116.667 Y98.951 E0.02330
G1 X116.568 Y97.907 E0.07008
G1 X116.404 Y96.871 E0.07009
G1 X116.175 Y95.847 E0.07009
G1 X115.883 Y94.839 E0.07009
G1 X115.527 Y93.852 E0.07009
G1 X115.111 Y92.890 E0.07009
G1 X114.634 Y91.955 E0.07009
G1 X114.100 Y91.052 E0.07009
G1 X113.510 Y90.184 E0.07009
G1 X112.867 Y89.355 E0.07009
G1 X112.174 Y88.568 E0.07008
G1 X111.432 Y87.826 E0.07009
G1 X110.645 Y87.133 E0.07008
G1 X109.816 Y86.490 E0.07009
G1 X108.948 Y85.900 E0.07009
G1 X108.045 Y85.366 E0.07009
G1 X107.110 Y84.889 E0.07009
G1 X106.148 Y84.473 E0.07009
G1 X105.161 Y84.117 E0.07009
G1 X104.153 Y83.825 E0.07009
G1 X103.129 Y83.596 E0.07009
G1 X102.093 Y83.432 E0.07009
G1 X101.049 Y83.333 E0.07009
G1 X100.000 Y83.300 E0.07009
G1 X98.951 Y83.333 E0.07009
G1 X97.907 Y83.432 E0.07009
G1 X96.871 Y83.596 E0.07009
G1 X95.847 Y83.825 E0.07009
G1 X94.839 Y84.117 E0.07008
G1 X93.852 Y84.473 E0.07009
G1 X92.890 Y84.889 E0.07008
G1 X92.267 Y85.207 E0.04666
G1 X82.817 Y68.838 E1.26265
G1 X82.599 Y68.433 F7800.000
G1 X81.583 Y69.502 F7800.000
G1 X91.051 Y85.900 E1.26499 F972.000
G1 X90.184 Y86.490 E0.07004
G1 X89.355 Y87.133 E0.07009
G1 X88.568 Y87.826 E0.07008
G1 X87.826 Y88.568 E0.07009
G1 X87.133 Y89.355 E0.07008
G1 X86.490 Y90.184 E0.07009
G1 X85.900 Y91.052 E0.07009
G1 X85.366 Y91.955 E0.07009
G1 X84.889 Y92.890 E0.07009
G1 X84.473 Y93.852 E0.07008
G1 X84.117 Y94.839 E0.07009
G1 X83.825 Y95.847 E0.07008
G1 X83.596 Y96.871 E0.07009
G1 X83.432 Y97.907 E0.07009
G1 X83.333 Y98.951 E0.07009
G1 X83.300 Y100.000 E0.07009
G1 X83.333 Y101.049 E0.07009
G1 X83.432 Y102.093 E0.07009
G1 X83.596 Y103.129 E0.07009
G1 X83.825 Y104.153 E0.07009
G1 X84.117 Y105.161 E0.07009
G1 X84.473 Y106.148 E0.07009
G1 X84.889 Y107.110 E0.07009
G1 X85.366 Y108.045 E0.07009
G1 X85.900 Y108.948 E0.07009
G1 X86.490 Y109.816 E0.07009
G1 X87.133 Y110.645 E0.07009
G1 X87.826 Y111.432 E0.07008
G1 X88.568 Y112.174 E0.07009
G1 X89.355 Y112.867 E0.07008
G1 X90.184 Y113.510 E0.07009
G1 X91.051 Y114.100 E0.07004
G1 X81.583 Y130.498 E1.26499
G1 X80.901 Y130.095 E0.05293
G1 X79.051 Y128.837 E0.14950
G1 X77.280 Y127.464 E0.14974
G1 X75.601 Y125.984 E0.14950
G1 X74.017 Y124.400 E0.14965
G1 X72.536 Y122.720 E0.14958
G1 X71.164 Y120.951 E0.14957
G1 X69.905 Y119.099 E0.14959
G1 X68.765 Y117.172 E0.14959
G1 X67.749 Y115.177 E0.14960
G1 X66.662 Y112.664 E0.18289
G1 X66.695 Y112.664 E0.00222
G1 X66.101 Y111.016 E0.11706
G1 X65.476 Y108.865 E0.14964
G1 X64.988 Y106.680 E0.14952
G1 X64.637 Y104.468 E0.14963
G1 X64.427 Y102.239 E0.14961
G1 X64.356 Y100.000 E0.14961
G1 X64.427 Y97.762 E0.14960
G1 X64.637 Y95.533 E0.14959
G1 X64.988 Y93.321 E0.14959
G1 X65.476 Y91.136 E0.14959
G1 X66.101 Y88.985 E0.14959
G1 X66.859 Y86.879 E0.14959
G1 X67.749 Y84.824 E0.14959
G1 X68.765 Y82.829 E0.14959
G1 X69.905 Y80.901 E0.14959
G1 X71.164 Y79.049 E0.14959
G1 X72.536 Y77.280 E0.14959
G1 X74.017 Y75.600 E0.14959
G1 X75.600 Y74.017 E0.14959
G1 X77.280 Y72.536 E0.14959
G1 X79.049 Y71.164 E0.14959
G1 X80.901 Y69.905 E0.14959
G1 X81.532 Y69.532 E0.04894
G1 X81.929 Y69.300 F7800.000
G1 E-1.00000 F1800.00000
G1 X91.536 Y87.212 F7800.000
G1 E1.00000 F1800.00000
G1 X91.536 Y87.239 E0.00183 F972.000
G1 X92.629 Y86.592 E0.08486
G1 X93.486 Y86.156 E0.06421
G1 X94.815 Y85.581 E0.09680
G1 X94.815 Y85.613 E0.00217
G1 X95.272 Y85.449 E0.03242
G1 X96.195 Y85.181 E0.06421
G1 X97.516 Y84.885 E0.09040
G1 X97.516 Y84.910 E0.00167
G1 X98.082 Y84.821 E0.03834
G1 X99.378 Y84.698 E0.08691
G1 X99.378 Y84.719 E0.00143
G1 X100.000 Y84.700 E0.04160
G1 X100.961 Y84.730 E0.06421
G1 X101.918 Y84.821 E0.06421
G1 X103.118 Y85.011 E0.08119
G1 X103.118 Y85.027 E0.00109
G1 X103.805 Y85.181 E0.04703
G1 X104.728 Y85.449 E0.06421
G1 X105.632 Y85.774 E0.06421
G1 X106.514 Y86.156 E0.06421
G1 X107.371 Y86.592 E0.06421
G1 X108.198 Y87.082 E0.06421
G1 X108.993 Y87.622 E0.06421
G1 X109.753 Y88.211 E0.06422
G1 X110.474 Y88.847 E0.06421
G1 X111.153 Y89.526 E0.06421
G1 X111.789 Y90.247 E0.06421
G1 X112.540 Y91.215 E0.08183
G1 X112.528 Y91.227 E0.00113
G1 X112.918 Y91.802 E0.04642
G1 X113.408 Y92.629 E0.06421
G1 X113.844 Y93.486 E0.06421
G1 X114.419 Y94.815 E0.09680
G1 X114.387 Y94.815 E0.00217
G1 X114.551 Y95.272 E0.03242
G1 X114.819 Y96.195 E0.06421
G1 X115.029 Y97.133 E0.06421
G1 X115.179 Y98.082 E0.06421
G1 X115.270 Y99.039 E0.06421
G1 X115.300 Y100.000 E0.06421
G1 X115.270 Y100.961 E0.06421
G1 X115.179 Y101.918 E0.06421
G1 X115.029 Y102.867 E0.06421
G1 X114.819 Y103.805 E0.06421
G1 X114.551 Y104.728 E0.06421
G1 X114.226 Y105.632 E0.06421
G1 X113.844 Y106.514 E0.06421
G1 X113.408 Y107.371 E0.06421
G1 X112.918 Y108.198 E0.06421
G1 X112.378 Y108.993 E0.06421
G1 X111.789 Y109.753 E0.06421
G1 X111.153 Y110.474 E0.06421
G1 X110.474 Y111.153 E0.06421
G1 X109.753 Y111.789 E0.06421
G1 X108.993 Y112.378 E0.06422
G1 X108.198 Y112.918 E0.06421
G1 X107.371 Y113.408 E0.06421
G1 X106.514 Y113.844 E0.06421
G1 X105.632 Y114.226 E0.06421
G1 X104.728 Y114.551 E0.06421
G1 X103.805 Y114.819 E0.06421
G1 X103.118 Y114.973 E0.04703
G1 X103.118 Y114.989 E0.00109
G1 X101.918 Y115.179 E0.08119
G1 X100.961 Y115.270 E0.06421
G1 X100.000 Y115.300 E0.06421
G1 X99.039 Y115.270 E0.06421
G1 X98.082 Y115.179 E0.06421
G1 X97.133 Y115.029 E0.06421
G1 X96.195 Y114.819 E0.06421
G1 X95.272 Y114.551 E0.06421
G1 X94.815 Y114.387 E0.03242
G1 X94.815 Y114.419 E0.00217
G1 X93.486 Y113.844 E0.09680
G1 X92.629 Y113.408 E0.06421
G1 X91.802 Y112.918 E0.06421
G1 X91.227 Y112.528 E0.04642
G1 X91.215 Y112.540 E0.00113
G1 X90.247 Y111.789 E0.08183
G1 X89.526 Y111.153 E0.06421
G1 X88.847 Y110.474 E0.06421
G1 X88.211 Y109.753 E0.06421
G1 X87.622 Y108.993 E0.06422
G1 X87.082 Y108.198 E0.06421
G1 X86.592 Y107.371 E0.06421
G1 X86.156 Y106.514 E0.06421
G1 X85.774 Y105.632 E0.06421
G1 X85.449 Y104.728 E0.06421
G1 X85.181 Y103.805 E0.06421
G1 X85.027 Y103.118 E0.04703
G1 X85.011 Y103.118 E0.00109
G1 X84.821 Y101.918 E0.08119
G1 X84.730 Y100.961 E0.06421
G1 X84.700 Y100.000 E0.06421
G1 X84.730 Y99.039 E0.06421
G1 X84.821 Y98.082 E0.06421
G1 X85.011 Y96.882 E0.08119
G1 X85.027 Y96.882 E0.00109
G1 X85.181 Y96.195 E0.04703
G1 X85.449 Y95.272 E0.06421
G1 X85.774 Y94.368 E0.06422
G1 X86.156 Y93.486 E0.06420
G1 X86.592 Y92.629 E0.06421
G1 X87.082 Y91.802 E0.06421
G1 X87.622 Y91.007 E0.06421
G1 X88.211 Y90.247 E0.06421
G1 X88.847 Y89.526 E0.06421
G1 X89.526 Y88.847 E0.06421
G1 X90.247 Y88.211 E0.06421
G1 X91.488 Y87.248 E0.10493
G1 X91.563 Y87.206 F7800.000
G1 E-1.00000 F1800.00000
G1 X91.929 Y86.021 F7800.000
G1 X91.929 Y86.021 F7800.000
G1 X81.812 Y68.498 F7800.000
G1 X84.525 Y67.115 F7800.000
G1 X86.621 Y66.208 F7800.000
G1 X88.769 Y65.435 F7800.000
G1 X90.962 Y64.798 F7800.000
G1 X93.190 Y64.300 F7800.000
G1 X95.445 Y63.943 F7800.000
G1 X97.718 Y63.728 F7800.000
G1 X99.959 Y63.657 F7800.000
G1 X100.000 Y63.656 F7800.000
G1 X102.282 Y63.728 F7800.000
G1 X104.555 Y63.943 F7800.000
G1 X106.810 Y64.300 F7800.000
G1 X109.038 Y64.798 F7800.000
G1 X111.231 Y65.435 F7800.000
G1 X113.379 Y66.208 F7800.000
G1 X115.474 Y67.115 F7800.000
G1 X117.509 Y68.151 F7800.000
G1 X119.474 Y69.314 F7800.000
G1 X121.321 Y70.569 F7800.000
G1 X121.360 Y70.595 F7800.000
G1 X123.167 Y71.996 F7800.000
G1 X124.879 Y73.506 F7800.000
G1 X126.494 Y75.121 F7800.000
G1 X128.004 Y76.833 F7800.000
G1 X129.403 Y78.638 F7800.000
G1 X130.686 Y80.526 F7800.000
G1 X131.849 Y82.491 F7800.000
G1 X132.885 Y84.525 F7800.000
G1 X133.792 Y86.621 F7800.000
G1 X134.565 Y88.769 F7800.000
G1 X135.202 Y90.962 F7800.000
G1 X135.700 Y93.190 F7800.000
G1 X136.057 Y95.445 F7800.000
G1 X136.272 Y97.718 F7800.000
G1 X136.344 Y100.000 F7800.000
G1 X116.000 Y100.000 F7800.000
G1 X116.000 Y100.000 F7800.000
G1 X136.344 Y100.000 F7800.000
G1 X136.272 Y102.282 F7800.000
G1 X136.057 Y104.555 F7800.000
G1 X135.700 Y106.810 F7800.000
G1 X135.202 Y109.038 F7800.000
G1 X134.565 Y111.231 F7800.000
G1 X133.792 Y113.379 F7800.000
G1 X132.885 Y115.474 F7800.000
G1 X131.849 Y117.509 F7800.000
G1 X130.686 Y119.474 F7800.000
G1 X129.436 Y121.314 F7800.000
G1 X129.404 Y121.361 F7800.000
G1 X128.004 Y123.167 F7800.000
G1 X126.494 Y124.879 F7800.000
G1 X124.879 Y126.494 F7800.000
G1 X123.167 Y128.004 F7800.000
G1 X121.362 Y129.403 F7800.000
G1 X119.474 Y130.686 F7800.000
G1 X117.509 Y131.849 F7800.000
G1 X115.475 Y132.885 F7800.000
G1 X113.379 Y133.792 F7800.000
G1 X111.231 Y134.565 F7800.000
G1 X109.084 Y135.189 F7800.000
G1 X109.038 Y135.202 F7800.000
G1 X106.810 Y135.700 F7800.000
G1 X104.555 Y136.057 F7800.000
G1 X102.282 Y136.272 F7800.000
G1 X100.000 Y136.344 F7800.000
G1 X97.718 Y136.272 F7800.000
G1 X95.445 Y136.057 F7800.000
G1 X93.190 Y135.700 F7800.000
G1 X90.962 Y135.202 F7800.000
G1 X88.769 Y134.565 F7800.000
G1 X86.621 Y133.792 F7800.000
G1 X84.525 Y132.885 F7800.000
G1 X81.812 Y131.502 F7800.000
G1 X91.993 Y113.868 F7800.000
G1 X92.279 Y114.014 F7800.000
G1 X92.267 Y114.793 F7800.000
G1 E1.00000 F1800.00000
G1 X92.890 Y115.111 E0.04666 F972.000
G1 X93.852 Y115.527 E0.07008
G1 X94.839 Y115.883 E0.07009
G1 X95.847 Y116.175 E0.07008
G1 X96.871 Y116.404 E0.07009
G1 X97.907 Y116.568 E0.07009
G1 X98.951 Y116.667 E0.07009
G1 X100.000 Y116.700 E0.07009
G1 X101.049 Y116.667 E0.07009
G1 X102.093 Y116.568 E0.07009
G1 X103.129 Y116.404 E0.07008
G1 X104.153 Y116.175 E0.07009
G1 X105.161 Y115.883 E0.07008
G1 X106.148 Y115.527 E0.07009
G1 X107.110 Y115.111 E0.07009
G1 X108.045 Y114.634 E0.07009
G1 X108.948 Y114.100 E0.07009
G1 X109.816 Y113.510 E0.07009
G1 X110.645 Y112.867 E0.07009
G1 X111.432 Y112.174 E0.07008
G1 X112.174 Y111.432 E0.07009
G1 X112.867 Y110.645 E0.07008
G1 X113.510 Y109.816 E0.07009
G1 X114.100 Y108.948 E0.07009
G1 X114.634 Y108.045 E0.07009
G1 X115.111 Y107.110 E0.07009
G1 X115.527 Y106.148 E0.07008
G1 X115.883 Y105.161 E0.07009
G1 X116.175 Y104.153 E0.07009
G1 X116.404 Y103.129 E0.07009
G1 X116.568 Y102.093 E0.07009
G1 X116.667 Y101.049 E0.07008
G1 X116.678 Y100.700 E0.02330
G1 X135.622 Y100.700 E1.26555
G1 X135.573 Y102.238 E0.10279
G1 X135.363 Y104.467 E0.14960
G1 X135.012 Y106.679 E0.14958
G1 X134.524 Y108.864 E0.14960
G1 X133.899 Y111.014 E0.14958
G1 X133.141 Y113.121 E0.14959
G1 X132.251 Y115.176 E0.14959
G1 X131.235 Y117.171 E0.14959
G1 X130.095 Y119.099 E0.14959
G1 X128.836 Y120.951 E0.14959
G1 X127.464 Y122.720 E0.14959
G1 X125.983 Y124.400 E0.14959
G1 X124.400 Y125.983 E0.14959
G1 X122.720 Y127.464 E0.14959
G1 X120.951 Y128.836 E0.14959
G1 X119.099 Y130.095 E0.14959
G1 X117.171 Y131.235 E0.14959
G1 X115.176 Y132.251 E0.14959
G1 X113.121 Y133.141 E0.14959
G1 X111.015 Y133.899 E0.14959
G1 X108.864 Y134.524 E0.14960
G1 X106.705 Y135.006 E0.14779
G1 X104.467 Y135.363 E0.15139
G1 X102.238 Y135.573 E0.14958
G1 X100.000 Y135.644 E0.14960
G1 X97.762 Y135.573 E0.14958
G1 X95.534 Y135.363 E0.14952
G1 X93.322 Y135.013 E0.14960
G1 X91.136 Y134.524 E0.14965
G1 X88.987 Y133.900 E0.14951
G1 X86.879 Y133.141 E0.14965
G1 X84.840 Y132.259 E0.14839
G1 X82.787 Y131.214 E0.15392
G1 X92.237 Y114.845 E1.26265
G1 X92.455 Y114.440 F7800.000
G1 E-1.00000 F1800.00000
G1 X92.279 Y114.014 F7800.000
G1 X91.439 Y113.517 F7800.000
G1 X91.983 Y113.886 F7800.000
G1 X81.836 Y131.461 F7800.000
G1 X80.526 Y130.686 F7800.000
G1 X78.686 Y129.436 F7800.000
G1 X78.639 Y129.404 F7800.000
G1 X76.833 Y128.004 F7800.000
G1 X75.121 Y126.494 F7800.000
G1 X73.506 Y124.879 F7800.000
G1 X71.996 Y123.167 F7800.000
G1 X70.597 Y121.362 F7800.000
G1 X69.314 Y119.474 F7800.000
G1 X68.151 Y117.509 F7800.000
G1 X67.115 Y115.474 F7800.000
G1 X65.857 Y112.568 F7800.000
G1 X66.157 Y113.400 F7800.000
