; generated by Slic3r 1.2.2-dev on 2014-12-19 at 11:34:16

; external perimeters extrusion width = 0.60mm
; perimeters extrusion width = 0.60mm
; infill extrusion width = 0.60mm
; solid infill extrusion width = 0.60mm
; top infill extrusion width = 0.60mm

M190 S90 ; set bed temperature
M104 S225 ; set temperature
G28 ; home all axes
G92 E0.0 ; reset extruder
M109 S225 ; wait for temperature to be reached
G21 ; set units to millimeters
G90 ; use absolute coordinates
M83 ; use relative distances for extrusion
G1 E-1.00000 F1800.00000
G1 Z0.300 F4200.000
G1 X72.162 Y68.640 F4200.000
G1 E1.00000 F1800.00000
G1 X74.411 Y66.779 E0.19501 F2160.000
G1 X76.312 Y65.398 E0.15698
G1 X78.532 Y63.979 E0.17597
G1 X81.090 Y62.572 E0.19501
G1 X83.216 Y61.572 E0.15697
G1 X85.662 Y60.594 E0.17601
G1 X88.438 Y59.692 E0.19499
G1 X90.992 Y59.045 E0.17599
G1 X93.300 Y58.605 E0.15696
G1 X95.912 Y58.266 E0.17599
G1 X98.523 Y58.093 E0.17483
G1 X101.460 Y58.092 E0.19617
G1 X103.804 Y58.239 E0.15696
G1 X106.419 Y58.561 E0.17599
G1 X109.286 Y59.108 E0.19501
G1 X111.836 Y59.771 E0.17599
G1 X114.070 Y60.497 E0.15696
G1 X116.785 Y61.572 E0.19501
G1 X118.910 Y62.572 E0.15696
G1 X121.223 Y63.834 E0.17598
G1 X123.688 Y65.398 E0.19502
G1 X125.814 Y66.953 E0.17598
G1 X127.838 Y68.640 E0.17599
G1 X129.551 Y70.248 E0.15698
G1 X131.361 Y72.162 E0.17599
G1 X133.221 Y74.411 E0.19499
G1 X134.603 Y76.313 E0.15700
G1 X136.021 Y78.532 E0.17595
G1 X137.298 Y80.836 E0.17599
G1 X138.421 Y83.201 E0.17489
G1 X139.503 Y85.930 E0.19609
G1 X140.229 Y88.165 E0.15701
G1 X140.893 Y90.714 E0.17600
G1 X141.439 Y93.581 E0.19495
G1 X141.761 Y96.196 E0.17599
G1 X141.908 Y98.541 E0.15702
G1 X141.908 Y101.460 E0.19495
G1 X141.734 Y104.088 E0.17599
G1 X141.439 Y106.420 E0.15702
G1 X140.892 Y109.286 E0.19495
G1 X140.308 Y111.562 E0.15697
G1 X139.503 Y114.070 E0.17598
G1 X138.428 Y116.785 E0.19501
G1 X137.298 Y119.164 E0.17598
G1 X136.166 Y121.223 E0.15696
G1 X134.602 Y123.688 E0.19502
G1 X133.221 Y125.589 E0.15698
G1 X131.549 Y127.624 E0.17597
G1 X129.751 Y129.551 E0.17606
G1 X127.851 Y131.349 E0.17476
G1 X125.589 Y133.221 E0.19616
G1 X123.688 Y134.602 E0.15699
G1 X121.468 Y136.021 E0.17598
G1 X118.910 Y137.428 E0.19499
G1 X116.784 Y138.428 E0.15699
G1 X114.338 Y139.406 E0.17596
G1 X111.562 Y140.308 E0.19501
G1 X109.286 Y140.892 E0.15698
G1 X106.700 Y141.395 E0.17598
G1 X104.088 Y141.734 E0.17598
G1 X101.477 Y141.907 E0.17483
G1 X98.540 Y141.908 E0.19617
G1 X95.912 Y141.734 E0.17599
G1 X93.580 Y141.439 E0.15701
G1 X90.714 Y140.892 E0.19496
G1 X88.434 Y140.307 E0.15721
G1 X85.922 Y139.500 E0.17626
G1 X83.215 Y138.428 E0.19450
G1 X81.090 Y137.428 E0.15697
G1 X78.777 Y136.166 E0.17598
G1 X76.312 Y134.602 E0.19502
G1 X74.186 Y133.047 E0.17598
G1 X72.162 Y131.360 E0.17599
G1 X70.449 Y129.752 E0.15698
G1 X68.639 Y127.838 E0.17600
G1 X66.779 Y125.589 E0.19498
G1 X65.398 Y123.688 E0.15697
G1 X63.979 Y121.468 E0.17600
G1 X62.702 Y119.164 E0.17598
G1 X61.572 Y116.785 E0.17598
G1 X60.497 Y114.070 E0.19501
G1 X59.700 Y111.595 E0.17374
G1 X59.107 Y109.284 E0.15940
G1 X58.561 Y106.419 E0.19482
G1 X58.239 Y103.804 E0.17599
G1 X58.092 Y101.459 E0.15699
G1 X58.092 Y98.540 E0.19499
G1 X58.239 Y96.196 E0.15696
G1 X58.561 Y93.581 E0.17599
G1 X59.108 Y90.714 E0.19501
G1 X59.771 Y88.164 E0.17599
G1 X60.497 Y85.930 E0.15696
G1 X61.572 Y83.215 E0.19501
G1 X62.702 Y80.836 E0.17598
G1 X63.834 Y78.777 E0.15696
G1 X65.398 Y76.312 E0.19502
G1 X66.953 Y74.186 E0.17598
G1 X68.451 Y72.376 E0.15697
G1 X70.252 Y70.445 E0.17643
G1 X72.118 Y68.681 E0.17154
G1 E-1.00000 F1800.00000
G1 X104.993 Y84.072 F4200.000
G1 E1.00000 F1800.00000
G1 X109.900 Y65.757 E1.26666 F1458.000
G1 X112.074 Y66.464 E0.15270
G1 X114.156 Y67.288 E0.14959
G1 X116.182 Y68.241 E0.14959
G1 X118.144 Y69.320 E0.14959
G1 X120.035 Y70.520 E0.14959
G1 X121.846 Y71.835 E0.14954
G1 X123.571 Y73.263 E0.14961
G1 X125.204 Y74.796 E0.14962
G1 X126.737 Y76.429 E0.14961
G1 X128.163 Y78.153 E0.14949
G1 X129.480 Y79.965 E0.14963
G1 X130.680 Y81.856 E0.14961
G1 X131.758 Y83.817 E0.14953
G1 X132.712 Y85.844 E0.14964
G1 X133.537 Y87.927 E0.14966
G1 X134.228 Y90.055 E0.14953
G1 X134.785 Y92.225 E0.14962
G1 X135.205 Y94.424 E0.14959
G1 X135.485 Y96.646 E0.14961
G1 X135.626 Y98.879 E0.14951
G1 X135.626 Y101.120 E0.14965
G1 X135.486 Y103.354 E0.14957
G1 X135.205 Y105.575 E0.14958
G1 X134.785 Y107.775 E0.14960
G1 X134.229 Y109.944 E0.14959
G1 X133.536 Y112.074 E0.14961
G1 X132.712 Y114.155 E0.14958
G1 X131.759 Y116.181 E0.14954
G1 X130.680 Y118.144 E0.14963
G1 X129.481 Y120.034 E0.14954
G1 X128.165 Y121.846 E0.14961
G1 X126.737 Y123.571 E0.14962
G1 X125.683 Y124.693 E0.10284
G1 X112.288 Y111.298 E1.26555
G1 X112.527 Y111.044 E0.02330
G1 X113.195 Y110.235 E0.07008
G1 X113.812 Y109.387 E0.07009
G1 X114.374 Y108.501 E0.07009
G1 X114.880 Y107.582 E0.07008
G1 X115.326 Y106.632 E0.07009
G1 X115.713 Y105.657 E0.07009
G1 X116.037 Y104.659 E0.07009
G1 X116.298 Y103.643 E0.07009
G1 X116.494 Y102.612 E0.07009
G1 X116.626 Y101.572 E0.07009
G1 X116.692 Y100.525 E0.07008
G1 X116.692 Y99.475 E0.07009
G1 X116.626 Y98.428 E0.07008
G1 X116.494 Y97.388 E0.07009
G1 X116.298 Y96.357 E0.07009
G1 X116.037 Y95.341 E0.07008
G1 X115.713 Y94.343 E0.07009
G1 X115.326 Y93.368 E0.07008
G1 X114.880 Y92.418 E0.07009
G1 X114.374 Y91.499 E0.07009
G1 X113.812 Y90.613 E0.07009
G1 X113.195 Y89.765 E0.07009
G1 X112.527 Y88.956 E0.07009
G1 X111.809 Y88.191 E0.07009
G1 X111.044 Y87.473 E0.07009
G1 X110.235 Y86.805 E0.07009
G1 X109.387 Y86.188 E0.07009
G1 X108.501 Y85.626 E0.07009
G1 X107.582 Y85.120 E0.07008
G1 X106.632 Y84.674 E0.07009
G1 X105.657 Y84.287 E0.07008
G1 X105.050 Y84.090 E0.04265
G1 X104.608 Y83.961 F4200.000
G1 X103.642 Y83.702 F4200.000
G1 X102.612 Y83.506 E0.07004 F1458.000
G1 X101.572 Y83.374 E0.07009
G1 X100.525 Y83.308 E0.07008
G1 X99.475 Y83.308 E0.07009
G1 X98.428 Y83.374 E0.07008
G1 X97.388 Y83.506 E0.07009
G1 X96.357 Y83.702 E0.07009
G1 X95.341 Y83.963 E0.07009
G1 X94.343 Y84.287 E0.07009
G1 X93.368 Y84.674 E0.07009
G1 X92.418 Y85.120 E0.07009
G1 X91.499 Y85.626 E0.07009
G1 X90.613 Y86.188 E0.07009
G1 X89.765 Y86.805 E0.07009
G1 X88.956 Y87.473 E0.07009
G1 X88.191 Y88.191 E0.07009
G1 X87.473 Y88.956 E0.07009
G1 X86.805 Y89.765 E0.07009
G1 X86.188 Y90.613 E0.07009
G1 X85.626 Y91.499 E0.07009
G1 X85.120 Y92.418 E0.07009
G1 X84.674 Y93.368 E0.07009
G1 X84.287 Y94.343 E0.07008
G1 X83.963 Y95.341 E0.07009
G1 X83.702 Y96.357 E0.07009
G1 X83.506 Y97.388 E0.07009
G1 X83.374 Y98.428 E0.07009
G1 X83.308 Y99.475 E0.07008
G1 X83.308 Y100.525 E0.07009
G1 X83.374 Y101.572 E0.07008
G1 X83.506 Y102.612 E0.07009
G1 X83.702 Y103.642 E0.07004
G1 X65.412 Y108.543 E1.26499
G1 X65.215 Y107.776 E0.05293
G1 X64.795 Y105.578 E0.14949
G1 X64.515 Y103.354 E0.14975
G1 X64.374 Y101.120 E0.14950
G1 X64.374 Y98.880 E0.14964
G1 X64.515 Y96.646 E0.14957
G1 X64.795 Y94.425 E0.14957
G1 X65.215 Y92.225 E0.14959
G1 X65.771 Y90.056 E0.14959
G1 X66.463 Y87.926 E0.14960
G1 X67.288 Y85.844 E0.14959
G1 X68.241 Y83.819 E0.14954
G1 X69.320 Y81.856 E0.14964
G1 X70.519 Y79.966 E0.14952
G1 X71.835 Y78.154 E0.14962
G1 X73.263 Y76.429 E0.14961
G1 X74.796 Y74.796 E0.14962
G1 X76.428 Y73.263 E0.14960
G1 X78.154 Y71.836 E0.14959
G1 X79.965 Y70.520 E0.14959
G1 X81.856 Y69.320 E0.14959
G1 X83.818 Y68.241 E0.14959
G1 X85.821 Y67.299 E0.14786
G1 X87.926 Y66.464 E0.15131
G1 X90.056 Y65.772 E0.14959
G1 X92.225 Y65.215 E0.14959
G1 X94.424 Y64.795 E0.14959
G1 X96.646 Y64.515 E0.14959
G1 X98.854 Y64.376 E0.14784
G1 X101.120 Y64.374 E0.15133
G1 X103.354 Y64.515 E0.14959
G1 X105.576 Y64.795 E0.14959
G1 X107.775 Y65.215 E0.14959
G1 X108.543 Y65.412 E0.05295
G1 X103.658 Y83.644 E1.26098
G1 X103.558 Y84.093 F4200.000
G1 E-1.00000 F1800.00000
G1 X98.560 Y84.768 F4200.000
G1 E1.00000 F1800.00000
G1 X99.519 Y84.707 E0.06421 F1458.000
G1 X100.481 Y84.707 E0.06421
G1 X101.440 Y84.768 E0.06421
G1 X102.349 Y84.883 E0.06122
G1 X103.338 Y85.068 E0.06720
G1 X104.269 Y85.307 E0.06421
G1 X105.183 Y85.604 E0.06421
G1 X106.076 Y85.958 E0.06421
G1 X106.946 Y86.368 E0.06421
G1 X107.788 Y86.831 E0.06421
G1 X108.600 Y87.346 E0.06421
G1 X109.378 Y87.911 E0.06421
G1 X110.380 Y88.740 E0.08691
G1 X110.365 Y88.755 E0.00143
G1 X110.819 Y89.181 E0.04160
G1 X111.477 Y89.882 E0.06421
G1 X112.535 Y91.161 E0.11090
G1 X112.503 Y91.161 E0.00215
G1 X113.169 Y92.212 E0.08314
G1 X113.632 Y93.054 E0.06421
G1 X114.042 Y93.924 E0.06421
G1 X114.379 Y94.776 E0.06122
G1 X114.693 Y95.731 E0.06720
G1 X114.932 Y96.662 E0.06421
G1 X115.112 Y97.606 E0.06421
G1 X115.232 Y98.560 E0.06421
G1 X115.293 Y99.519 E0.06421
G1 X115.293 Y100.481 E0.06421
G1 X115.232 Y101.440 E0.06421
G1 X115.112 Y102.394 E0.06422
G1 X114.932 Y103.338 E0.06421
G1 X114.693 Y104.269 E0.06421
G1 X114.396 Y105.183 E0.06421
G1 X114.042 Y106.076 E0.06421
G1 X113.632 Y106.946 E0.06421
G1 X113.169 Y107.788 E0.06421
G1 X112.654 Y108.600 E0.06421
G1 X112.089 Y109.378 E0.06421
G1 X111.477 Y110.118 E0.06421
G1 X110.819 Y110.819 E0.06421
G1 X110.118 Y111.477 E0.06421
G1 X109.378 Y112.089 E0.06421
G1 X108.600 Y112.654 E0.06421
G1 X107.788 Y113.169 E0.06421
G1 X106.906 Y113.652 E0.06720
G1 X106.076 Y114.042 E0.06122
G1 X105.183 Y114.396 E0.06421
G1 X104.269 Y114.693 E0.06421
G1 X103.338 Y114.932 E0.06421
G1 X102.349 Y115.117 E0.06720
G1 X101.440 Y115.232 E0.06122
G1 X100.481 Y115.293 E0.06421
G1 X99.519 Y115.293 E0.06421
G1 X98.560 Y115.232 E0.06421
G1 X97.606 Y115.112 E0.06421
G1 X96.662 Y114.932 E0.06421
G1 X95.731 Y114.693 E0.06421
G1 X94.817 Y114.396 E0.06421
G1 X93.924 Y114.042 E0.06421
G1 X93.054 Y113.632 E0.06421
G1 X92.212 Y113.169 E0.06421
G1 X91.161 Y112.503 E0.08314
G1 X91.161 Y112.535 E0.00215
G1 X89.882 Y111.477 E0.11090
G1 X89.181 Y110.819 E0.06421
G1 X88.755 Y110.365 E0.04160
G1 X88.740 Y110.380 E0.00143
G1 X87.911 Y109.378 E0.08691
G1 X87.346 Y108.600 E0.06421
G1 X86.831 Y107.788 E0.06421
G1 X86.368 Y106.946 E0.06421
G1 X85.958 Y106.076 E0.06421
G1 X85.604 Y105.183 E0.06421
G1 X85.296 Y104.225 E0.06720
G1 X85.068 Y103.338 E0.06122
G1 X84.888 Y102.394 E0.06421
G1 X84.768 Y101.440 E0.06421
G1 X84.707 Y100.481 E0.06421
G1 X84.707 Y99.519 E0.06421
G1 X84.768 Y98.560 E0.06421
G1 X84.888 Y97.606 E0.06421
G1 X85.068 Y96.662 E0.06421
G1 X85.307 Y95.731 E0.06421
G1 X85.604 Y94.817 E0.06421
G1 X85.958 Y93.924 E0.06421
G1 X86.368 Y93.054 E0.06421
G1 X86.831 Y92.212 E0.06421
G1 X87.346 Y91.400 E0.06421
G1 X87.911 Y90.622 E0.06421
G1 X88.335 Y90.110 E0.04447
G1 X88.322 Y90.096 E0.00124
G1 X89.181 Y89.181 E0.08387
G1 X90.096 Y88.322 E0.08387
G1 X90.110 Y88.335 E0.00124
G1 X90.622 Y87.911 E0.04447
G1 X91.400 Y87.346 E0.06421
G1 X92.212 Y86.831 E0.06421
G1 X93.054 Y86.368 E0.06421
G1 X93.924 Y85.958 E0.06421
G1 X94.817 Y85.604 E0.06421
G1 X95.731 Y85.307 E0.06421
G1 X96.662 Y85.068 E0.06421
G1 X97.606 Y84.888 E0.06421
G1 X98.501 Y84.775 E0.06021
G1 X98.730 Y84.406 F4200.000
G1 E-1.00000 F1800.00000
G1 X103.505 Y84.389 F4200.000
G1 X104.449 Y84.631 F4200.000
G1 X104.145 Y84.532 F4200.000
G1 X108.950 Y66.600 F4200.000
G1 X109.415 Y64.864 F4200.000
G1 X112.311 Y65.805 F4200.000
G1 X114.434 Y66.645 F4200.000
G1 X116.500 Y67.617 F4200.000
G1 X118.501 Y68.717 F4200.000
G1 X120.428 Y69.941 F4200.000
G1 X122.276 Y71.283 F4200.000
G1 X124.035 Y72.738 F4200.000
G1 X125.699 Y74.301 F4200.000
G1 X127.224 Y75.924 F4200.000
G1 X127.262 Y75.966 F4200.000
G1 X128.717 Y77.724 F4200.000
G1 X130.059 Y79.572 F4200.000
G1 X131.283 Y81.499 F4200.000
G1 X132.383 Y83.500 F4200.000
G1 X133.355 Y85.566 F4200.000
G1 X134.195 Y87.689 F4200.000
G1 X134.901 Y89.860 F4200.000
G1 X135.469 Y92.072 F4200.000
G1 X135.885 Y94.256 F4200.000
G1 X135.889 Y94.275 F4200.000
G1 X135.897 Y94.315 F4200.000
G1 X136.183 Y96.580 F4200.000
G1 X136.326 Y98.858 F4200.000
G1 X136.326 Y101.142 F4200.000
G1 X136.183 Y103.420 F4200.000
G1 X135.897 Y105.685 F4200.000
G1 X135.469 Y107.928 F4200.000
G1 X134.901 Y110.140 F4200.000
G1 X134.195 Y112.311 F4200.000
G1 X133.355 Y114.434 F4200.000
G1 X132.383 Y116.500 F4200.000
G1 X131.283 Y118.501 F4200.000
G1 X130.059 Y120.428 F4200.000
G1 X128.717 Y122.275 F4200.000
G1 X127.262 Y124.035 F4200.000
G1 X125.699 Y125.699 F4200.000
G1 X111.314 Y111.314 F4200.000
G1 X111.314 Y111.314 F4200.000
G1 X125.699 Y125.699 F4200.000
G1 X124.035 Y127.262 F4200.000
G1 X122.276 Y128.717 F4200.000
G1 X120.428 Y130.059 F4200.000
G1 X118.501 Y131.283 F4200.000
G1 X116.500 Y132.383 F4200.000
G1 X114.434 Y133.355 F4200.000
G1 X112.311 Y134.195 F4200.000
G1 X110.140 Y134.901 F4200.000
G1 X107.928 Y135.469 F4200.000
G1 X105.743 Y135.885 F4200.000
G1 X105.688 Y135.896 F4200.000
G1 X103.420 Y136.183 F4200.000
G1 X101.189 Y136.323 F4200.000
G1 X101.142 Y136.326 F4200.000
G1 X98.858 Y136.326 F4200.000
G1 X96.580 Y136.183 F4200.000
G1 X94.315 Y135.897 F4200.000
G1 X92.072 Y135.469 F4200.000
G1 X89.860 Y134.901 F4200.000
G1 X87.689 Y134.195 F4200.000
G1 X85.566 Y133.355 F4200.000
G1 X83.500 Y132.383 F4200.000
G1 X81.499 Y131.283 F4200.000
G1 X79.572 Y130.059 F4200.000
G1 X77.725 Y128.717 F4200.000
G1 X75.965 Y127.262 F4200.000
G1 X74.301 Y125.699 F4200.000
G1 X72.738 Y124.035 F4200.000
G1 X71.283 Y122.276 F4200.000
G1 X69.941 Y120.428 F4200.000
G1 X68.717 Y118.501 F4200.000
G1 X67.617 Y116.500 F4200.000
G1 X66.645 Y114.434 F4200.000
G1 X65.805 Y112.311 F4200.000
G1 X64.864 Y109.415 F4200.000
G1 X83.517 Y104.417 F4200.000
G1 X84.532 Y104.145 F4200.000
G1 X84.631 Y104.449 F4200.000
G1 X84.072 Y104.993 F4200.000
G1 E1.00000 F1800.00000
G1 X84.287 Y105.657 E0.04666 F1458.000
G1 X84.674 Y106.632 E0.07008
G1 X85.120 Y107.582 E0.07009
G1 X85.626 Y108.501 E0.07008
G1 X86.188 Y109.387 E0.07009
G1 X86.805 Y110.235 E0.07009
G1 X87.473 Y111.044 E0.07009
G1 X88.191 Y111.809 E0.07009
G1 X88.956 Y112.527 E0.07009
G1 X89.765 Y113.195 E0.07009
G1 X90.613 Y113.812 E0.07009
G1 X91.499 Y114.374 E0.07009
G1 X92.418 Y114.880 E0.07009
G1 X93.368 Y115.326 E0.07009
G1 X94.343 Y115.713 E0.07008
G1 X95.341 Y116.037 E0.07009
G1 X96.357 Y116.298 E0.07008
G1 X97.388 Y116.494 E0.07009
G1 X98.428 Y116.626 E0.07009
G1 X99.475 Y116.692 E0.07008
G1 X100.525 Y116.692 E0.07009
G1 X101.572 Y116.626 E0.07008
G1 X102.612 Y116.494 E0.07009
G1 X103.643 Y116.298 E0.07009
G1 X104.659 Y116.037 E0.07009
G1 X105.657 Y115.713 E0.07009
G1 X106.632 Y115.326 E0.07009
G1 X107.582 Y114.880 E0.07009
G1 X108.501 Y114.374 E0.07008
G1 X109.387 Y113.812 E0.07009
G1 X110.235 Y113.195 E0.07009
G1 X111.044 Y112.527 E0.07008
G1 X111.298 Y112.288 E0.02330
G1 X124.693 Y125.683 E1.26555
G1 X123.572 Y126.737 E0.10281
G1 X121.846 Y128.164 E0.14959
G1 X120.035 Y129.480 E0.14959
G1 X118.144 Y130.680 E0.14959
G1 X116.182 Y131.759 E0.14959
G1 X114.156 Y132.712 E0.14959
G1 X112.074 Y133.536 E0.14959
G1 X109.944 Y134.228 E0.14959
G1 X107.775 Y134.785 E0.14960
G1 X105.576 Y135.205 E0.14959
G1 X103.354 Y135.485 E0.14959
G1 X101.120 Y135.626 E0.14959
G1 X98.880 Y135.626 E0.14959
G1 X96.646 Y135.485 E0.14959
G1 X94.450 Y135.208 E0.14786
G1 X92.225 Y134.785 E0.15132
G1 X90.056 Y134.228 E0.14958
G1 X87.926 Y133.536 E0.14961
G1 X85.844 Y132.712 E0.14958
G1 X83.818 Y131.759 E0.14959
G1 X81.856 Y130.680 E0.14959
G1 X79.988 Y129.494 E0.14781
G1 X78.154 Y128.164 E0.15136
G1 X76.428 Y126.737 E0.14959
G1 X74.796 Y125.204 E0.14959
G1 X73.263 Y123.571 E0.14960
G1 X71.837 Y121.847 E0.14951
G1 X70.520 Y120.035 E0.14961
G1 X69.320 Y118.144 E0.14962
G1 X68.242 Y116.183 E0.14952
G1 X67.288 Y114.156 E0.14964
G1 X66.470 Y112.091 E0.14841
G1 X65.757 Y109.900 E0.15392
G1 X84.014 Y105.008 E1.26265
G1 X84.454 Y104.876 F4200.000
G1 E-1.00000 F1800.00000
G1 X64.373 Y110.350 F4200.000
G1 E1.00000 F1800.00000
G1 X63.794 Y108.093 E0.15570 F1458.000
G1 X63.357 Y105.804 E0.15570
G1 X63.065 Y103.491 E0.15570
G1 X62.918 Y101.165 E0.15570
G1 X62.918 Y98.835 E0.15570
G1 X63.065 Y96.509 E0.15570
G1 X63.357 Y94.196 E0.15571
G1 X63.792 Y91.915 E0.15518
G1 X64.373 Y89.649 E0.15622
G1 X65.093 Y87.433 E0.15570
G1 X65.951 Y85.266 E0.15570
G1 X66.944 Y83.157 E0.15571
G1 X68.067 Y81.115 E0.15570
G1 X69.315 Y79.147 E0.15570
G1 X70.685 Y77.261 E0.15570
G1 X72.171 Y75.465 E0.15570
G1 X73.766 Y73.766 E0.15570
G1 X75.465 Y72.171 E0.15570
G1 X77.261 Y70.685 E0.15570
